<?xml version="1.0" encoding="UTF-8"?>
<map version="1.10" tiledversion="1.11.2" orientation="orthogonal" renderorder="right-down" width="30" height="20" tilewidth="16" tileheight="16" infinite="1" nextlayerid="8" nextobjectid="1">
 <tileset firstgid="1" name="tielmap_all_inverted" tilewidth="16" tileheight="16" tilecount="2067" columns="39">
  <image source="../Tilesets/tielmap_all_inverted.png" width="624" height="848"/>
  <tile id="40">
   <objectgroup draworder="index" id="2">
    <object id="1" x="0" y="2" width="16" height="14"/>
   </objectgroup>
  </tile>
  <tile id="41">
   <objectgroup draworder="index" id="2">
    <object id="1" x="0" y="2" width="16" height="14"/>
   </objectgroup>
  </tile>
  <tile id="42">
   <objectgroup draworder="index" id="2">
    <object id="1" x="0" y="2" width="16" height="14"/>
   </objectgroup>
  </tile>
  <tile id="43">
   <objectgroup draworder="index" id="2">
    <object id="1" x="0" y="2" width="16" height="7"/>
   </objectgroup>
  </tile>
  <tile id="44">
   <objectgroup draworder="index" id="2">
    <object id="1" x="0" y="2" width="16" height="14"/>
   </objectgroup>
  </tile>
  <tile id="45">
   <objectgroup draworder="index" id="2">
    <object id="1" x="0" y="2" width="16" height="14"/>
   </objectgroup>
  </tile>
  <tile id="46">
   <objectgroup draworder="index" id="2">
    <object id="1" x="0" y="2" width="16" height="14"/>
   </objectgroup>
  </tile>
  <tile id="79">
   <objectgroup draworder="index" id="2">
    <object id="1" x="0" y="1" width="16" height="14"/>
   </objectgroup>
  </tile>
  <tile id="80">
   <objectgroup draworder="index" id="2">
    <object id="1" x="0" y="1" width="16" height="14"/>
   </objectgroup>
  </tile>
  <tile id="81">
   <objectgroup draworder="index" id="2">
    <object id="1" x="0" y="1" width="16" height="14"/>
   </objectgroup>
  </tile>
  <tile id="82">
   <objectgroup draworder="index" id="2">
    <object id="1" x="0" y="2" width="16" height="14"/>
   </objectgroup>
  </tile>
  <tile id="83">
   <objectgroup draworder="index" id="2">
    <object id="1" x="0" y="1" width="16" height="14"/>
   </objectgroup>
  </tile>
  <tile id="84">
   <objectgroup draworder="index" id="2">
    <object id="1" x="0" y="1" width="16" height="14"/>
   </objectgroup>
  </tile>
  <tile id="85">
   <objectgroup draworder="index" id="2">
    <object id="1" x="0" y="1" width="16" height="14"/>
   </objectgroup>
  </tile>
  <tile id="118">
   <objectgroup draworder="index" id="2">
    <object id="1" x="0" y="2" width="16" height="7"/>
   </objectgroup>
  </tile>
  <tile id="120">
   <objectgroup draworder="index" id="2">
    <object id="1" x="0" y="1" width="16" height="9"/>
   </objectgroup>
  </tile>
  <tile id="121">
   <objectgroup draworder="index" id="2">
    <object id="1" x="0" y="1" width="16" height="8"/>
   </objectgroup>
  </tile>
  <tile id="122">
   <objectgroup draworder="index" id="2">
    <object id="1" x="0" y="1" width="16" height="9"/>
   </objectgroup>
  </tile>
  <tile id="124">
   <objectgroup draworder="index" id="2">
    <object id="1" x="0" y="2" width="16" height="7"/>
   </objectgroup>
  </tile>
  <tile id="219">
   <objectgroup draworder="index" id="2">
    <object id="1" x="12" y="0" width="4" height="16"/>
   </objectgroup>
  </tile>
  <tile id="220">
   <objectgroup draworder="index" id="2">
    <object id="1" x="0" y="0" width="16" height="16"/>
   </objectgroup>
  </tile>
  <tile id="221">
   <objectgroup draworder="index" id="2">
    <object id="1" x="0" y="0" width="16" height="16"/>
   </objectgroup>
  </tile>
  <tile id="222">
   <objectgroup draworder="index" id="2">
    <object id="1" x="0" y="0" width="4" height="16"/>
   </objectgroup>
  </tile>
  <tile id="223">
   <objectgroup draworder="index" id="2">
    <object id="1" x="12" y="0" width="4" height="16"/>
   </objectgroup>
  </tile>
  <tile id="224">
   <objectgroup draworder="index" id="2">
    <object id="1" x="0" y="0" width="16" height="16"/>
   </objectgroup>
  </tile>
  <tile id="225">
   <objectgroup draworder="index" id="2">
    <object id="1" x="0" y="0" width="4" height="16"/>
   </objectgroup>
  </tile>
  <tile id="226">
   <objectgroup draworder="index" id="2">
    <object id="1" x="9" y="0" width="7" height="16"/>
   </objectgroup>
  </tile>
  <tile id="227">
   <objectgroup draworder="index" id="2">
    <object id="1" x="0" y="0" width="16" height="16"/>
   </objectgroup>
  </tile>
  <tile id="228">
   <objectgroup draworder="index" id="2">
    <object id="1" x="0" y="0" width="16" height="16"/>
   </objectgroup>
  </tile>
  <tile id="229">
   <objectgroup draworder="index" id="2">
    <object id="1" x="0" y="0" width="7" height="16"/>
   </objectgroup>
  </tile>
  <tile id="230">
   <objectgroup draworder="index" id="2">
    <object id="1" x="9" y="0" width="7" height="16"/>
   </objectgroup>
  </tile>
  <tile id="231">
   <objectgroup draworder="index" id="2">
    <object id="1" x="0" y="0" width="16" height="16"/>
   </objectgroup>
  </tile>
  <tile id="232">
   <objectgroup draworder="index" id="2">
    <object id="1" x="0" y="0" width="7" height="16"/>
   </objectgroup>
  </tile>
  <tile id="236">
   <objectgroup draworder="index" id="2">
    <object id="1" x="0" y="1" width="16" height="15"/>
   </objectgroup>
  </tile>
  <tile id="237">
   <objectgroup draworder="index" id="2">
    <object id="1" x="0" y="1" width="16" height="15"/>
   </objectgroup>
  </tile>
  <tile id="238">
   <objectgroup draworder="index" id="2">
    <object id="1" x="0" y="2" width="16" height="14"/>
   </objectgroup>
  </tile>
  <tile id="239">
   <objectgroup draworder="index" id="2">
    <object id="1" x="0" y="1" width="16" height="15"/>
   </objectgroup>
  </tile>
  <tile id="240">
   <objectgroup draworder="index" id="2">
    <object id="1" x="0" y="1" width="16" height="15"/>
   </objectgroup>
  </tile>
  <tile id="548">
   <objectgroup draworder="index" id="2">
    <object id="1" x="0" y="0" width="16" height="16"/>
   </objectgroup>
  </tile>
  <tile id="549">
   <objectgroup draworder="index" id="2">
    <object id="1" x="0" y="0" width="6.04348" height="16"/>
   </objectgroup>
  </tile>
  <tile id="556">
   <objectgroup draworder="index" id="2">
    <object id="1" x="0" y="0" width="16" height="16"/>
   </objectgroup>
  </tile>
  <tile id="557">
   <objectgroup draworder="index" id="2">
    <object id="1" x="0" y="0" width="6.04348" height="16"/>
   </objectgroup>
  </tile>
  <tile id="563">
   <objectgroup draworder="index" id="2">
    <object id="1" x="0" y="8.03125" width="16" height="7.96875"/>
   </objectgroup>
  </tile>
  <tile id="564">
   <objectgroup draworder="index" id="2">
    <object id="1" x="0" y="8.01563" width="16" height="7.98438"/>
   </objectgroup>
  </tile>
  <tile id="565">
   <objectgroup draworder="index" id="2">
    <object id="1" x="0" y="7.98438" width="16" height="8.01563"/>
   </objectgroup>
  </tile>
  <tile id="566">
   <objectgroup draworder="index" id="2">
    <object id="1" x="0" y="8" width="16" height="8"/>
   </objectgroup>
  </tile>
  <tile id="567">
   <objectgroup draworder="index" id="2">
    <object id="1" x="0" y="7.95313" width="16" height="8.04688"/>
   </objectgroup>
  </tile>
  <tile id="569">
   <objectgroup draworder="index" id="2">
    <object id="1" x="0" y="0" width="16" height="16"/>
   </objectgroup>
  </tile>
  <tile id="570">
   <objectgroup draworder="index" id="2">
    <object id="1" x="0" y="0" width="6" height="16"/>
   </objectgroup>
  </tile>
  <tile id="577">
   <objectgroup draworder="index" id="2">
    <object id="1" x="0" y="0" width="16" height="16"/>
   </objectgroup>
  </tile>
  <tile id="578">
   <objectgroup draworder="index" id="2">
    <object id="1" x="0" y="0" width="6.04348" height="16"/>
   </objectgroup>
  </tile>
  <tile id="587">
   <objectgroup draworder="index" id="2">
    <object id="1" x="0" y="0" width="16" height="16"/>
   </objectgroup>
  </tile>
  <tile id="595">
   <objectgroup draworder="index" id="2">
    <object id="1" x="0" y="0" width="16" height="16"/>
   </objectgroup>
  </tile>
  <tile id="602">
   <objectgroup draworder="index" id="2">
    <object id="1" x="0" y="8" width="13" height="8"/>
   </objectgroup>
  </tile>
  <tile id="603">
   <objectgroup draworder="index" id="2">
    <object id="1" x="3" y="8" width="13" height="8"/>
   </objectgroup>
  </tile>
  <tile id="608">
   <objectgroup draworder="index" id="2">
    <object id="1" x="0" y="0" width="16" height="16"/>
   </objectgroup>
  </tile>
  <tile id="616">
   <objectgroup draworder="index" id="2">
    <object id="1" x="0" y="0" width="16" height="16"/>
   </objectgroup>
  </tile>
  <tile id="641">
   <objectgroup draworder="index" id="2">
    <object id="1" x="0" y="0" width="16" height="16"/>
   </objectgroup>
  </tile>
  <tile id="642">
   <objectgroup draworder="index" id="2">
    <object id="1" x="0" y="0" width="16" height="16"/>
   </objectgroup>
  </tile>
  <tile id="644">
   <objectgroup draworder="index" id="2">
    <object id="1" x="0" y="0" width="13" height="16"/>
   </objectgroup>
  </tile>
  <tile id="645">
   <objectgroup draworder="index" id="2">
    <object id="1" x="3" y="0" width="13" height="16"/>
   </objectgroup>
  </tile>
  <tile id="664">
   <objectgroup draworder="index" id="2">
    <object id="1" x="11" y="0" width="5" height="9"/>
   </objectgroup>
  </tile>
  <tile id="665">
   <objectgroup draworder="index" id="2">
    <object id="1" x="0" y="0" width="16" height="16"/>
   </objectgroup>
  </tile>
  <tile id="666">
   <objectgroup draworder="index" id="2">
    <object id="1" x="0" y="0" width="16" height="16"/>
   </objectgroup>
  </tile>
  <tile id="667">
   <objectgroup draworder="index" id="2">
    <object id="1" x="0" y="0" width="16" height="16"/>
   </objectgroup>
  </tile>
  <tile id="669">
   <objectgroup draworder="index" id="2">
    <object id="1" x="0" y="0" width="16" height="16"/>
   </objectgroup>
  </tile>
  <tile id="670">
   <objectgroup draworder="index" id="2">
    <object id="1" x="0" y="0" width="16" height="16"/>
   </objectgroup>
  </tile>
  <tile id="671">
   <objectgroup draworder="index" id="2">
    <object id="1" x="0" y="0" width="16" height="16"/>
   </objectgroup>
  </tile>
  <tile id="673">
   <objectgroup draworder="index" id="2">
    <object id="1" x="0" y="0" width="16" height="16"/>
   </objectgroup>
  </tile>
  <tile id="674">
   <objectgroup draworder="index" id="2">
    <object id="1" x="0" y="0" width="16" height="16"/>
   </objectgroup>
  </tile>
  <tile id="675">
   <objectgroup draworder="index" id="2">
    <object id="1" x="0" y="0" width="16" height="16"/>
   </objectgroup>
  </tile>
  <tile id="676">
   <objectgroup draworder="index" id="2">
    <object id="1" x="0" y="0" width="16" height="16"/>
   </objectgroup>
  </tile>
  <tile id="677">
   <objectgroup draworder="index" id="2">
    <object id="1" x="0" y="0" width="16" height="16"/>
   </objectgroup>
  </tile>
  <tile id="678">
   <objectgroup draworder="index" id="2">
    <object id="1" x="0" y="0" width="16" height="16"/>
   </objectgroup>
  </tile>
  <tile id="679">
   <objectgroup draworder="index" id="2">
    <object id="1" x="0" y="0" width="5" height="9"/>
   </objectgroup>
  </tile>
  <tile id="683">
   <objectgroup draworder="index" id="2">
    <object id="1" x="0" y="0" width="16" height="16"/>
   </objectgroup>
  </tile>
  <tile id="684">
   <objectgroup draworder="index" id="2">
    <object id="1" x="0" y="0" width="16" height="16"/>
   </objectgroup>
  </tile>
  <tile id="685">
   <objectgroup draworder="index" id="2">
    <object id="1" x="11" y="0" width="5" height="9"/>
   </objectgroup>
  </tile>
  <tile id="686">
   <objectgroup draworder="index" id="2">
    <object id="1" x="0" y="0" width="16" height="16"/>
   </objectgroup>
  </tile>
  <tile id="687">
   <objectgroup draworder="index" id="2">
    <object id="1" x="0" y="0" width="16" height="16"/>
   </objectgroup>
  </tile>
  <tile id="688">
   <objectgroup draworder="index" id="2">
    <object id="1" x="0" y="0" width="16" height="16"/>
   </objectgroup>
  </tile>
  <tile id="690">
   <objectgroup draworder="index" id="2">
    <object id="1" x="0" y="0" width="16" height="16"/>
   </objectgroup>
  </tile>
  <tile id="691">
   <objectgroup draworder="index" id="2">
    <object id="1" x="0" y="0" width="16" height="16"/>
   </objectgroup>
  </tile>
  <tile id="692">
   <objectgroup draworder="index" id="2">
    <object id="1" x="0" y="0" width="16" height="16"/>
   </objectgroup>
  </tile>
  <tile id="694">
   <objectgroup draworder="index" id="2">
    <object id="1" x="0" y="0" width="16" height="16"/>
   </objectgroup>
  </tile>
  <tile id="695">
   <objectgroup draworder="index" id="2">
    <object id="1" x="0" y="0" width="16" height="16"/>
   </objectgroup>
  </tile>
  <tile id="696">
   <objectgroup draworder="index" id="2">
    <object id="1" x="0" y="0" width="16" height="16"/>
   </objectgroup>
  </tile>
  <tile id="697">
   <objectgroup draworder="index" id="2">
    <object id="1" x="0" y="0" width="16" height="16"/>
   </objectgroup>
  </tile>
  <tile id="698">
   <objectgroup draworder="index" id="2">
    <object id="1" x="0" y="0" width="16" height="16"/>
   </objectgroup>
  </tile>
  <tile id="699">
   <objectgroup draworder="index" id="2">
    <object id="1" x="0" y="0" width="16" height="16"/>
   </objectgroup>
  </tile>
  <tile id="700">
   <objectgroup draworder="index" id="2">
    <object id="1" x="0" y="0" width="5" height="9"/>
   </objectgroup>
  </tile>
  <tile id="704">
   <objectgroup draworder="index" id="2">
    <object id="1" x="0" y="0" width="16" height="16"/>
   </objectgroup>
  </tile>
  <tile id="717">
   <objectgroup draworder="index" id="2">
    <object id="1" x="0" y="0" width="12" height="16"/>
   </objectgroup>
  </tile>
  <tile id="725">
   <objectgroup draworder="index" id="2">
    <object id="1" x="0" y="0" width="16" height="16"/>
   </objectgroup>
  </tile>
  <tile id="738">
   <objectgroup draworder="index" id="2">
    <object id="1" x="0" y="0" width="12" height="16"/>
   </objectgroup>
  </tile>
  <tile id="743">
   <objectgroup draworder="index" id="2">
    <object id="1" x="0" y="0" width="16" height="16"/>
   </objectgroup>
  </tile>
  <tile id="755">
   <objectgroup draworder="index" id="2">
    <object id="1" x="0" y="0" width="16" height="16"/>
   </objectgroup>
  </tile>
  <tile id="756">
   <objectgroup draworder="index" id="2">
    <object id="1" x="0" y="0" width="4" height="7"/>
   </objectgroup>
  </tile>
  <tile id="764">
   <objectgroup draworder="index" id="2">
    <object id="1" x="0" y="0" width="16" height="16"/>
   </objectgroup>
  </tile>
  <tile id="776">
   <objectgroup draworder="index" id="2">
    <object id="1" x="0" y="0" width="16" height="16"/>
   </objectgroup>
  </tile>
  <tile id="777">
   <objectgroup draworder="index" id="2">
    <object id="1" x="0" y="0" width="4" height="7"/>
   </objectgroup>
  </tile>
  <tile id="821">
   <objectgroup draworder="index" id="2">
    <object id="1" x="0" y="0" width="16" height="16"/>
   </objectgroup>
  </tile>
  <tile id="833">
   <objectgroup draworder="index" id="2">
    <object id="1" x="0" y="0" width="12" height="16"/>
   </objectgroup>
  </tile>
  <tile id="842">
   <objectgroup draworder="index" id="2">
    <object id="1" x="0" y="0" width="16" height="16"/>
   </objectgroup>
  </tile>
  <tile id="860">
   <objectgroup draworder="index" id="2">
    <object id="1" x="0" y="0" width="16" height="16"/>
   </objectgroup>
  </tile>
  <tile id="871">
   <objectgroup draworder="index" id="2">
    <object id="1" x="0" y="0" width="16" height="16"/>
   </objectgroup>
  </tile>
  <tile id="872">
   <objectgroup draworder="index" id="2">
    <object id="1" x="0" y="0" width="4" height="7"/>
   </objectgroup>
  </tile>
  <tile id="881">
   <objectgroup draworder="index" id="2">
    <object id="1" x="0" y="0" width="16" height="16"/>
   </objectgroup>
  </tile>
  <tile id="892">
   <objectgroup draworder="index" id="2">
    <object id="1" x="0" y="0" width="16" height="16"/>
   </objectgroup>
  </tile>
  <tile id="893">
   <objectgroup draworder="index" id="2">
    <object id="1" x="0" y="0" width="4" height="7"/>
   </objectgroup>
  </tile>
  <tile id="898">
   <objectgroup draworder="index" id="2">
    <object id="1" x="8" y="0" width="8" height="16"/>
   </objectgroup>
  </tile>
  <tile id="899">
   <objectgroup draworder="index" id="2">
    <object id="1" x="0" y="0" width="16" height="16"/>
   </objectgroup>
  </tile>
  <tile id="909">
   <objectgroup draworder="index" id="2">
    <object id="1" x="0" y="0" width="16" height="16"/>
   </objectgroup>
  </tile>
  <tile id="910">
   <objectgroup draworder="index" id="2">
    <object id="1" x="0" y="0" width="12" height="16"/>
   </objectgroup>
  </tile>
  <tile id="920">
   <objectgroup draworder="index" id="2">
    <object id="1" x="0" y="0" width="16" height="16"/>
   </objectgroup>
  </tile>
  <tile id="930">
   <objectgroup draworder="index" id="2">
    <object id="1" x="0" y="0" width="16" height="16"/>
   </objectgroup>
  </tile>
  <tile id="931">
   <objectgroup draworder="index" id="2">
    <object id="1" x="0" y="0" width="12" height="16"/>
   </objectgroup>
  </tile>
  <tile id="937">
   <objectgroup draworder="index" id="2">
    <object id="1" x="8" y="0" width="8" height="16"/>
   </objectgroup>
  </tile>
  <tile id="938">
   <objectgroup draworder="index" id="2">
    <object id="1" x="0" y="0" width="16" height="16"/>
   </objectgroup>
  </tile>
  <tile id="939">
   <objectgroup draworder="index" id="2">
    <object id="1" x="0" y="0" width="16" height="16"/>
   </objectgroup>
  </tile>
  <tile id="940">
   <objectgroup draworder="index" id="2">
    <object id="1" x="0" y="0" width="16" height="16"/>
   </objectgroup>
  </tile>
  <tile id="942">
   <objectgroup draworder="index" id="2">
    <object id="1" x="0" y="0" width="16" height="16"/>
   </objectgroup>
  </tile>
  <tile id="943">
   <objectgroup draworder="index" id="2">
    <object id="1" x="0" y="0" width="16" height="16"/>
   </objectgroup>
  </tile>
  <tile id="944">
   <objectgroup draworder="index" id="2">
    <object id="1" x="0" y="0" width="16" height="16"/>
   </objectgroup>
  </tile>
  <tile id="946">
   <objectgroup draworder="index" id="2">
    <object id="1" x="0" y="0" width="16" height="16"/>
   </objectgroup>
  </tile>
  <tile id="947">
   <objectgroup draworder="index" id="2">
    <object id="1" x="0" y="0" width="16" height="15"/>
   </objectgroup>
  </tile>
  <tile id="948">
   <objectgroup draworder="index" id="2">
    <object id="1" x="0" y="0" width="16" height="10"/>
   </objectgroup>
  </tile>
  <tile id="959">
   <objectgroup draworder="index" id="2">
    <object id="1" x="0" y="0" width="16" height="16"/>
   </objectgroup>
  </tile>
  <tile id="969">
   <objectgroup draworder="index" id="2">
    <object id="1" x="0" y="0" width="16" height="10"/>
   </objectgroup>
  </tile>
  <tile id="1016">
   <objectgroup draworder="index" id="2">
    <object id="1" x="0" y="7.91304" width="16" height="8.08696"/>
   </objectgroup>
  </tile>
  <tile id="1017">
   <objectgroup draworder="index" id="2">
    <object id="1" x="0" y="8.04348" width="16" height="7.95652"/>
   </objectgroup>
  </tile>
  <tile id="1018">
   <objectgroup draworder="index" id="2">
    <object id="1" x="0" y="8.04348" width="16" height="7.95652"/>
   </objectgroup>
  </tile>
  <tile id="1019">
   <objectgroup draworder="index" id="2">
    <object id="1" x="0" y="8.04348" width="16" height="7.95652"/>
   </objectgroup>
  </tile>
  <tile id="1020">
   <objectgroup draworder="index" id="2">
    <object id="1" x="0" y="7.95652" width="16" height="8.04348"/>
   </objectgroup>
  </tile>
  <tile id="1021">
   <objectgroup draworder="index" id="2">
    <object id="1" x="0" y="8.04348" width="16" height="7.95652"/>
   </objectgroup>
  </tile>
  <tile id="1022">
   <objectgroup draworder="index" id="2">
    <object id="1" x="0" y="7.91304" width="16" height="8.08696"/>
   </objectgroup>
  </tile>
  <tile id="1027">
   <objectgroup draworder="index" id="2">
    <object id="1" x="3" y="0" width="13" height="16"/>
   </objectgroup>
  </tile>
  <tile id="1034">
   <objectgroup draworder="index" id="2">
    <object id="1" x="0" y="0" width="13" height="16"/>
   </objectgroup>
  </tile>
  <tile id="1055">
   <objectgroup draworder="index" id="2">
    <object id="1" x="3" y="0" width="13" height="16"/>
   </objectgroup>
  </tile>
  <tile id="1061">
   <objectgroup draworder="index" id="2">
    <object id="1" x="0" y="0" width="13" height="16"/>
   </objectgroup>
  </tile>
  <tile id="1066">
   <objectgroup draworder="index" id="2">
    <object id="1" x="4" y="0" width="12" height="16"/>
   </objectgroup>
  </tile>
  <tile id="1073">
   <objectgroup draworder="index" id="2">
    <object id="1" x="0" y="0" width="12" height="16"/>
   </objectgroup>
  </tile>
  <tile id="1094">
   <objectgroup draworder="index" id="2">
    <object id="1" x="4" y="0" width="12" height="16"/>
   </objectgroup>
  </tile>
  <tile id="1100">
   <objectgroup draworder="index" id="2">
    <object id="1" x="0" y="0" width="12" height="16"/>
   </objectgroup>
  </tile>
  <tile id="1105">
   <objectgroup draworder="index" id="2">
    <object id="1" x="4" y="0" width="12" height="16"/>
   </objectgroup>
  </tile>
  <tile id="1112">
   <objectgroup draworder="index" id="2">
    <object id="1" x="0" y="0" width="12" height="16"/>
   </objectgroup>
  </tile>
  <tile id="1133">
   <objectgroup draworder="index" id="2">
    <object id="1" x="4" y="0" width="12" height="16"/>
   </objectgroup>
  </tile>
  <tile id="1139">
   <objectgroup draworder="index" id="2">
    <object id="1" x="0" y="0" width="12" height="16"/>
   </objectgroup>
  </tile>
  <tile id="1144">
   <objectgroup draworder="index" id="2">
    <object id="1" x="0" y="0" width="16" height="16"/>
   </objectgroup>
  </tile>
  <tile id="1151">
   <objectgroup draworder="index" id="2">
    <object id="1" x="0" y="0" width="13" height="16"/>
   </objectgroup>
  </tile>
  <tile id="1157">
   <objectgroup draworder="index" id="2">
    <object id="1" x="11" y="13" width="5" height="3"/>
   </objectgroup>
  </tile>
  <tile id="1158">
   <objectgroup draworder="index" id="2">
    <object id="1" x="0" y="13" width="5" height="3"/>
   </objectgroup>
  </tile>
  <tile id="1183">
   <objectgroup draworder="index" id="2">
    <object id="1" x="4" y="0" width="12" height="16"/>
   </objectgroup>
  </tile>
  <tile id="1190">
   <objectgroup draworder="index" id="2">
    <object id="1" x="0" y="0" width="12" height="16"/>
   </objectgroup>
  </tile>
  <tile id="1195">
   <objectgroup draworder="index" id="2">
    <object id="1" x="0" y="2" width="16" height="14"/>
   </objectgroup>
  </tile>
  <tile id="1196">
   <objectgroup draworder="index" id="2">
    <object id="1" x="0" y="0" width="16" height="16"/>
   </objectgroup>
  </tile>
  <tile id="1197">
   <objectgroup draworder="index" id="2">
    <object id="1" x="0" y="0" width="16" height="16"/>
   </objectgroup>
  </tile>
  <tile id="1210">
   <objectgroup draworder="index" id="2">
    <object id="1" x="2" y="8" width="14" height="8"/>
   </objectgroup>
  </tile>
  <tile id="1222">
   <objectgroup draworder="index" id="2">
    <object id="1" x="4" y="0" width="12" height="16"/>
   </objectgroup>
  </tile>
  <tile id="1229">
   <objectgroup draworder="index" id="2">
    <object id="1" x="0" y="0" width="12" height="16"/>
   </objectgroup>
  </tile>
  <tile id="1234">
   <objectgroup draworder="index" id="2">
    <object id="1" x="1" y="10" width="14" height="6"/>
   </objectgroup>
  </tile>
  <tile id="1235">
   <objectgroup draworder="index" id="2">
    <object id="1" x="5" y="5" width="11" height="11"/>
   </objectgroup>
  </tile>
  <tile id="1236">
   <objectgroup draworder="index" id="2">
    <object id="1" x="0" y="5" width="11" height="11"/>
   </objectgroup>
  </tile>
  <tile id="1250">
   <objectgroup draworder="index" id="2">
    <object id="1" x="0" y="0" width="16" height="16"/>
   </objectgroup>
  </tile>
  <tile id="1273">
   <objectgroup draworder="index" id="2">
    <object id="1" x="0" y="0" width="16" height="16"/>
   </objectgroup>
  </tile>
  <tile id="1274">
   <objectgroup draworder="index" id="2">
    <object id="1" x="0" y="0" width="16" height="16"/>
   </objectgroup>
  </tile>
  <tile id="1275">
   <objectgroup draworder="index" id="2">
    <object id="1" x="0" y="0" width="16" height="16"/>
   </objectgroup>
  </tile>
  <tile id="1405">
   <objectgroup draworder="index" id="2">
    <object id="1" x="11" y="0" width="5" height="9"/>
   </objectgroup>
  </tile>
  <tile id="1406">
   <objectgroup draworder="index" id="2">
    <object id="1" x="0" y="0" width="16" height="16"/>
   </objectgroup>
  </tile>
  <tile id="1407">
   <objectgroup draworder="index" id="2">
    <object id="1" x="0" y="0" width="16" height="16"/>
   </objectgroup>
  </tile>
  <tile id="1408">
   <objectgroup draworder="index" id="2">
    <object id="1" x="0" y="0" width="16" height="16"/>
   </objectgroup>
  </tile>
  <tile id="1409">
   <objectgroup draworder="index" id="2">
    <object id="1" x="0" y="0" width="16" height="16"/>
   </objectgroup>
  </tile>
  <tile id="1410">
   <objectgroup draworder="index" id="2">
    <object id="1" x="0" y="0" width="16" height="16"/>
   </objectgroup>
  </tile>
  <tile id="1411">
   <objectgroup draworder="index" id="2">
    <object id="1" x="0" y="0" width="16" height="16"/>
   </objectgroup>
  </tile>
  <tile id="1412">
   <objectgroup draworder="index" id="2">
    <object id="1" x="0" y="0" width="16" height="16"/>
    <object id="2" x="0" y="0" width="16" height="16"/>
   </objectgroup>
  </tile>
  <tile id="1413">
   <objectgroup draworder="index" id="2">
    <object id="1" x="0" y="0" width="16" height="16"/>
   </objectgroup>
  </tile>
  <tile id="1414">
   <objectgroup draworder="index" id="2">
    <object id="1" x="0" y="0" width="16" height="16"/>
   </objectgroup>
  </tile>
  <tile id="1415">
   <objectgroup draworder="index" id="2">
    <object id="1" x="0" y="0" width="5" height="9"/>
   </objectgroup>
  </tile>
  <tile id="1416">
   <objectgroup draworder="index" id="2">
    <object id="1" x="0" y="0" width="16" height="16"/>
   </objectgroup>
  </tile>
  <tile id="1417">
   <objectgroup draworder="index" id="2">
    <object id="1" x="0" y="0" width="16" height="16"/>
   </objectgroup>
  </tile>
  <tile id="1418">
   <objectgroup draworder="index" id="2">
    <object id="1" x="0" y="0" width="16" height="16"/>
   </objectgroup>
  </tile>
  <tile id="1420">
   <objectgroup draworder="index" id="2">
    <object id="1" x="0" y="0" width="13" height="16"/>
   </objectgroup>
  </tile>
  <tile id="1421">
   <objectgroup draworder="index" id="2">
    <object id="1" x="3" y="0" width="13" height="16"/>
   </objectgroup>
  </tile>
  <tile id="1445">
   <objectgroup draworder="index" id="2">
    <object id="1" x="0" y="0" width="16" height="16"/>
   </objectgroup>
  </tile>
  <tile id="1459">
   <objectgroup draworder="index" id="2">
    <object id="1" x="0" y="0" width="16" height="16"/>
   </objectgroup>
  </tile>
  <tile id="1460">
   <objectgroup draworder="index" id="2">
    <object id="1" x="0" y="0" width="16" height="16"/>
   </objectgroup>
  </tile>
  <tile id="1484">
   <objectgroup draworder="index" id="2">
    <object id="1" x="0" y="0" width="16" height="16"/>
   </objectgroup>
  </tile>
  <tile id="1498">
   <objectgroup draworder="index" id="2">
    <object id="1" x="0" y="8" width="13" height="8"/>
   </objectgroup>
  </tile>
  <tile id="1499">
   <objectgroup draworder="index" id="2">
    <object id="1" x="3" y="8" width="13" height="8"/>
   </objectgroup>
  </tile>
  <tile id="1505">
   <objectgroup draworder="index" id="2">
    <object id="1" x="4.9375" y="0" width="11.0625" height="16"/>
   </objectgroup>
  </tile>
  <tile id="1506">
   <objectgroup draworder="index" id="2">
    <object id="1" x="0" y="0" width="14" height="16"/>
   </objectgroup>
  </tile>
  <tile id="1523">
   <objectgroup draworder="index" id="2">
    <object id="1" x="0" y="0" width="16" height="16"/>
   </objectgroup>
  </tile>
  <tile id="1537">
   <objectgroup draworder="index" id="2">
    <object id="1" x="0" y="0" width="16" height="16"/>
   </objectgroup>
  </tile>
  <tile id="1538">
   <objectgroup draworder="index" id="2">
    <object id="1" x="0" y="0" width="16" height="16"/>
   </objectgroup>
  </tile>
  <tile id="1544">
   <objectgroup draworder="index" id="2">
    <object id="1" x="0" y="0" width="16" height="16"/>
   </objectgroup>
  </tile>
  <tile id="1545">
   <objectgroup draworder="index" id="2">
    <object id="1" x="0" y="0" width="16" height="16"/>
   </objectgroup>
  </tile>
  <tile id="1562">
   <objectgroup draworder="index" id="2">
    <object id="1" x="0" y="0" width="16" height="16"/>
   </objectgroup>
  </tile>
  <tile id="1579">
   <objectgroup draworder="index" id="2">
    <object id="1" x="0" y="16">
     <polygon points="0,0 16,0 16,-16 12.9922,-16.0156 10.0234,-15.0156 8.03906,-14.0156 7,-12.9844 5.99219,-11.9844 3.00781,-8.99219 2.03125,-6.97656 1.00781,-4.02344"/>
    </object>
   </objectgroup>
  </tile>
  <tile id="1580">
   <objectgroup draworder="index" id="2">
    <object id="1" x="0" y="0" width="15" height="16"/>
   </objectgroup>
  </tile>
  <tile id="1581">
   <objectgroup draworder="index" id="2">
    <object id="1" x="1" y="0" width="15" height="16"/>
    <object id="2" x="0" y="16">
     <polygon points="0,0 16,0 16,-16 12.9922,-16.0156 10.0234,-15.0156 8.03906,-14.0156 7,-12.9844 5.99219,-11.9844 3.00781,-8.99219 2.03125,-6.97656 1.00781,-4.02344"/>
    </object>
   </objectgroup>
  </tile>
  <tile id="1582">
   <objectgroup draworder="index" id="2">
    <object id="1" x="0" y="0" width="15" height="16"/>
   </objectgroup>
  </tile>
  <tile id="1583">
   <objectgroup draworder="index" id="2">
    <object id="1" x="5" y="13" width="11" height="3"/>
   </objectgroup>
  </tile>
  <tile id="1584">
   <objectgroup draworder="index" id="2">
    <object id="1" x="0" y="13" width="10" height="3"/>
   </objectgroup>
  </tile>
  <tile id="1601">
   <objectgroup draworder="index" id="2">
    <object id="1" x="0" y="0" width="16" height="16"/>
   </objectgroup>
  </tile>
  <tile id="1619">
   <objectgroup draworder="index" id="2">
    <object id="1" x="0" y="0" width="16" height="16"/>
   </objectgroup>
  </tile>
  <tile id="1620">
   <objectgroup draworder="index" id="2">
    <object id="1" x="1" y="0" width="15" height="16"/>
   </objectgroup>
  </tile>
  <tile id="1621">
   <objectgroup draworder="index" id="2">
    <object id="1" x="0" y="0" width="15" height="16"/>
   </objectgroup>
  </tile>
  <tile id="1622">
   <objectgroup draworder="index" id="2">
    <object id="1" x="3" y="0" width="13" height="16"/>
   </objectgroup>
  </tile>
  <tile id="1623">
   <objectgroup draworder="index" id="2">
    <object id="1" x="0" y="0" width="14" height="16"/>
   </objectgroup>
  </tile>
  <tile id="1640">
   <objectgroup draworder="index" id="2">
    <object id="1" x="0" y="0" width="16" height="16"/>
   </objectgroup>
  </tile>
 </tileset>
 <tileset firstgid="2068" name="tilemap_all_ship" tilewidth="16" tileheight="16" tilecount="2067" columns="39">
  <image source="../Tilesets/tilemap_all_ship.png" width="624" height="848"/>
  <tile id="70">
   <objectgroup draworder="index" id="2">
    <object id="1" x="0" y="2" width="16" height="14"/>
   </objectgroup>
  </tile>
  <tile id="71">
   <objectgroup draworder="index" id="2">
    <object id="1" x="0" y="2" width="16" height="14"/>
   </objectgroup>
  </tile>
  <tile id="72">
   <objectgroup draworder="index" id="2">
    <object id="1" x="0" y="2" width="16" height="14"/>
   </objectgroup>
  </tile>
  <tile id="73">
   <objectgroup draworder="index" id="2">
    <object id="1" x="0" y="2" width="16" height="7"/>
   </objectgroup>
  </tile>
  <tile id="74">
   <objectgroup draworder="index" id="2">
    <object id="1" x="0" y="2" width="16" height="14"/>
   </objectgroup>
  </tile>
  <tile id="75">
   <objectgroup draworder="index" id="2">
    <object id="1" x="0" y="2" width="16" height="14"/>
   </objectgroup>
  </tile>
  <tile id="76">
   <objectgroup draworder="index" id="2">
    <object id="1" x="0" y="2" width="16" height="14"/>
   </objectgroup>
  </tile>
  <tile id="109">
   <objectgroup draworder="index" id="2">
    <object id="1" x="0" y="1" width="16" height="14"/>
   </objectgroup>
  </tile>
  <tile id="110">
   <objectgroup draworder="index" id="2">
    <object id="1" x="0" y="1" width="16" height="14"/>
   </objectgroup>
  </tile>
  <tile id="111">
   <objectgroup draworder="index" id="2">
    <object id="1" x="0" y="1" width="16" height="14"/>
   </objectgroup>
  </tile>
  <tile id="112">
   <objectgroup draworder="index" id="2">
    <object id="1" x="0" y="2" width="16" height="14"/>
   </objectgroup>
  </tile>
  <tile id="113">
   <objectgroup draworder="index" id="2">
    <object id="1" x="0" y="1" width="16" height="14"/>
   </objectgroup>
  </tile>
  <tile id="114">
   <objectgroup draworder="index" id="2">
    <object id="1" x="0" y="1" width="16" height="14"/>
   </objectgroup>
  </tile>
  <tile id="115">
   <objectgroup draworder="index" id="2">
    <object id="1" x="0" y="1" width="16" height="14"/>
   </objectgroup>
  </tile>
  <tile id="148">
   <objectgroup draworder="index" id="2">
    <object id="1" x="0" y="2" width="16" height="7"/>
   </objectgroup>
  </tile>
  <tile id="150">
   <objectgroup draworder="index" id="2">
    <object id="1" x="0" y="1" width="16" height="9"/>
   </objectgroup>
  </tile>
  <tile id="151">
   <objectgroup draworder="index" id="2">
    <object id="1" x="0" y="1" width="16" height="8"/>
   </objectgroup>
  </tile>
  <tile id="152">
   <objectgroup draworder="index" id="2">
    <object id="1" x="0" y="1" width="16" height="9"/>
   </objectgroup>
  </tile>
  <tile id="154">
   <objectgroup draworder="index" id="2">
    <object id="1" x="0" y="2" width="16" height="7"/>
   </objectgroup>
  </tile>
  <tile id="196">
   <objectgroup draworder="index" id="2">
    <object id="1" x="9" y="0" width="7" height="16"/>
   </objectgroup>
  </tile>
  <tile id="197">
   <objectgroup draworder="index" id="2">
    <object id="1" x="0" y="0" width="16" height="16"/>
   </objectgroup>
  </tile>
  <tile id="198">
   <objectgroup draworder="index" id="2">
    <object id="1" x="0" y="0" width="7" height="16"/>
   </objectgroup>
  </tile>
  <tile id="199">
   <objectgroup draworder="index" id="2">
    <object id="1" x="9" y="0" width="7" height="16"/>
   </objectgroup>
  </tile>
  <tile id="200">
   <objectgroup draworder="index" id="2">
    <object id="1" x="0" y="0" width="16" height="16"/>
   </objectgroup>
  </tile>
  <tile id="201">
   <objectgroup draworder="index" id="2">
    <object id="1" x="0" y="0" width="16" height="16"/>
   </objectgroup>
  </tile>
  <tile id="202">
   <objectgroup draworder="index" id="2">
    <object id="1" x="0" y="0" width="7" height="16"/>
   </objectgroup>
  </tile>
  <tile id="203">
   <objectgroup draworder="index" id="2">
    <object id="1" x="12" y="0" width="4" height="16"/>
   </objectgroup>
  </tile>
  <tile id="204">
   <objectgroup draworder="index" id="2">
    <object id="1" x="0" y="0" width="16" height="16"/>
   </objectgroup>
  </tile>
  <tile id="205">
   <objectgroup draworder="index" id="2">
    <object id="1" x="0" y="0" width="4" height="16"/>
   </objectgroup>
  </tile>
  <tile id="206">
   <objectgroup draworder="index" id="2">
    <object id="1" x="12" y="0" width="4" height="16"/>
   </objectgroup>
  </tile>
  <tile id="207">
   <objectgroup draworder="index" id="2">
    <object id="1" x="0" y="0" width="16" height="16"/>
   </objectgroup>
  </tile>
  <tile id="208">
   <objectgroup draworder="index" id="2">
    <object id="1" x="0" y="0" width="16" height="16"/>
   </objectgroup>
  </tile>
  <tile id="209">
   <objectgroup draworder="index" id="2">
    <object id="1" x="0" y="0" width="4" height="16"/>
   </objectgroup>
  </tile>
  <tile id="266">
   <objectgroup draworder="index" id="2">
    <object id="1" x="0" y="1" width="16" height="15"/>
   </objectgroup>
  </tile>
  <tile id="267">
   <objectgroup draworder="index" id="2">
    <object id="1" x="0" y="1" width="16" height="15"/>
   </objectgroup>
  </tile>
  <tile id="268">
   <objectgroup draworder="index" id="2">
    <object id="1" x="0" y="2" width="16" height="14"/>
   </objectgroup>
  </tile>
  <tile id="269">
   <objectgroup draworder="index" id="2">
    <object id="1" x="0" y="1" width="16" height="15"/>
   </objectgroup>
  </tile>
  <tile id="270">
   <objectgroup draworder="index" id="2">
    <object id="1" x="0" y="1" width="16" height="15"/>
   </objectgroup>
  </tile>
  <tile id="605">
   <objectgroup draworder="index" id="2">
    <object id="1" x="0" y="8" width="13" height="8"/>
   </objectgroup>
  </tile>
  <tile id="606">
   <objectgroup draworder="index" id="2">
    <object id="1" x="3" y="8" width="13" height="8"/>
   </objectgroup>
  </tile>
  <tile id="641">
   <objectgroup draworder="index" id="2">
    <object id="1" x="0" y="0" width="13" height="16"/>
   </objectgroup>
  </tile>
  <tile id="642">
   <objectgroup draworder="index" id="2">
    <object id="1" x="3" y="0" width="13" height="16"/>
    <object id="2" x="3" y="0" width="13" height="16"/>
   </objectgroup>
  </tile>
  <tile id="644">
   <objectgroup draworder="index" id="2">
    <object id="1" x="0" y="0" width="16" height="16"/>
   </objectgroup>
  </tile>
  <tile id="645">
   <objectgroup draworder="index" id="2">
    <object id="1" x="0" y="0" width="16" height="16"/>
   </objectgroup>
  </tile>
  <tile id="664">
   <objectgroup draworder="index" id="2">
    <object id="1" x="11" y="0" width="5" height="9"/>
    <object id="2" x="11" y="0" width="5" height="9"/>
   </objectgroup>
  </tile>
  <tile id="665">
   <objectgroup draworder="index" id="2">
    <object id="4" x="0" y="0" width="16" height="16"/>
    <object id="5" x="0" y="0" width="16" height="16"/>
   </objectgroup>
  </tile>
  <tile id="666">
   <objectgroup draworder="index" id="2">
    <object id="1" x="0" y="0" width="16" height="16"/>
    <object id="2" x="0" y="0" width="16" height="16"/>
   </objectgroup>
  </tile>
  <tile id="667">
   <objectgroup draworder="index" id="2">
    <object id="1" x="0" y="0" width="16" height="16"/>
    <object id="2" x="0" y="0" width="16" height="16"/>
   </objectgroup>
  </tile>
  <tile id="668">
   <objectgroup draworder="index" id="2">
    <object id="1" x="0" y="0" width="16" height="16"/>
    <object id="2" x="0" y="0" width="16" height="16"/>
   </objectgroup>
  </tile>
  <tile id="669">
   <objectgroup draworder="index" id="2">
    <object id="1" x="0" y="0" width="16" height="16"/>
    <object id="2" x="0" y="0" width="16" height="16"/>
   </objectgroup>
  </tile>
  <tile id="670">
   <objectgroup draworder="index" id="2">
    <object id="1" x="0" y="0" width="16" height="16"/>
    <object id="2" x="0" y="0" width="16" height="16"/>
   </objectgroup>
  </tile>
  <tile id="672">
   <objectgroup draworder="index" id="2">
    <object id="1" x="0" y="0" width="16" height="16"/>
    <object id="2" x="0" y="0" width="16" height="16"/>
   </objectgroup>
  </tile>
  <tile id="673">
   <objectgroup draworder="index" id="2">
    <object id="1" x="0" y="0" width="16" height="16"/>
    <object id="2" x="0" y="0" width="16" height="16"/>
   </objectgroup>
  </tile>
  <tile id="674">
   <objectgroup draworder="index" id="2">
    <object id="1" x="0" y="0" width="16" height="16"/>
    <object id="2" x="0" y="0" width="16" height="16"/>
   </objectgroup>
  </tile>
  <tile id="676">
   <objectgroup draworder="index" id="2">
    <object id="1" x="0" y="0" width="16" height="16"/>
    <object id="2" x="0" y="0" width="16" height="16"/>
   </objectgroup>
  </tile>
  <tile id="677">
   <objectgroup draworder="index" id="2">
    <object id="1" x="0" y="0" width="16" height="16"/>
    <object id="2" x="0" y="0" width="16" height="16"/>
   </objectgroup>
  </tile>
  <tile id="678">
   <objectgroup draworder="index" id="2">
    <object id="1" x="0" y="0" width="16" height="16"/>
    <object id="2" x="0" y="0" width="16" height="16"/>
   </objectgroup>
  </tile>
  <tile id="679">
   <objectgroup draworder="index" id="2">
    <object id="1" x="0" y="0" width="5" height="9"/>
    <object id="2" x="0" y="0" width="5" height="9"/>
   </objectgroup>
  </tile>
  <tile id="680">
   <objectgroup draworder="index" id="2">
    <object id="1" x="0" y="0" width="16" height="16"/>
   </objectgroup>
  </tile>
  <tile id="681">
   <objectgroup draworder="index" id="2">
    <object id="1" x="0" y="0" width="16" height="16"/>
    <object id="2" x="0" y="0" width="16" height="16"/>
   </objectgroup>
  </tile>
  <tile id="685">
   <objectgroup draworder="index" id="2">
    <object id="1" x="11" y="0" width="5" height="9"/>
   </objectgroup>
  </tile>
  <tile id="686">
   <objectgroup draworder="index" id="2">
    <object id="1" x="0" y="0" width="16" height="16"/>
   </objectgroup>
  </tile>
  <tile id="687">
   <objectgroup draworder="index" id="2">
    <object id="1" x="0" y="0" width="16" height="16"/>
    <object id="2" x="0" y="0" width="16" height="16"/>
   </objectgroup>
  </tile>
  <tile id="688">
   <objectgroup draworder="index" id="2">
    <object id="1" x="0" y="0" width="16" height="16"/>
    <object id="2" x="0" y="0" width="16" height="16"/>
   </objectgroup>
  </tile>
  <tile id="689">
   <objectgroup draworder="index" id="2">
    <object id="1" x="0" y="0" width="16" height="16"/>
    <object id="2" x="0" y="0" width="16" height="16"/>
   </objectgroup>
  </tile>
  <tile id="690">
   <objectgroup draworder="index" id="2">
    <object id="1" x="0" y="0" width="16" height="16"/>
    <object id="2" x="0" y="0" width="16" height="16"/>
   </objectgroup>
  </tile>
  <tile id="691">
   <objectgroup draworder="index" id="2">
    <object id="1" x="0" y="0" width="16" height="16"/>
   </objectgroup>
  </tile>
  <tile id="693">
   <objectgroup draworder="index" id="2">
    <object id="1" x="0" y="0" width="16" height="16"/>
   </objectgroup>
  </tile>
  <tile id="694">
   <objectgroup draworder="index" id="2">
    <object id="1" x="0" y="0" width="16" height="16"/>
   </objectgroup>
  </tile>
  <tile id="695">
   <objectgroup draworder="index" id="2">
    <object id="1" x="0" y="0" width="16" height="16"/>
   </objectgroup>
  </tile>
  <tile id="697">
   <objectgroup draworder="index" id="2">
    <object id="1" x="0" y="0" width="16" height="16"/>
   </objectgroup>
  </tile>
  <tile id="698">
   <objectgroup draworder="index" id="2">
    <object id="1" x="0" y="0" width="16" height="16"/>
   </objectgroup>
  </tile>
  <tile id="699">
   <objectgroup draworder="index" id="2">
    <object id="1" x="0" y="0" width="16" height="16"/>
   </objectgroup>
  </tile>
  <tile id="700">
   <objectgroup draworder="index" id="2">
    <object id="1" x="0" y="0" width="5" height="9"/>
   </objectgroup>
  </tile>
  <tile id="704">
   <objectgroup draworder="index" id="2">
    <object id="1" x="4" y="0" width="12" height="16"/>
   </objectgroup>
  </tile>
  <tile id="743">
   <objectgroup draworder="index" id="2">
    <object id="1" x="12" y="0" width="4" height="7"/>
   </objectgroup>
  </tile>
  <tile id="744">
   <objectgroup draworder="index" id="2">
    <object id="1" x="0" y="0" width="16" height="16"/>
   </objectgroup>
  </tile>
  <tile id="758">
   <objectgroup draworder="index" id="2">
    <object id="8" x="0" y="16">
     <polygon points="0,0 16,0 16.0078,-6 5,-16 0,-16"/>
    </object>
   </objectgroup>
  </tile>
  <tile id="764">
   <objectgroup draworder="index" id="2">
    <object id="1" x="12" y="0" width="4" height="7"/>
   </objectgroup>
  </tile>
  <tile id="765">
   <objectgroup draworder="index" id="2">
    <object id="1" x="0" y="0" width="16" height="16"/>
   </objectgroup>
  </tile>
  <tile id="822">
   <objectgroup draworder="index" id="2">
    <object id="1" x="4" y="0" width="12" height="16"/>
   </objectgroup>
  </tile>
  <tile id="843">
   <objectgroup draworder="index" id="2">
    <object id="1" x="4" y="0" width="12" height="16"/>
   </objectgroup>
  </tile>
  <tile id="861">
   <objectgroup draworder="index" id="2">
    <object id="1" x="12" y="0" width="4" height="7"/>
   </objectgroup>
  </tile>
  <tile id="862">
   <objectgroup draworder="index" id="2">
    <object id="1" x="0" y="0" width="16" height="16"/>
   </objectgroup>
  </tile>
  <tile id="882">
   <objectgroup draworder="index" id="2">
    <object id="1" x="12" y="0" width="4" height="7"/>
   </objectgroup>
  </tile>
  <tile id="883">
   <objectgroup draworder="index" id="2">
    <object id="1" x="0" y="0" width="16" height="16"/>
   </objectgroup>
  </tile>
  <tile id="901">
   <objectgroup draworder="index" id="2">
    <object id="1" x="4" y="0" width="12" height="16"/>
   </objectgroup>
  </tile>
  <tile id="922">
   <objectgroup draworder="index" id="2">
    <object id="1" x="4" y="0" width="12" height="16"/>
   </objectgroup>
  </tile>
  <tile id="1496">
   <objectgroup draworder="index" id="2">
    <object id="1" x="2" y="0" width="14" height="16"/>
   </objectgroup>
  </tile>
  <tile id="1497">
   <objectgroup draworder="index" id="2">
    <object id="1" x="0" y="0" width="14" height="16"/>
   </objectgroup>
  </tile>
  <tile id="1535">
   <objectgroup draworder="index" id="2">
    <object id="1" x="0" y="0" width="16" height="16"/>
   </objectgroup>
  </tile>
  <tile id="1536">
   <objectgroup draworder="index" id="2">
    <object id="1" x="0" y="0" width="16" height="16"/>
   </objectgroup>
  </tile>
  <tile id="1574">
   <objectgroup draworder="index" id="2">
    <object id="1" x="6" y="13" width="10" height="3"/>
   </objectgroup>
  </tile>
  <tile id="1575">
   <objectgroup draworder="index" id="2">
    <object id="1" x="0" y="13" width="11" height="3"/>
   </objectgroup>
  </tile>
  <tile id="1613">
   <objectgroup draworder="index" id="2">
    <object id="1" x="2" y="0" width="14" height="16"/>
   </objectgroup>
  </tile>
  <tile id="1614">
   <objectgroup draworder="index" id="2">
    <object id="1" x="0" y="0" width="13" height="16"/>
   </objectgroup>
  </tile>
  <tile id="1964">
   <objectgroup draworder="index" id="2">
    <object id="1" x="0" y="0" width="16" height="16"/>
   </objectgroup>
  </tile>
  <tile id="1965">
   <objectgroup draworder="index" id="2">
    <object id="1" x="0" y="0" width="16" height="9"/>
   </objectgroup>
  </tile>
  <tile id="1966">
   <objectgroup draworder="index" id="2">
    <object id="1" x="0" y="0" width="16" height="15"/>
   </objectgroup>
  </tile>
  <tile id="1967">
   <objectgroup draworder="index" id="2">
    <object id="1" x="0" y="0" width="16" height="13"/>
   </objectgroup>
  </tile>
  <tile id="1968">
   <objectgroup draworder="index" id="2">
    <object id="1" x="0" y="0" width="16" height="9"/>
   </objectgroup>
  </tile>
  <tile id="1969">
   <objectgroup draworder="index" id="2">
    <object id="1" x="0" y="0" width="16" height="16"/>
   </objectgroup>
  </tile>
 </tileset>
 <tileset firstgid="4135" name="tilemap_all_bay" tilewidth="16" tileheight="16" tilecount="2067" columns="39">
  <image source="../Tilesets/tilemap_all_bay.png" width="624" height="848"/>
  <tile id="45">
   <objectgroup draworder="index" id="2">
    <object id="1" x="7" y="0" width="9" height="7"/>
   </objectgroup>
  </tile>
  <tile id="46">
   <objectgroup draworder="index" id="2">
    <object id="1" x="0" y="0" width="16" height="7"/>
   </objectgroup>
  </tile>
  <tile id="47">
   <objectgroup draworder="index" id="2">
    <object id="1" x="0" y="0" width="16" height="7"/>
   </objectgroup>
  </tile>
  <tile id="48">
   <objectgroup draworder="index" id="2">
    <object id="1" x="0" y="0" width="16" height="7"/>
   </objectgroup>
  </tile>
  <tile id="49">
   <objectgroup draworder="index" id="2">
    <object id="1" x="0" y="0" width="16" height="7"/>
   </objectgroup>
  </tile>
  <tile id="50">
   <objectgroup draworder="index" id="2">
    <object id="1" x="0" y="0" width="8" height="7"/>
   </objectgroup>
  </tile>
  <tile id="84">
   <objectgroup draworder="index" id="2">
    <object id="1" x="0" y="0" width="16" height="7"/>
   </objectgroup>
  </tile>
  <tile id="85">
   <objectgroup draworder="index" id="2">
    <object id="1" x="0" y="0" width="16" height="7"/>
   </objectgroup>
  </tile>
  <tile id="86">
   <objectgroup draworder="index" id="2">
    <object id="1" x="0" y="0" width="16" height="7"/>
   </objectgroup>
  </tile>
  <tile id="87">
   <objectgroup draworder="index" id="2">
    <object id="1" x="0" y="0" width="16" height="7"/>
   </objectgroup>
  </tile>
  <tile id="88">
   <objectgroup draworder="index" id="2">
    <object id="1" x="0" y="0" width="16" height="7"/>
   </objectgroup>
  </tile>
  <tile id="89">
   <objectgroup draworder="index" id="2">
    <object id="1" x="0" y="0" width="16" height="7"/>
   </objectgroup>
  </tile>
  <tile id="443">
   <objectgroup draworder="index" id="2">
    <object id="1" x="0" y="0" width="16" height="16"/>
   </objectgroup>
  </tile>
  <tile id="446">
   <objectgroup draworder="index" id="2">
    <object id="1" x="0" y="0" width="16" height="16"/>
   </objectgroup>
  </tile>
  <tile id="481">
   <objectgroup draworder="index" id="2">
    <object id="1" x="0" y="0" width="16" height="16"/>
   </objectgroup>
  </tile>
  <tile id="482">
   <objectgroup draworder="index" id="2">
    <object id="1" x="0" y="0" width="16" height="10"/>
   </objectgroup>
  </tile>
  <tile id="483">
   <objectgroup draworder="index" id="2">
    <object id="2" x="0" y="0" width="16" height="16"/>
   </objectgroup>
  </tile>
  <tile id="484">
   <objectgroup draworder="index" id="2">
    <object id="2" x="0" y="0" width="16" height="16"/>
   </objectgroup>
  </tile>
  <tile id="485">
   <objectgroup draworder="index" id="2">
    <object id="1" x="0" y="0" width="16" height="10"/>
   </objectgroup>
  </tile>
  <tile id="486">
   <objectgroup draworder="index" id="2">
    <object id="1" x="0" y="0" width="16" height="16"/>
   </objectgroup>
  </tile>
  <tile id="684">
   <objectgroup draworder="index" id="2">
    <object id="1" x="0" y="1" width="16" height="15"/>
   </objectgroup>
  </tile>
  <tile id="685">
   <objectgroup draworder="index" id="2">
    <object id="1" x="0" y="1" width="16" height="15"/>
   </objectgroup>
  </tile>
  <tile id="686">
   <objectgroup draworder="index" id="2">
    <object id="1" x="0" y="1" width="16" height="15"/>
   </objectgroup>
  </tile>
  <tile id="687">
   <objectgroup draworder="index" id="2">
    <object id="1" x="0" y="1" width="16" height="15"/>
   </objectgroup>
  </tile>
  <tile id="696">
   <objectgroup draworder="index" id="2">
    <object id="1" x="0" y="1" width="16" height="15"/>
   </objectgroup>
  </tile>
  <tile id="697">
   <objectgroup draworder="index" id="2">
    <object id="1" x="0" y="1" width="16" height="15"/>
   </objectgroup>
  </tile>
  <tile id="698">
   <objectgroup draworder="index" id="2">
    <object id="1" x="0" y="1" width="16" height="15"/>
   </objectgroup>
  </tile>
  <tile id="699">
   <objectgroup draworder="index" id="2">
    <object id="1" x="0" y="1" width="16" height="15"/>
   </objectgroup>
  </tile>
  <tile id="716">
   <objectgroup draworder="index" id="2">
    <object id="1" x="6" y="0" width="10" height="9"/>
   </objectgroup>
  </tile>
  <tile id="823">
   <objectgroup draworder="index" id="2">
    <object id="1" x="0" y="0" width="16" height="16"/>
   </objectgroup>
  </tile>
  <tile id="824">
   <objectgroup draworder="index" id="2">
    <object id="1" x="0" y="0" width="16" height="16"/>
   </objectgroup>
  </tile>
  <tile id="860">
   <objectgroup draworder="index" id="2">
    <object id="1" x="0" y="0" width="16" height="16"/>
   </objectgroup>
  </tile>
  <tile id="861">
   <objectgroup draworder="index" id="2">
    <object id="1" x="0" y="0" width="16" height="16"/>
   </objectgroup>
  </tile>
  <tile id="864">
   <objectgroup draworder="index" id="2">
    <object id="1" x="0" y="0" width="16" height="16"/>
   </objectgroup>
  </tile>
  <tile id="865">
   <objectgroup draworder="index" id="2">
    <object id="1" x="0" y="0" width="16" height="16"/>
   </objectgroup>
  </tile>
  <tile id="898">
   <objectgroup draworder="index" id="2">
    <object id="1" x="0" y="0" width="16" height="16"/>
   </objectgroup>
  </tile>
  <tile id="899">
   <objectgroup draworder="index" id="2">
    <object id="1" x="0" y="16">
     <polyline points="0,0 16,0 0,-16 0,0"/>
    </object>
   </objectgroup>
  </tile>
  <tile id="904">
   <objectgroup draworder="index" id="2">
    <object id="1" x="16" y="16">
     <polyline points="0,0 0,-16 -16,0 0,0"/>
    </object>
   </objectgroup>
  </tile>
  <tile id="905">
   <objectgroup draworder="index" id="2">
    <object id="1" x="0" y="0" width="16" height="16"/>
   </objectgroup>
  </tile>
  <tile id="937">
   <objectgroup draworder="index" id="2">
    <object id="1" x="1" y="0" width="15" height="16"/>
   </objectgroup>
  </tile>
  <tile id="938">
   <objectgroup draworder="index" id="2">
    <object id="1" x="0" y="0" width="16" height="16"/>
   </objectgroup>
  </tile>
  <tile id="939">
   <objectgroup draworder="index" id="2">
    <object id="1" x="0" y="0" width="16" height="16"/>
   </objectgroup>
  </tile>
  <tile id="940">
   <objectgroup draworder="index" id="2">
    <object id="1" x="0" y="0" width="16" height="16"/>
   </objectgroup>
  </tile>
  <tile id="941">
   <objectgroup draworder="index" id="2">
    <object id="1" x="0" y="0" width="16" height="16"/>
   </objectgroup>
  </tile>
  <tile id="942">
   <objectgroup draworder="index" id="2">
    <object id="1" x="0" y="0" width="16" height="16"/>
   </objectgroup>
  </tile>
  <tile id="943">
   <objectgroup draworder="index" id="2">
    <object id="1" x="0" y="0" width="16" height="16"/>
   </objectgroup>
  </tile>
  <tile id="976">
   <objectgroup draworder="index" id="2">
    <object id="1" x="0" y="0" width="16" height="16"/>
   </objectgroup>
  </tile>
  <tile id="1015">
   <objectgroup draworder="index" id="2">
    <object id="1" x="0" y="0" width="16" height="16"/>
   </objectgroup>
  </tile>
  <tile id="1055">
   <objectgroup draworder="index" id="2">
    <object id="1" x="0" y="0" width="16" height="16"/>
   </objectgroup>
  </tile>
  <tile id="1056">
   <objectgroup draworder="index" id="2">
    <object id="1" x="0" y="0" width="16" height="16"/>
   </objectgroup>
  </tile>
  <tile id="1057">
   <objectgroup draworder="index" id="2">
    <object id="1" x="0" y="0" width="16" height="16"/>
   </objectgroup>
  </tile>
  <tile id="1058">
   <objectgroup draworder="index" id="2">
    <object id="1" x="0" y="0" width="16" height="16"/>
   </objectgroup>
  </tile>
  <tile id="1059">
   <objectgroup draworder="index" id="2">
    <object id="1" x="0" y="0" width="16" height="16"/>
   </objectgroup>
  </tile>
  <tile id="1060">
   <objectgroup draworder="index" id="2">
    <object id="1" x="0" y="0" width="16" height="16"/>
   </objectgroup>
  </tile>
  <tile id="1460">
   <objectgroup draworder="index" id="2">
    <object id="1" x="0" y="9" width="16" height="7"/>
   </objectgroup>
  </tile>
  <tile id="1461">
   <objectgroup draworder="index" id="2">
    <object id="1" x="0" y="8" width="16" height="8"/>
   </objectgroup>
  </tile>
  <tile id="1462">
   <objectgroup draworder="index" id="2">
    <object id="1" x="0" y="10" width="16" height="6"/>
   </objectgroup>
  </tile>
  <tile id="1499">
   <objectgroup draworder="index" id="2">
    <object id="1" x="0" y="0" width="16" height="9"/>
   </objectgroup>
  </tile>
  <tile id="1500">
   <objectgroup draworder="index" id="2">
    <object id="1" x="0" y="0" width="16" height="10"/>
    <object id="2" x="0" y="0" width="16" height="10"/>
   </objectgroup>
  </tile>
  <tile id="1501">
   <objectgroup draworder="index" id="2">
    <object id="1" x="0" y="0" width="16" height="8"/>
   </objectgroup>
  </tile>
  <tile id="1538">
   <objectgroup draworder="index" id="2">
    <object id="1" x="0" y="9" width="16" height="7"/>
   </objectgroup>
  </tile>
  <tile id="1539">
   <objectgroup draworder="index" id="2">
    <object id="1" x="0" y="8" width="16" height="8"/>
   </objectgroup>
  </tile>
  <tile id="1540">
   <objectgroup draworder="index" id="2">
    <object id="1" x="0" y="10" width="16" height="6"/>
   </objectgroup>
  </tile>
  <tile id="1548">
   <objectgroup draworder="index" id="2">
    <object id="1" x="0" y="0" width="16" height="16"/>
   </objectgroup>
  </tile>
  <tile id="1549">
   <objectgroup draworder="index" id="2">
    <object id="1" x="0" y="0" width="16" height="16"/>
   </objectgroup>
  </tile>
  <tile id="1550">
   <objectgroup draworder="index" id="2">
    <object id="1" x="0" y="0" width="16" height="16"/>
   </objectgroup>
  </tile>
  <tile id="1552">
   <objectgroup draworder="index" id="2">
    <object id="1" x="0" y="0" width="16" height="16"/>
   </objectgroup>
  </tile>
  <tile id="1553">
   <objectgroup draworder="index" id="2">
    <object id="1" x="0" y="0" width="16" height="16"/>
   </objectgroup>
  </tile>
  <tile id="1554">
   <objectgroup draworder="index" id="2">
    <object id="1" x="0" y="0" width="16" height="16"/>
   </objectgroup>
  </tile>
  <tile id="1577">
   <objectgroup draworder="index" id="2">
    <object id="1" x="0" y="0" width="16" height="16"/>
   </objectgroup>
  </tile>
  <tile id="1578">
   <objectgroup draworder="index" id="2">
    <object id="1" x="0" y="0" width="16" height="16"/>
   </objectgroup>
  </tile>
  <tile id="1579">
   <objectgroup draworder="index" id="2">
    <object id="1" x="0" y="0" width="16" height="8"/>
   </objectgroup>
  </tile>
  <tile id="1627">
   <objectgroup draworder="index" id="2">
    <object id="1" x="4" y="0" width="12" height="16"/>
   </objectgroup>
  </tile>
  <tile id="1628">
   <objectgroup draworder="index" id="2">
    <object id="1" x="0" y="0" width="16" height="16"/>
   </objectgroup>
  </tile>
  <tile id="1629">
   <objectgroup draworder="index" id="2">
    <object id="1" x="0" y="0" width="16" height="8"/>
   </objectgroup>
  </tile>
  <tile id="1630">
   <objectgroup draworder="index" id="2">
    <object id="1" x="0" y="0" width="16" height="8"/>
   </objectgroup>
  </tile>
  <tile id="1631">
   <objectgroup draworder="index" id="2">
    <object id="1" x="0" y="0" width="16" height="16"/>
   </objectgroup>
  </tile>
  <tile id="1632">
   <objectgroup draworder="index" id="2">
    <object id="1" x="0" y="0" width="12" height="16"/>
   </objectgroup>
  </tile>
  <tile id="1656">
   <objectgroup draworder="index" id="2">
    <object id="1" x="0" y="0" width="16" height="16"/>
   </objectgroup>
  </tile>
  <tile id="1657">
   <objectgroup draworder="index" id="2">
    <object id="1" x="0" y="0" width="9" height="16"/>
   </objectgroup>
  </tile>
  <tile id="1695">
   <objectgroup draworder="index" id="2">
    <object id="1" x="0" y="0" width="16" height="16"/>
   </objectgroup>
  </tile>
  <tile id="1696">
   <objectgroup draworder="index" id="2">
    <object id="1" x="0" y="0" width="9" height="16"/>
   </objectgroup>
  </tile>
  <tile id="1932">
   <objectgroup draworder="index" id="2">
    <object id="1" x="0" y="0" width="16" height="16"/>
   </objectgroup>
  </tile>
  <tile id="1933">
   <objectgroup draworder="index" id="2">
    <object id="1" x="0" y="0" width="16" height="12"/>
   </objectgroup>
  </tile>
  <tile id="1934">
   <objectgroup draworder="index" id="2">
    <object id="1" x="0" y="0" width="16" height="12"/>
   </objectgroup>
  </tile>
  <tile id="1935">
   <objectgroup draworder="index" id="2">
    <object id="1" x="0" y="0" width="16" height="12"/>
   </objectgroup>
  </tile>
  <tile id="1936">
   <objectgroup draworder="index" id="2">
    <object id="1" x="0" y="0" width="16" height="12"/>
   </objectgroup>
  </tile>
  <tile id="1937">
   <objectgroup draworder="index" id="2">
    <object id="1" x="0" y="0" width="16" height="12"/>
   </objectgroup>
  </tile>
  <tile id="1938">
   <objectgroup draworder="index" id="2">
    <object id="1" x="0" y="0" width="16" height="12"/>
   </objectgroup>
  </tile>
  <tile id="1939">
   <objectgroup draworder="index" id="2">
    <object id="1" x="0" y="0" width="16" height="16"/>
   </objectgroup>
  </tile>
 </tileset>
 <layer id="3" name="Background" width="30" height="20">
  <data encoding="csv">
   <chunk x="0" y="-16" width="16" height="16">
0,0,0,0,0,0,0,0,0,0,0,0,0,0,0,0,
0,0,0,0,0,0,0,0,0,0,0,0,0,0,0,0,
0,0,0,0,0,0,0,0,0,0,0,0,0,0,0,0,
0,0,0,0,0,0,0,0,0,0,0,0,0,0,0,0,
0,0,0,0,0,0,0,0,0,0,0,0,0,0,0,0,
0,0,0,0,0,0,0,0,0,0,0,0,0,0,0,0,
0,0,0,0,0,0,0,0,0,0,0,0,0,0,0,0,
0,0,0,0,0,0,0,0,0,0,0,0,0,0,0,0,
0,0,0,0,0,0,0,0,0,0,0,0,0,0,0,0,
0,0,0,0,0,0,0,0,0,0,0,0,0,0,5016,5017,
0,0,0,0,0,0,0,0,0,0,0,0,0,0,5055,5055,
0,0,0,0,0,0,0,0,4764,4765,4767,4768,5057,0,0,0,
0,0,0,0,0,0,0,0,0,4878,4880,0,5055,5093,5056,5055,
0,0,0,0,0,0,0,0,0,4917,4919,0,5093,5057,5055,5056,
0,0,0,0,0,0,0,0,0,0,0,0,5102,5103,5057,5057,
4292,0,4292,0,4292,0,4292,5072,0,0,0,0,5141,5142,5057,5057
</chunk>
   <chunk x="16" y="-16" width="16" height="16">
0,0,0,0,0,0,0,0,0,0,0,0,0,0,0,0,
0,0,0,0,0,0,0,0,0,0,0,0,0,0,0,0,
0,0,0,0,0,0,0,0,0,0,0,0,0,0,0,0,
0,0,0,0,0,0,0,0,0,0,0,0,0,0,0,0,
0,0,0,0,0,0,0,0,0,4697,0,0,0,0,0,0,
0,0,0,0,0,0,0,0,0,4736,0,0,0,0,0,0,
0,0,0,0,0,0,0,0,0,4660,0,0,0,0,0,0,
0,0,0,0,0,0,0,0,0,4699,0,0,0,0,0,0,
0,0,4516,0,0,0,0,0,4737,4738,0,0,0,0,0,0,
0,0,4594,0,0,0,0,0,4776,4777,0,0,0,0,0,0,
0,0,0,0,0,0,0,0,4815,4816,0,0,0,0,0,0,
0,0,0,0,0,0,0,0,0,0,0,0,0,0,0,0,
5105,5056,0,0,0,0,0,0,0,0,0,0,0,0,0,0,
5093,5057,5093,5057,5093,5056,5055,5055,5055,5056,5055,5055,0,0,0,0,
5057,5107,5093,5093,5056,5055,5055,5093,5057,5133,5056,5055,0,0,0,0,
5133,5133,5093,5056,5056,5056,5093,5057,5055,5056,5055,5093,0,0,0,0
</chunk>
   <chunk x="64" y="-16" width="16" height="16">
0,0,0,0,0,0,0,0,0,0,0,0,0,0,0,0,
0,0,0,0,0,0,0,0,0,0,0,0,0,0,0,0,
0,0,0,0,0,0,0,0,0,0,0,0,0,0,0,0,
0,0,0,0,0,0,0,0,0,0,0,0,0,0,0,0,
0,0,0,0,0,0,0,0,0,0,0,0,0,0,0,0,
0,0,0,0,0,0,0,0,0,0,0,0,0,0,0,0,
0,0,0,0,0,0,0,0,0,0,0,0,0,0,0,0,
0,0,0,0,0,0,0,0,0,0,0,0,0,0,0,0,
0,0,0,0,0,0,0,0,0,0,0,0,0,0,0,0,
0,0,0,0,0,0,0,0,0,0,0,0,0,0,0,0,
0,0,0,0,0,0,0,0,0,0,0,0,0,0,0,0,
0,0,0,4292,0,4292,0,4292,0,5482,5483,0,0,0,0,0,
0,0,0,4371,4372,4371,4372,4371,4372,5521,5522,5523,0,0,0,0,
0,0,0,4292,0,4292,0,4292,0,5560,5561,0,0,0,0,0,
0,0,0,4331,4333,4335,0,4331,4333,4335,0,0,0,0,0,0,
0,0,0,4292,0,4292,0,4292,0,4292,0,0,0,0,0,0
</chunk>
   <chunk x="80" y="-16" width="16" height="16">
0,0,0,0,0,0,0,0,0,0,0,0,0,0,0,0,
0,0,0,0,0,0,0,0,0,0,0,0,0,0,0,0,
0,0,0,0,0,0,0,0,0,0,0,0,0,0,0,0,
0,0,0,0,0,0,0,0,0,0,0,0,0,0,0,0,
0,0,0,0,0,0,0,0,0,0,0,0,0,0,0,0,
0,0,0,0,0,0,0,0,0,0,0,0,0,0,0,0,
0,0,0,0,0,0,0,0,0,0,0,0,0,0,0,0,
0,0,0,0,0,0,0,0,0,0,0,0,0,0,0,0,
0,0,0,0,0,0,0,0,0,0,0,0,0,0,0,0,
0,0,0,0,0,0,0,0,0,0,0,0,0,0,0,0,
0,0,0,0,0,0,0,0,0,0,0,0,0,0,0,0,
0,0,0,0,0,0,4345,4346,4347,4383,4347,4349,0,0,0,0,
0,0,0,0,0,0,4384,4385,0,0,0,4388,0,0,0,0,
0,0,0,0,0,0,4423,4424,0,0,0,4350,4351,0,0,0,
0,0,0,0,0,0,4462,4463,4464,0,0,4389,4390,0,0,0,
0,0,0,0,4499,4500,4501,4502,4503,4504,0,4428,4429,0,0,0
</chunk>
   <chunk x="0" y="0" width="16" height="16">
4370,4372,4371,4372,4371,4372,4374,0,0,0,0,0,0,0,0,0,
4292,0,4292,0,4292,0,4292,0,0,0,0,0,0,0,0,0,
4370,4372,4371,4372,4371,4372,4374,0,0,0,0,0,0,0,0,0,
4293,0,4292,0,4292,0,4292,0,0,0,0,0,0,0,0,0,
4296,0,4370,4372,4371,4372,4371,0,0,0,0,0,0,0,0,0,
0,0,4292,0,4292,0,4292,0,0,0,0,0,0,0,0,0,
0,0,0,0,0,0,0,0,0,0,0,0,0,0,0,0,
0,0,0,0,0,0,0,0,0,0,0,0,0,0,0,0,
0,0,0,0,0,0,0,0,0,0,0,0,0,0,0,0,
0,0,0,0,0,0,0,0,0,0,0,0,0,0,0,0,
0,0,0,0,0,0,0,0,0,0,0,0,0,0,0,0,
0,0,0,0,0,0,0,0,0,0,0,0,0,0,0,0,
0,0,0,0,0,0,0,0,0,0,0,0,0,0,0,0,
0,0,0,0,0,0,0,0,0,0,0,0,0,0,0,0,
0,0,0,0,0,0,0,0,0,0,0,0,0,0,0,0,
0,0,0,0,0,0,0,0,0,0,0,0,0,0,0,0
</chunk>
   <chunk x="48" y="0" width="16" height="16">
0,0,4292,0,5153,0,5153,0,5112,0,0,0,0,0,0,0,
0,0,0,0,0,0,0,0,5112,0,0,0,0,0,0,0,
0,0,0,0,0,0,0,0,5112,0,0,0,0,0,0,0,
0,0,0,0,0,0,0,0,5112,0,0,0,0,0,0,0,
0,0,0,0,0,0,0,0,5112,0,0,0,0,0,0,0,
0,0,0,0,0,0,0,0,5112,0,0,0,0,0,0,0,
0,0,0,0,0,0,0,0,0,0,0,0,0,0,0,0,
0,0,0,0,0,0,0,0,0,0,0,0,0,0,0,0,
0,0,0,0,0,0,0,0,0,0,0,0,0,0,0,0,
0,0,0,0,0,0,0,0,0,0,0,0,0,0,0,0,
0,0,0,0,0,0,0,0,0,0,0,0,0,0,0,0,
0,0,0,0,0,0,0,0,0,0,0,0,0,0,0,0,
0,0,0,0,0,0,0,0,0,0,0,0,0,0,0,0,
0,0,0,0,0,0,0,0,0,0,0,0,0,0,0,0,
0,0,0,0,0,0,0,0,0,0,0,0,0,0,0,0,
0,0,0,0,0,0,0,0,0,0,0,0,0,0,0,0
</chunk>
   <chunk x="64" y="0" width="16" height="16">
0,0,0,0,0,0,0,0,0,4292,0,0,4292,0,0,4292,
0,0,0,0,0,0,0,0,4372,4374,4372,4372,4370,4372,4372,4370,
0,0,0,0,0,0,0,0,0,4292,0,0,4292,0,0,4292,
0,0,0,0,0,0,0,0,0,4292,0,0,4292,0,0,4292,
0,0,0,0,0,0,0,0,4372,4373,4372,4372,4374,0,0,4331,
0,0,0,0,0,0,0,0,0,4292,0,0,4292,0,0,4292,
0,0,0,0,0,0,0,0,0,0,0,0,0,0,0,0,
0,0,0,0,0,0,0,0,0,0,0,0,0,0,0,0,
0,0,0,0,0,0,0,0,0,0,0,0,0,0,0,0,
0,0,0,0,0,0,0,0,0,0,0,0,0,0,0,0,
0,0,0,0,0,0,0,0,0,0,0,0,0,0,0,0,
0,0,0,0,0,0,0,0,0,0,0,0,0,0,0,0,
0,0,0,0,0,0,0,0,0,0,0,0,0,0,0,0,
0,0,0,0,0,0,0,0,0,0,0,0,0,0,0,0,
0,0,0,0,0,0,0,0,0,0,0,0,0,0,0,0,
0,0,0,0,0,0,0,0,0,0,0,0,0,0,0,0
</chunk>
   <chunk x="80" y="0" width="16" height="16">
0,0,4292,0,0,4292,0,0,4292,0,0,4467,4468,0,0,0,
4372,4372,4370,4372,4372,4370,4372,4372,4374,0,0,0,0,0,0,0,
0,0,4292,0,0,4292,0,0,4292,0,0,0,0,0,0,0,
0,0,4292,0,0,4292,0,0,4292,0,0,0,0,0,0,0,
4333,4333,4334,4333,4333,4334,4333,4333,4335,0,0,0,0,0,0,0,
0,0,4292,0,0,4292,0,0,4292,0,0,0,0,0,0,0,
0,0,0,0,0,0,0,0,0,0,0,0,0,0,0,0,
0,0,0,0,0,0,0,0,0,0,0,0,0,0,0,0,
0,0,0,0,0,0,0,0,0,0,0,0,0,0,0,0,
0,0,0,0,0,0,0,0,0,0,0,0,0,0,0,0,
0,0,0,0,0,0,0,0,0,0,0,0,0,0,0,0,
0,0,0,0,0,0,0,0,0,0,0,0,0,0,0,0,
0,0,0,0,0,0,0,0,0,0,0,0,0,0,0,0,
0,0,0,0,0,0,0,0,0,0,0,0,0,0,0,0,
0,0,0,0,0,0,0,0,0,0,0,0,0,0,0,0,
0,0,0,0,0,0,0,0,0,0,0,0,0,0,0,0
</chunk>
  </data>
 </layer>
 <layer id="6" name="Background2" width="30" height="20">
  <data encoding="csv">
   <chunk x="0" y="-16" width="16" height="16">
0,0,0,0,0,0,0,0,0,0,0,0,0,0,0,0,
0,0,0,0,0,0,0,0,0,0,0,0,0,0,0,0,
0,0,0,0,0,0,0,0,0,0,0,0,0,0,0,0,
0,0,0,0,0,0,0,0,0,0,0,0,0,0,0,0,
0,0,0,0,0,0,0,0,0,0,0,0,0,0,0,0,
0,0,0,0,0,0,0,0,0,0,0,0,0,0,0,0,
0,0,0,0,0,0,0,0,0,0,0,0,0,0,0,0,
0,0,0,0,0,0,0,0,0,0,0,0,0,0,0,0,
0,0,0,0,0,0,0,0,0,0,0,4984,4985,4986,4987,4988,
0,0,0,0,0,0,0,0,0,0,0,5023,5024,5025,4162,4163,
0,0,0,0,0,0,0,0,0,0,0,5062,5063,5064,4201,4202,
0,0,0,0,0,0,0,0,0,0,0,5091,0,5056,4279,4280,
0,0,0,0,0,0,0,0,0,0,0,5091,0,0,5411,5412,
0,0,0,0,0,0,0,0,0,0,0,5091,0,0,5198,5199,
0,0,0,0,0,0,0,0,0,0,0,5091,0,0,5237,5238,
0,0,0,0,0,0,0,0,0,0,0,5091,0,0,5276,5277
</chunk>
   <chunk x="16" y="-16" width="16" height="16">
0,0,0,0,0,0,0,0,0,0,0,0,0,0,0,0,
0,0,0,0,0,0,0,0,0,0,0,0,0,0,0,0,
0,0,0,0,0,0,0,0,0,0,0,0,0,0,0,0,
0,0,0,0,0,0,0,0,0,0,0,0,0,0,0,0,
0,0,0,0,0,0,0,0,0,0,0,0,0,0,0,0,
0,0,0,0,0,0,0,0,0,0,0,0,0,0,0,0,
0,0,0,0,0,0,0,0,0,0,0,0,0,0,0,0,
0,0,0,0,4851,4889,4972,4890,4892,4891,4892,4893,4972,4894,4854,0,
4989,4990,4991,0,0,0,0,4929,4932,4929,4931,4932,4933,0,0,0,
5028,5019,5030,0,0,0,0,0,0,0,0,0,0,0,0,0,
5056,5058,4820,4820,4821,4821,4821,4821,4821,4821,4821,4821,4822,0,0,0,
5057,5134,4859,4859,4860,4860,4860,4860,4860,4860,4860,4860,4861,0,0,0,
0,0,4898,4898,4899,4899,4899,4899,4899,4899,4899,4899,4900,0,0,0,
0,0,5098,0,0,0,0,0,5103,0,0,0,5098,0,0,0,
0,0,5098,0,0,5067,0,0,0,4887,0,0,5108,0,0,0,
0,0,5108,0,5106,0,0,0,0,0,0,0,5098,0,0,0
</chunk>
   <chunk x="48" y="-16" width="16" height="16">
0,0,0,0,0,0,0,0,0,0,0,0,0,0,0,0,
0,0,0,0,0,0,0,0,0,0,0,0,0,0,0,0,
0,0,0,0,0,0,0,0,0,0,0,0,0,0,0,0,
0,0,0,0,0,0,0,0,0,0,0,0,0,0,0,0,
0,0,0,0,0,0,0,0,0,0,0,0,0,0,0,0,
0,0,0,0,0,0,0,0,0,0,0,0,0,0,0,0,
0,0,0,0,0,0,0,0,0,0,0,0,0,0,0,0,
0,0,0,0,0,0,0,0,0,0,0,0,0,0,0,0,
0,0,0,0,0,0,0,0,0,0,0,0,0,0,0,0,
0,0,0,0,0,0,0,0,0,0,0,0,0,0,0,0,
0,0,0,0,0,0,0,0,0,0,0,0,0,0,4454,0,
0,0,0,0,0,0,0,5828,0,0,0,0,0,5116,5117,5112,
0,0,0,0,5112,5117,0,0,0,5151,5152,5153,5154,5153,5153,5153,
0,0,0,5153,5153,5153,5153,5153,5153,5153,5153,5153,5153,5153,5153,5153,
0,0,0,5153,5153,5153,5153,5153,5153,5153,5153,5153,5153,5153,5153,5153,
0,0,0,5153,5153,5153,5153,5153,5153,5153,5153,5153,5153,5153,5153,5153
</chunk>
   <chunk x="64" y="-16" width="16" height="16">
0,0,0,0,0,0,0,0,0,0,0,0,0,0,0,0,
0,0,0,0,0,0,0,0,0,0,0,0,0,0,0,0,
0,0,0,0,0,0,0,0,0,0,0,0,0,0,0,0,
0,0,0,0,0,0,0,0,0,0,0,0,0,0,0,0,
0,0,0,0,0,0,0,0,0,0,0,0,0,0,0,0,
0,0,0,0,0,0,0,0,0,0,0,0,0,0,0,0,
0,0,0,0,0,0,0,0,0,0,0,0,0,0,0,0,
0,0,0,0,0,0,0,0,0,0,0,0,0,0,0,0,
0,0,0,0,0,0,0,0,0,0,0,0,0,0,0,0,
0,0,0,0,0,0,0,0,0,0,0,0,0,0,0,0,
0,0,0,0,0,0,0,0,0,0,0,0,0,0,0,0,
5113,5114,0,0,0,0,0,0,0,4292,5486,0,0,0,0,0,
5153,5153,5079,0,0,0,0,0,0,4374,5525,0,0,0,0,0,
5153,5153,5079,0,0,0,0,0,0,4292,0,0,0,0,0,0,
5153,5153,5079,0,0,0,0,0,0,0,0,0,0,0,0,0,
5153,5153,5079,0,0,0,0,0,0,0,0,0,0,0,0,0
</chunk>
   <chunk x="48" y="0" width="16" height="16">
0,0,0,5153,4292,5153,4292,5153,5033,5156,5151,5152,5153,5154,5155,5156,
0,0,0,5153,5153,5153,5153,5153,5150,5153,5153,5153,5153,5153,5153,5153,
0,0,0,5153,5153,5153,5153,5153,5111,5153,5153,5153,5153,5153,5153,5153,
0,0,0,5153,5153,5153,5153,5153,5150,5153,5153,5153,5153,5153,5153,5153,
0,0,0,5153,5153,5153,5153,5153,5150,5153,5153,5153,5153,5153,5153,5153,
0,0,0,5153,5153,5153,5153,5153,5072,5153,5153,5153,5153,5153,5153,5153,
0,0,0,0,0,0,0,0,0,0,0,0,0,0,0,0,
0,0,0,0,0,0,0,0,0,0,0,0,0,0,0,0,
0,0,0,0,0,0,0,0,0,0,0,0,0,0,0,0,
0,0,0,0,0,0,0,0,0,0,0,0,0,0,0,0,
0,0,0,0,0,0,0,0,0,0,0,0,0,0,0,0,
0,0,0,0,0,0,0,0,0,0,0,0,0,0,0,0,
0,0,0,0,0,0,0,0,0,0,0,0,0,0,0,0,
0,0,0,0,0,0,0,0,0,0,0,0,0,0,0,0,
0,0,0,0,0,0,0,0,0,0,0,0,0,0,0,0,
0,0,0,0,0,0,0,0,0,0,0,0,0,0,0,0
</chunk>
   <chunk x="64" y="0" width="16" height="16">
5151,5152,5074,5075,5076,5077,5074,5040,0,0,0,0,0,0,0,0,
5153,5153,5153,5153,5153,5153,5153,5079,0,0,0,0,0,0,0,0,
5153,5153,5153,5153,5153,5153,5153,5157,0,0,0,0,0,0,0,0,
5153,5153,5153,5153,5153,5153,5153,5118,0,0,0,0,0,0,0,0,
5153,5153,5153,5153,5153,5153,5153,5079,0,0,0,0,0,0,0,0,
5153,5153,5153,5153,5153,5153,5153,5079,0,0,0,0,0,0,0,0,
0,0,0,0,0,0,0,0,0,0,0,0,0,0,0,0,
0,0,0,0,0,0,0,0,0,0,0,0,0,0,0,0,
0,0,0,0,0,0,0,0,0,0,0,0,0,0,0,0,
0,0,0,0,0,0,0,0,0,0,0,0,0,0,0,0,
0,0,0,0,0,0,0,0,0,0,0,0,0,0,0,0,
0,0,0,0,0,0,0,0,0,0,0,0,0,0,0,0,
0,0,0,0,0,0,0,0,0,0,0,0,0,0,0,0,
0,0,0,0,0,0,0,0,0,0,0,0,0,0,0,0,
0,0,0,0,0,0,0,0,0,0,0,0,0,0,0,0,
0,0,0,0,0,0,0,0,0,0,0,0,0,0,0,0
</chunk>
  </data>
 </layer>
 <layer id="1" name="Kachelebene 1" width="30" height="20">
  <data encoding="csv">
   <chunk x="0" y="-16" width="16" height="16">
0,0,0,0,0,0,0,0,0,0,0,0,0,0,0,0,
0,0,0,0,0,0,0,0,0,0,0,0,0,0,0,0,
0,0,0,0,0,0,0,0,0,0,0,0,0,0,0,0,
0,0,0,0,0,0,0,0,0,0,0,0,0,0,0,0,
0,0,0,0,0,0,0,0,0,0,0,0,0,0,0,0,
0,0,0,0,0,0,0,0,0,0,0,0,0,0,0,0,
0,0,0,0,0,0,0,0,0,0,0,0,0,0,0,0,
0,0,0,0,0,0,0,0,0,0,0,0,0,0,0,0,
0,0,0,0,0,0,0,0,0,0,0,0,0,0,0,0,
0,0,0,0,0,0,0,0,0,0,0,0,0,0,0,0,
0,0,0,0,0,0,0,0,0,0,0,0,0,0,0,0,
0,0,0,0,0,0,0,0,0,0,0,0,0,0,0,0,
0,0,0,0,0,0,0,0,0,0,0,0,0,0,0,0,
0,0,0,0,0,0,0,0,0,0,0,0,0,0,0,0,
0,0,0,0,0,0,0,0,0,0,0,0,0,0,0,0,
4219,4220,4219,4220,4221,4220,4219,4220,5074,5034,0,0,0,0,0,0
</chunk>
   <chunk x="32" y="-16" width="16" height="16">
0,0,0,0,0,0,0,0,0,0,0,0,0,0,0,0,
0,0,0,0,0,0,0,0,0,0,0,0,0,0,0,0,
0,0,0,0,0,0,0,0,0,0,0,0,0,0,0,0,
0,0,0,0,0,0,0,0,0,0,0,0,0,0,0,0,
0,0,0,0,0,0,0,0,0,0,0,0,0,0,0,0,
0,0,0,0,0,0,0,0,0,0,0,0,0,0,0,0,
0,0,0,0,0,0,0,0,0,0,0,0,0,0,0,0,
0,0,0,0,0,0,0,0,0,0,0,0,0,0,0,0,
0,0,0,0,0,0,0,0,0,0,0,0,0,0,0,0,
0,0,0,0,0,0,0,0,0,0,0,0,0,0,0,0,
0,0,0,0,0,0,0,0,0,0,0,0,0,0,0,0,
0,0,0,0,0,0,0,0,0,0,0,0,0,0,0,0,
0,0,0,0,0,0,0,0,0,0,0,0,0,0,0,0,
0,0,0,0,0,0,0,0,0,0,0,0,0,0,0,0,
0,5033,5075,5075,5074,5076,5076,5074,5075,5077,5074,5074,5074,5076,5077,5040,
0,5072,5153,5153,5153,5153,5153,5153,5153,5153,5153,5153,5153,5153,5153,5157
</chunk>
   <chunk x="48" y="-16" width="16" height="16">
0,0,0,0,0,0,0,0,0,0,0,0,0,0,0,0,
0,0,0,0,0,0,0,0,0,0,0,0,0,0,0,0,
0,0,0,0,0,0,0,0,0,0,0,0,0,0,0,0,
0,0,0,0,0,0,0,0,0,0,0,0,0,0,0,0,
0,0,0,0,0,0,0,0,0,0,0,0,0,0,0,0,
0,0,0,0,0,0,0,0,0,0,0,0,0,0,0,0,
0,0,0,0,0,0,0,0,0,0,0,0,0,0,0,0,
0,0,0,0,0,0,0,0,0,0,0,0,0,0,0,0,
0,0,0,0,0,0,0,0,0,0,0,0,0,0,0,0,
0,0,0,0,0,0,0,0,0,0,0,0,0,0,0,0,
0,0,0,0,0,0,0,0,0,0,0,0,0,0,0,0,
0,0,0,0,0,0,0,0,0,0,0,0,5033,5076,5076,5077,
0,0,0,5074,5074,5075,5075,5074,5075,5075,5074,5077,5078,4577,0,0,
0,0,0,5112,0,0,5983,5984,5985,5986,5987,0,0,4616,4617,4618,
0,0,0,0,0,0,6022,5953,6029,6030,6026,0,0,4655,0,5905,
0,0,0,0,0,0,6061,6062,6063,6064,6065,0,5671,4694,5943,5944
</chunk>
   <chunk x="64" y="-16" width="16" height="16">
0,0,0,0,0,0,0,0,0,0,0,0,0,0,0,0,
0,0,0,0,0,0,0,0,0,0,0,0,0,0,0,0,
0,0,0,0,0,0,0,0,0,0,0,0,0,0,0,0,
0,0,0,0,0,0,0,0,0,0,0,0,0,0,0,0,
0,0,0,0,0,0,0,0,0,0,0,0,0,0,0,0,
0,0,0,0,0,0,0,0,0,0,0,0,0,0,0,0,
0,0,0,0,0,0,0,0,0,0,0,0,0,0,0,0,
0,0,0,0,0,0,0,0,0,0,0,0,0,0,0,0,
0,0,0,0,0,0,0,0,0,0,0,0,0,0,0,0,
0,0,0,0,0,0,0,0,0,0,0,0,0,0,0,0,
0,0,0,0,0,0,0,0,0,0,0,0,0,0,0,0,
5076,5076,5040,4181,4181,4181,4181,4181,4181,4181,4181,4185,0,0,0,0,
0,0,4582,0,0,0,0,0,0,0,0,0,0,0,0,0,
4619,4620,4621,0,0,0,0,0,0,0,0,0,0,0,0,0,
0,5907,4660,0,0,0,0,0,0,0,0,0,0,0,0,0,
5947,5948,4699,0,0,0,0,0,0,0,0,0,0,0,0,0
</chunk>
   <chunk x="0" y="0" width="16" height="16">
0,0,0,0,0,0,0,5072,5153,5073,5074,5076,5076,5074,5075,5075,
0,0,0,0,0,0,0,5072,5153,5153,5153,5153,5153,5153,5153,5153,
0,0,0,0,0,0,0,5150,5153,5153,5153,5153,5153,5153,5153,5153,
0,0,0,0,0,0,0,5111,5153,5153,5153,5153,5153,5153,5153,5153,
0,0,0,0,0,0,0,5072,5153,5153,5153,5153,5153,5153,5153,5153,
0,0,0,0,0,0,0,5150,5153,5153,5153,5153,5153,5153,5153,5153,
0,0,0,0,0,0,0,0,0,0,0,0,0,0,0,0,
0,0,0,0,0,0,0,0,0,0,0,0,0,0,0,0,
0,0,0,0,0,0,0,0,0,0,0,0,0,0,0,0,
0,0,0,0,0,0,0,0,0,0,0,0,0,0,0,0,
0,0,0,0,0,0,0,0,0,0,0,0,0,0,0,0,
0,0,0,0,0,0,0,0,0,0,0,0,0,0,0,0,
0,0,0,0,0,0,0,0,0,0,0,0,0,0,0,0,
0,0,0,0,0,0,0,0,0,0,0,0,0,0,0,0,
0,0,0,0,0,0,0,0,0,0,0,0,0,0,0,0,
0,0,0,0,0,0,0,0,0,0,0,0,0,0,0,0
</chunk>
   <chunk x="16" y="0" width="16" height="16">
4959,4958,4958,4958,5074,5074,5074,5074,5074,5074,5074,5074,5074,5074,5074,5074,
5153,5153,5153,5153,5153,5153,5153,5153,5153,5153,5153,5153,5153,5153,5153,5153,
5153,5153,5153,5153,5153,5153,5153,5153,5153,5153,5153,5153,5153,5153,5153,5153,
5153,5153,5153,5153,5153,5153,5153,5153,5153,5153,5153,5153,5153,5153,5153,5153,
5153,5153,5153,5153,5153,5153,5153,5153,5153,5153,5153,5153,5153,5153,5153,5153,
5153,5153,5153,5153,5153,5153,5153,5153,5153,5153,5153,5153,5153,5153,5153,5153,
0,0,0,0,0,0,0,0,0,0,0,0,0,0,0,0,
0,0,0,0,0,0,0,0,0,0,0,0,0,0,0,0,
0,0,0,0,0,0,0,0,0,0,0,0,0,0,0,0,
0,0,0,0,0,0,0,0,0,0,0,0,0,0,0,0,
0,0,0,0,0,0,0,0,0,0,0,0,0,0,0,0,
0,0,0,0,0,0,0,0,0,0,0,0,0,0,0,0,
0,0,0,0,0,0,0,0,0,0,0,0,0,0,0,0,
0,0,0,0,0,0,0,0,0,0,0,0,0,0,0,0,
0,0,0,0,0,0,0,0,0,0,0,0,0,0,0,0,
0,0,0,0,0,0,0,0,0,0,0,0,0,0,0,0
</chunk>
   <chunk x="32" y="0" width="16" height="16">
5074,5078,5153,5153,5153,5153,5153,5153,5153,5153,5153,5153,5153,5153,5153,5079,
5153,5153,5153,5153,5153,5153,5153,5153,5153,5153,5153,5153,5153,5153,5153,5118,
5153,5153,5153,5153,5153,5153,5153,5153,5153,5153,5153,5153,5153,5153,5153,5118,
5153,5153,5153,5153,5153,5153,5153,5153,5153,5153,5153,5153,5153,5153,5153,5118,
5153,5153,5153,5153,5153,5153,5153,5153,5153,5153,5153,5153,5153,5153,5153,5157,
5153,5153,5153,5153,5153,5153,5153,5153,5153,5153,5153,5153,5153,5153,5153,5118,
0,0,0,0,0,0,0,0,0,0,0,0,0,0,0,0,
0,0,0,0,0,0,0,0,0,0,0,0,0,0,0,0,
0,0,0,0,0,0,0,0,0,0,0,0,0,0,0,0,
0,0,0,0,0,0,0,0,0,0,0,0,0,0,0,0,
0,0,0,0,0,0,0,0,0,0,0,0,0,0,0,0,
0,0,0,0,0,0,0,0,0,0,0,0,0,0,0,0,
0,0,0,0,0,0,0,0,0,0,0,0,0,0,0,0,
0,0,0,0,0,0,0,0,0,0,0,0,0,0,0,0,
0,0,0,0,0,0,0,0,0,0,0,0,0,0,0,0,
0,0,0,0,0,0,0,0,0,0,0,0,0,0,0,0
</chunk>
   <chunk x="48" y="0" width="16" height="16">
0,0,4219,4220,4219,4220,4220,4220,4219,5074,5074,5074,5075,5074,5075,5077,
0,0,4371,4372,4371,4372,4374,0,0,0,0,0,0,0,0,0,
0,0,4292,0,4292,0,4292,0,0,0,0,0,0,0,0,0,
0,0,4371,4372,4371,4372,4374,0,0,0,0,0,0,0,0,0,
0,0,4292,0,4292,0,4292,0,0,0,0,0,0,0,0,0,
0,0,4370,4372,4371,4372,4371,0,0,0,0,0,0,0,0,0,
0,0,4292,0,4292,0,4292,0,0,0,0,0,0,0,0,0,
0,0,0,0,0,0,0,0,0,0,0,0,0,0,0,0,
0,0,0,0,0,0,0,0,0,0,0,0,0,0,0,0,
0,0,0,0,0,0,0,0,0,0,0,0,0,0,0,0,
0,0,0,0,0,0,0,0,0,0,0,0,0,0,0,0,
0,0,0,0,0,0,0,0,0,0,0,0,0,0,0,0,
0,0,0,0,0,0,0,0,0,0,0,0,0,0,0,0,
0,0,0,0,0,0,0,0,0,0,0,0,0,0,0,0,
0,0,0,0,0,0,0,0,0,0,0,0,0,0,0,0,
0,0,0,0,0,0,0,0,0,0,0,0,0,0,0,0
</chunk>
   <chunk x="64" y="0" width="16" height="16">
5076,5077,0,0,0,0,0,0,0,0,0,4220,4220,4220,4220,4220,
0,0,0,0,0,0,0,0,0,0,0,0,0,0,0,0,
0,0,0,0,0,0,0,0,0,0,0,0,0,0,0,0,
0,0,0,0,0,0,0,0,0,0,0,0,0,0,0,0,
0,0,0,0,0,0,0,0,0,0,0,0,0,0,0,0,
0,0,0,0,0,0,0,0,0,0,0,0,0,0,0,0,
0,0,0,0,0,0,0,0,0,0,0,0,0,0,0,0,
0,0,0,0,0,0,0,0,0,0,0,0,0,0,0,0,
0,0,0,0,0,0,0,0,0,0,0,0,0,0,0,0,
0,0,0,0,0,0,0,0,0,0,0,0,0,0,0,0,
0,0,0,0,0,0,0,0,0,0,0,0,0,0,0,0,
0,0,0,0,0,0,0,0,0,0,0,0,0,0,0,0,
0,0,0,0,0,0,0,0,0,0,0,0,0,0,0,0,
0,0,0,0,0,0,0,0,0,0,0,0,0,0,0,0,
0,0,0,0,0,0,0,0,0,0,0,0,0,0,0,0,
0,0,0,0,0,0,0,0,0,0,0,0,0,0,0,0
</chunk>
   <chunk x="80" y="0" width="16" height="16">
4220,4220,4220,4220,4220,4220,4220,4220,4220,4220,0,0,0,0,0,0,
0,0,0,0,0,0,0,0,0,0,0,0,0,0,0,0,
0,0,0,0,0,0,0,0,0,0,0,0,0,0,0,0,
0,0,0,0,0,0,0,0,0,0,0,0,0,0,0,0,
0,0,0,0,0,0,0,0,0,0,0,0,0,0,0,0,
0,0,0,0,0,0,0,0,0,0,0,0,0,0,0,0,
0,0,0,0,0,0,0,0,0,0,0,0,0,0,0,0,
0,0,0,0,0,0,0,0,0,0,0,0,0,0,0,0,
0,0,0,0,0,0,0,0,0,0,0,0,0,0,0,0,
0,0,0,0,0,0,0,0,0,0,0,0,0,0,0,0,
0,0,0,0,0,0,0,0,0,0,0,0,0,0,0,0,
0,0,0,0,0,0,0,0,0,0,0,0,0,0,0,0,
0,0,0,0,0,0,0,0,0,0,0,0,0,0,0,0,
0,0,0,0,0,0,0,0,0,0,0,0,0,0,0,0,
0,0,0,0,0,0,0,0,0,0,0,0,0,0,0,0,
0,0,0,0,0,0,0,0,0,0,0,0,0,0,0,0
</chunk>
  </data>
 </layer>
 <layer id="7" name="PLayer" width="30" height="20">
  <data encoding="csv"/>
 </layer>
 <layer id="5" name="Vordegrund2" width="30" height="20">
  <data encoding="csv">
   <chunk x="48" y="-16" width="16" height="16">
0,0,0,0,0,0,0,0,0,0,0,0,0,0,0,0,
0,0,0,0,0,0,0,0,0,0,0,0,0,0,0,0,
0,0,0,0,0,0,0,0,0,0,0,0,0,0,0,0,
0,0,0,0,0,0,0,0,0,0,0,0,0,0,0,0,
0,0,0,0,0,0,0,0,0,0,0,0,0,0,0,0,
0,0,0,0,0,0,0,0,0,0,0,0,0,0,0,0,
0,0,0,0,0,0,0,0,0,0,0,0,0,0,0,0,
0,0,0,0,0,0,0,0,0,0,0,0,0,0,0,0,
0,0,0,0,0,0,0,0,0,0,0,0,0,0,0,0,
0,0,0,0,0,0,0,0,0,0,0,0,0,0,0,0,
0,0,0,0,0,0,0,0,0,0,0,0,0,0,0,0,
0,0,0,0,0,0,0,0,0,0,0,0,0,0,0,0,
0,0,0,0,0,0,0,0,0,0,0,0,0,0,0,0,
0,0,0,0,0,0,0,0,0,0,0,0,0,0,0,0,
0,0,0,0,0,0,0,0,0,0,0,0,0,0,0,0,
0,0,0,0,0,0,0,0,0,0,0,0,5440,0,0,0
</chunk>
   <chunk x="64" y="-16" width="16" height="16">
0,0,0,0,0,0,0,0,0,0,0,0,0,0,0,0,
0,0,0,0,0,0,0,0,0,0,0,0,0,0,0,0,
0,0,0,0,0,0,0,0,0,0,0,0,0,0,0,0,
0,0,0,0,0,0,0,0,0,0,0,0,0,0,0,0,
0,0,0,0,0,0,0,0,0,0,0,0,0,0,0,0,
0,0,0,0,0,0,0,0,0,0,0,0,0,0,0,0,
0,0,0,0,0,0,0,0,0,0,0,0,0,0,0,0,
0,0,0,0,0,0,0,0,0,0,0,0,0,0,0,0,
0,0,0,0,0,0,0,0,0,0,0,0,0,0,0,0,
0,0,0,0,0,0,0,0,0,0,0,0,0,0,0,0,
0,0,0,0,0,0,0,0,0,0,0,0,0,0,0,0,
0,0,0,0,0,0,0,0,0,0,0,0,0,0,0,0,
0,0,0,0,0,0,0,0,0,0,0,0,0,0,0,0,
0,0,0,0,0,0,0,0,0,0,0,0,0,0,0,0,
0,0,0,0,0,0,0,0,0,0,0,0,0,0,0,0,
0,0,0,0,5400,5401,5402,0,0,0,0,0,0,0,0,0
</chunk>
   <chunk x="80" y="-16" width="16" height="16">
0,0,0,0,0,0,0,0,0,0,0,0,0,0,0,0,
0,0,0,0,0,0,0,0,0,0,0,0,0,0,0,0,
0,0,0,0,0,0,0,0,0,0,0,0,0,0,0,0,
0,0,0,0,0,0,0,0,0,0,0,0,0,0,0,0,
0,0,0,0,0,0,0,0,0,0,0,0,0,0,0,0,
0,0,0,0,0,0,0,0,0,0,0,0,0,0,0,0,
0,0,0,0,0,0,0,0,0,0,0,0,0,0,0,0,
0,0,0,0,0,0,0,0,0,0,0,0,0,0,0,0,
0,0,0,0,0,0,0,0,0,0,0,0,0,0,0,0,
0,0,0,0,0,0,0,0,0,0,0,0,0,0,0,0,
0,0,0,0,0,0,0,0,0,0,0,0,0,0,0,0,
0,0,0,0,0,0,0,0,0,0,0,0,0,0,0,0,
0,0,0,0,0,0,0,0,0,0,0,0,0,0,0,0,
0,0,0,0,0,0,0,0,0,0,0,0,0,0,0,0,
0,0,0,0,0,0,0,0,0,0,0,0,0,0,0,0,
4186,4187,4187,4187,4187,4187,4187,4187,4188,4177,0,0,0,0,0,0
</chunk>
   <chunk x="16" y="0" width="16" height="16">
0,0,0,0,0,0,0,0,0,0,0,0,0,0,0,0,
0,0,0,0,4371,4372,4371,4372,4371,4372,4374,0,0,0,0,0,
0,0,0,0,4292,0,4292,0,4292,0,4292,0,0,0,0,0,
0,0,0,0,4331,4333,4332,4333,4332,4333,4335,0,0,0,0,0,
0,0,0,0,4292,0,4292,0,4292,0,4292,0,0,0,0,0,
0,0,0,0,4292,0,4292,0,4292,0,4292,0,0,0,0,0,
0,0,0,0,0,0,0,0,0,0,0,0,0,0,0,0,
0,0,0,0,0,0,0,0,0,0,0,0,0,0,0,0,
0,0,0,0,0,0,0,0,0,0,0,0,0,0,0,0,
0,0,0,0,0,0,0,0,0,0,0,0,0,0,0,0,
0,0,0,0,0,0,0,0,0,0,0,0,0,0,0,0,
0,0,0,0,0,0,0,0,0,0,0,0,0,0,0,0,
0,0,0,0,0,0,0,0,0,0,0,0,0,0,0,0,
0,0,0,0,0,0,0,0,0,0,0,0,0,0,0,0,
0,0,0,0,0,0,0,0,0,0,0,0,0,0,0,0,
0,0,0,0,0,0,0,0,0,0,0,0,0,0,0,0
</chunk>
   <chunk x="80" y="0" width="16" height="16">
0,0,0,0,0,0,0,0,0,4216,0,0,0,0,0,0,
0,0,0,0,0,0,0,0,0,4294,0,0,0,0,0,0,
0,0,0,0,0,0,0,0,0,0,0,0,0,0,0,0,
0,0,0,0,0,0,0,0,0,0,0,0,0,0,0,0,
0,0,0,0,0,0,0,0,0,0,0,0,0,0,0,0,
0,0,0,0,0,0,0,0,0,0,0,0,0,0,0,0,
0,0,0,0,0,0,0,0,0,0,0,0,0,0,0,0,
0,0,0,0,0,0,0,0,0,0,0,0,0,0,0,0,
0,0,0,0,0,0,0,0,0,0,0,0,0,0,0,0,
0,0,0,0,0,0,0,0,0,0,0,0,0,0,0,0,
0,0,0,0,0,0,0,0,0,0,0,0,0,0,0,0,
0,0,0,0,0,0,0,0,0,0,0,0,0,0,0,0,
0,0,0,0,0,0,0,0,0,0,0,0,0,0,0,0,
0,0,0,0,0,0,0,0,0,0,0,0,0,0,0,0,
0,0,0,0,0,0,0,0,0,0,0,0,0,0,0,0,
0,0,0,0,0,0,0,0,0,0,0,0,0,0,0,0
</chunk>
  </data>
 </layer>
 <layer id="4" name="Voreground" width="30" height="20">
  <data encoding="csv">
   <chunk x="0" y="-16" width="16" height="16">
0,0,0,0,0,0,0,0,0,0,0,0,0,0,0,0,
0,0,0,0,0,0,0,0,0,0,0,0,0,0,0,0,
0,0,0,0,0,0,0,0,0,0,0,0,0,0,0,0,
0,0,0,0,0,0,0,0,0,0,0,0,0,0,0,0,
0,0,0,0,0,0,0,0,0,0,0,0,0,0,0,0,
0,0,0,0,0,0,0,0,0,0,0,0,0,0,0,0,
0,0,0,0,0,0,0,0,0,0,0,0,0,0,0,0,
0,0,0,0,0,0,0,0,0,0,0,0,0,0,0,0,
0,0,0,0,0,0,0,0,0,0,0,0,0,0,0,0,
0,0,0,0,0,0,0,0,0,0,0,0,0,0,0,0,
0,0,0,0,0,0,0,0,0,0,0,0,0,0,0,0,
0,0,0,0,0,0,0,0,0,0,0,0,0,0,0,0,
0,0,0,0,0,0,0,0,0,0,0,0,0,0,0,0,
0,0,0,0,0,0,0,0,0,0,0,0,0,0,0,0,
4175,4333,4176,4333,4176,4333,4179,0,0,0,0,0,0,0,0,0,
0,0,0,0,0,0,0,0,0,0,0,0,0,0,0,0
</chunk>
   <chunk x="16" y="-16" width="16" height="16">
0,0,0,0,0,0,0,0,0,0,0,0,0,0,0,0,
0,0,0,0,0,0,0,0,0,0,0,0,0,0,0,0,
0,0,0,0,0,0,0,0,0,0,0,0,0,0,0,0,
0,0,0,0,0,0,0,0,0,0,0,0,0,0,0,0,
0,0,0,0,0,0,0,0,0,0,0,0,0,0,0,0,
0,0,0,0,0,0,0,0,0,0,0,0,0,0,0,0,
0,0,0,0,0,0,0,0,0,0,0,0,0,0,0,0,
0,0,0,0,0,0,0,0,0,0,0,0,0,0,0,0,
0,0,0,0,0,0,0,0,0,0,0,0,0,0,0,0,
0,0,0,0,0,0,0,0,0,0,0,0,0,0,0,0,
0,0,0,0,0,0,0,0,0,0,0,0,0,0,0,0,
0,0,0,0,0,0,0,0,0,0,0,0,0,0,0,0,
0,0,0,0,0,0,0,0,0,0,0,0,0,0,0,0,
0,0,0,0,0,0,0,0,0,0,0,0,0,0,0,0,
0,0,0,0,0,0,0,0,0,0,0,0,0,0,0,0,
4151,4152,0,5397,4259,4260,4261,4262,0,0,0,0,0,5440,0,0
</chunk>
   <chunk x="32" y="-16" width="16" height="16">
0,0,0,0,0,0,0,0,0,0,0,0,0,0,0,0,
0,0,0,0,0,0,0,0,0,0,0,0,0,0,0,0,
0,0,0,0,0,0,0,0,0,0,0,0,0,0,0,0,
0,0,0,0,0,0,0,0,0,0,0,0,0,0,0,0,
0,0,0,0,0,0,0,0,0,0,0,0,0,0,0,0,
0,0,0,0,0,0,0,0,0,0,0,0,0,0,0,0,
0,0,0,0,0,0,0,0,0,0,0,0,0,0,0,0,
0,0,0,0,0,0,0,0,0,0,0,0,0,0,0,0,
0,0,0,0,0,0,0,0,0,0,0,0,0,0,0,0,
0,0,0,0,0,0,0,0,0,0,0,0,0,0,0,0,
0,0,0,0,0,0,0,0,0,0,0,0,0,0,0,0,
0,0,0,0,0,0,0,0,0,0,0,0,0,0,0,0,
0,0,0,0,0,0,0,0,0,0,0,0,0,0,0,0,
0,0,0,0,0,5436,5437,5438,5439,0,0,0,0,0,0,0,
0,0,0,0,0,0,0,0,0,0,0,0,0,0,0,0,
0,0,0,0,0,0,0,0,0,0,0,0,0,0,0,0
</chunk>
   <chunk x="64" y="-16" width="16" height="16">
0,0,0,0,0,0,0,0,0,0,0,0,0,0,0,0,
0,0,0,0,0,0,0,0,0,0,0,0,0,0,0,0,
0,0,0,0,0,0,0,0,0,0,0,0,0,0,0,0,
0,0,0,0,0,0,0,0,0,0,0,0,0,0,0,0,
0,0,0,0,0,0,0,0,0,0,0,0,0,0,0,0,
0,0,0,0,0,0,0,0,0,0,0,0,0,0,0,0,
0,0,0,0,0,0,0,0,0,0,0,0,0,0,0,0,
0,0,0,0,0,0,0,0,0,0,0,0,0,0,0,0,
0,0,0,0,0,0,0,0,0,0,0,0,0,0,0,0,
0,0,0,0,0,0,0,0,0,0,0,0,0,0,0,0,
0,0,0,4175,4333,4177,4333,4178,4333,4179,0,0,0,0,0,0,
0,0,0,0,0,4255,0,0,0,0,0,0,0,0,0,0,
0,0,0,0,0,0,0,0,0,0,0,0,0,0,0,0,
0,0,0,0,0,0,0,0,0,0,0,0,0,0,0,0,
0,0,0,0,0,0,0,0,0,0,0,0,0,0,0,0,
0,0,0,0,0,0,0,0,0,0,0,0,0,0,0,0
</chunk>
   <chunk x="16" y="0" width="16" height="16">
4190,4191,4192,0,4298,4299,4300,4301,0,0,0,0,0,0,0,0,
4268,4230,4270,4180,4183,4184,4183,4184,4184,4182,4184,4185,0,0,0,0,
4308,4307,4309,0,0,0,0,0,0,0,0,0,0,0,0,0,
0,0,0,0,0,0,0,0,0,0,0,0,0,0,0,0,
0,0,0,0,0,0,0,0,0,0,0,0,0,0,0,0,
0,0,0,0,0,0,0,0,0,0,0,0,0,0,0,0,
0,0,0,0,0,0,0,0,0,0,0,0,0,0,0,0,
0,0,0,0,0,0,0,0,0,0,0,0,0,0,0,0,
0,0,0,0,0,0,0,0,0,0,0,0,0,0,0,0,
0,0,0,0,0,0,0,0,0,0,0,0,0,0,0,0,
0,0,0,0,0,0,0,0,0,0,0,0,0,0,0,0,
0,0,0,0,0,0,0,0,0,0,0,0,0,0,0,0,
0,0,0,0,0,0,0,0,0,0,0,0,0,0,0,0,
0,0,0,0,0,0,0,0,0,0,0,0,0,0,0,0,
0,0,0,0,0,0,0,0,0,0,0,0,0,0,0,0,
0,0,0,0,0,0,0,0,0,0,0,0,0,0,0,0
</chunk>
  </data>
 </layer>
 <layer id="2" name="Water" width="30" height="20" visible="0">
  <data encoding="csv">
   <chunk x="0" y="0" width="16" height="16">
0,0,0,0,0,0,0,0,0,0,0,0,0,0,0,0,
0,0,0,0,0,0,0,0,0,0,0,0,0,0,0,0,
5510,5510,5510,5510,5510,5510,5510,5510,5510,5510,5510,5510,5510,5510,5510,5510,
0,0,0,0,0,0,0,0,0,0,0,0,0,0,0,0,
0,0,0,0,0,0,0,0,0,0,0,0,0,0,0,0,
0,0,0,0,0,0,0,0,0,0,0,0,0,0,0,0,
0,0,0,0,0,0,0,0,0,0,0,0,0,0,0,0,
0,0,0,0,0,0,0,0,0,0,0,0,0,0,0,0,
0,0,0,0,0,0,0,0,0,0,0,0,0,0,0,0,
0,0,0,0,0,0,0,0,0,0,0,0,0,0,0,0,
0,0,0,0,0,0,0,0,0,0,0,0,0,0,0,0,
0,0,0,0,0,0,0,0,0,0,0,0,0,0,0,0,
0,0,0,0,0,0,0,0,0,0,0,0,0,0,0,0,
0,0,0,0,0,0,0,0,0,0,0,0,0,0,0,0,
0,0,0,0,0,0,0,0,0,0,0,0,0,0,0,0,
0,0,0,0,0,0,0,0,0,0,0,0,0,0,0,0
</chunk>
   <chunk x="16" y="0" width="16" height="16">
0,0,0,0,0,0,0,0,0,0,0,0,0,0,0,0,
0,0,0,0,0,0,0,0,0,0,0,0,0,0,0,0,
5510,5510,5510,5510,5510,5510,5510,5510,5510,5510,5510,5510,5510,5510,5510,5510,
0,0,0,0,0,0,0,0,0,0,0,0,0,0,0,0,
0,0,0,0,0,0,0,0,0,0,0,0,0,0,0,0,
0,0,0,0,0,0,0,0,0,0,0,0,0,0,0,0,
0,0,0,0,0,0,0,0,0,0,0,0,0,0,0,0,
0,0,0,0,0,0,0,0,0,0,0,0,0,0,0,0,
0,0,0,0,0,0,0,0,0,0,0,0,0,0,0,0,
0,0,0,0,0,0,0,0,0,0,0,0,0,0,0,0,
0,0,0,0,0,0,0,0,0,0,0,0,0,0,0,0,
0,0,0,0,0,0,0,0,0,0,0,0,0,0,0,0,
0,0,0,0,0,0,0,0,0,0,0,0,0,0,0,0,
0,0,0,0,0,0,0,0,0,0,0,0,0,0,0,0,
0,0,0,0,0,0,0,0,0,0,0,0,0,0,0,0,
0,0,0,0,0,0,0,0,0,0,0,0,0,0,0,0
</chunk>
   <chunk x="32" y="0" width="16" height="16">
0,0,0,0,0,0,0,0,0,0,0,0,0,0,0,0,
0,0,0,0,0,0,0,0,0,0,0,0,0,0,0,0,
5510,5510,5510,5510,5510,5510,5510,5510,5510,5510,5510,5510,5510,5510,5510,5510,
0,0,0,0,0,0,0,0,0,0,0,0,0,0,0,0,
0,0,0,0,0,0,0,0,0,0,0,0,0,0,0,0,
0,0,0,0,0,0,0,0,0,0,0,0,0,0,0,0,
0,0,0,0,0,0,0,0,0,0,0,0,0,0,0,0,
0,0,0,0,0,0,0,0,0,0,0,0,0,0,0,0,
0,0,0,0,0,0,0,0,0,0,0,0,0,0,0,0,
0,0,0,0,0,0,0,0,0,0,0,0,0,0,0,0,
0,0,0,0,0,0,0,0,0,0,0,0,0,0,0,0,
0,0,0,0,0,0,0,0,0,0,0,0,0,0,0,0,
0,0,0,0,0,0,0,0,0,0,0,0,0,0,0,0,
0,0,0,0,0,0,0,0,0,0,0,0,0,0,0,0,
0,0,0,0,0,0,0,0,0,0,0,0,0,0,0,0,
0,0,0,0,0,0,0,0,0,0,0,0,0,0,0,0
</chunk>
   <chunk x="48" y="0" width="16" height="16">
0,0,0,0,0,0,0,0,0,0,0,0,0,0,0,0,
0,0,0,0,0,0,0,0,0,0,0,0,0,0,0,0,
5510,5510,5510,5510,5510,5510,5510,5510,5510,5510,5510,5510,5510,5510,5510,5510,
0,0,0,0,0,0,0,0,0,0,0,0,0,0,0,0,
0,0,0,0,0,0,0,0,0,0,0,0,0,0,0,0,
0,0,0,0,0,0,0,0,0,0,0,0,0,0,0,0,
0,0,0,0,0,0,0,0,0,0,0,0,0,0,0,0,
0,0,0,0,0,0,0,0,0,0,0,0,0,0,0,0,
0,0,0,0,0,0,0,0,0,0,0,0,0,0,0,0,
0,0,0,0,0,0,0,0,0,0,0,0,0,0,0,0,
0,0,0,0,0,0,0,0,0,0,0,0,0,0,0,0,
0,0,0,0,0,0,0,0,0,0,0,0,0,0,0,0,
0,0,0,0,0,0,0,0,0,0,0,0,0,0,0,0,
0,0,0,0,0,0,0,0,0,0,0,0,0,0,0,0,
0,0,0,0,0,0,0,0,0,0,0,0,0,0,0,0,
0,0,0,0,0,0,0,0,0,0,0,0,0,0,0,0
</chunk>
   <chunk x="64" y="0" width="16" height="16">
0,0,0,0,0,0,0,0,0,0,0,0,0,0,0,0,
0,0,0,0,0,0,0,0,0,0,0,0,0,0,0,0,
5510,5510,5510,5510,5510,5510,5510,5510,5510,5510,5510,5510,5510,5510,5510,5510,
0,0,0,0,0,0,0,0,0,0,0,0,0,0,0,0,
0,0,0,0,0,0,0,0,0,0,0,0,0,0,0,0,
0,0,0,0,0,0,0,0,0,0,0,0,0,0,0,0,
0,0,0,0,0,0,0,0,0,0,0,0,0,0,0,0,
0,0,0,0,0,0,0,0,0,0,0,0,0,0,0,0,
0,0,0,0,0,0,0,0,0,0,0,0,0,0,0,0,
0,0,0,0,0,0,0,0,0,0,0,0,0,0,0,0,
0,0,0,0,0,0,0,0,0,0,0,0,0,0,0,0,
0,0,0,0,0,0,0,0,0,0,0,0,0,0,0,0,
0,0,0,0,0,0,0,0,0,0,0,0,0,0,0,0,
0,0,0,0,0,0,0,0,0,0,0,0,0,0,0,0,
0,0,0,0,0,0,0,0,0,0,0,0,0,0,0,0,
0,0,0,0,0,0,0,0,0,0,0,0,0,0,0,0
</chunk>
   <chunk x="80" y="0" width="16" height="16">
0,0,0,0,0,0,0,0,0,0,0,0,0,0,0,0,
0,0,0,0,0,0,0,0,0,0,0,0,0,0,0,0,
5510,5510,5510,5510,5510,5510,5510,5510,5510,5510,5510,5510,5510,5510,5510,5510,
0,0,0,0,0,0,0,0,0,0,0,0,0,0,0,0,
0,0,0,0,0,0,0,0,0,0,0,0,0,0,0,0,
0,0,0,0,0,0,0,0,0,0,0,0,0,0,0,0,
0,0,0,0,0,0,0,0,0,0,0,0,0,0,0,0,
0,0,0,0,0,0,0,0,0,0,0,0,0,0,0,0,
0,0,0,0,0,0,0,0,0,0,0,0,0,0,0,0,
0,0,0,0,0,0,0,0,0,0,0,0,0,0,0,0,
0,0,0,0,0,0,0,0,0,0,0,0,0,0,0,0,
0,0,0,0,0,0,0,0,0,0,0,0,0,0,0,0,
0,0,0,0,0,0,0,0,0,0,0,0,0,0,0,0,
0,0,0,0,0,0,0,0,0,0,0,0,0,0,0,0,
0,0,0,0,0,0,0,0,0,0,0,0,0,0,0,0,
0,0,0,0,0,0,0,0,0,0,0,0,0,0,0,0
</chunk>
   <chunk x="96" y="0" width="16" height="16">
0,0,0,0,0,0,0,0,0,0,0,0,0,0,0,0,
0,0,0,0,0,0,0,0,0,0,0,0,0,0,0,0,
5510,5510,5510,5510,5510,5510,5510,5510,5510,5510,5510,5510,5510,5510,5510,5510,
0,0,0,0,0,0,0,0,0,0,0,0,0,0,0,0,
0,0,0,0,0,0,0,0,0,0,0,0,0,0,0,0,
0,0,0,0,0,0,0,0,0,0,0,0,0,0,0,0,
0,0,0,0,0,0,0,0,0,0,0,0,0,0,0,0,
0,0,0,0,0,0,0,0,0,0,0,0,0,0,0,0,
0,0,0,0,0,0,0,0,0,0,0,0,0,0,0,0,
0,0,0,0,0,0,0,0,0,0,0,0,0,0,0,0,
0,0,0,0,0,0,0,0,0,0,0,0,0,0,0,0,
0,0,0,0,0,0,0,0,0,0,0,0,0,0,0,0,
0,0,0,0,0,0,0,0,0,0,0,0,0,0,0,0,
0,0,0,0,0,0,0,0,0,0,0,0,0,0,0,0,
0,0,0,0,0,0,0,0,0,0,0,0,0,0,0,0,
0,0,0,0,0,0,0,0,0,0,0,0,0,0,0,0
</chunk>
   <chunk x="112" y="0" width="16" height="16">
0,0,0,0,0,0,0,0,0,0,0,0,0,0,0,0,
0,0,0,0,0,0,0,0,0,0,0,0,0,0,0,0,
5510,5510,5510,5510,5510,5510,5510,5510,5510,5510,5510,5510,5510,5510,5510,5510,
0,0,0,0,0,0,0,0,0,0,0,0,0,0,0,0,
0,0,0,0,0,0,0,0,0,0,0,0,0,0,0,0,
0,0,0,0,0,0,0,0,0,0,0,0,0,0,0,0,
0,0,0,0,0,0,0,0,0,0,0,0,0,0,0,0,
0,0,0,0,0,0,0,0,0,0,0,0,0,0,0,0,
0,0,0,0,0,0,0,0,0,0,0,0,0,0,0,0,
0,0,0,0,0,0,0,0,0,0,0,0,0,0,0,0,
0,0,0,0,0,0,0,0,0,0,0,0,0,0,0,0,
0,0,0,0,0,0,0,0,0,0,0,0,0,0,0,0,
0,0,0,0,0,0,0,0,0,0,0,0,0,0,0,0,
0,0,0,0,0,0,0,0,0,0,0,0,0,0,0,0,
0,0,0,0,0,0,0,0,0,0,0,0,0,0,0,0,
0,0,0,0,0,0,0,0,0,0,0,0,0,0,0,0
</chunk>
  </data>
 </layer>
</map>
