<?xml version="1.0" encoding="UTF-8"?>
<map version="1.10" tiledversion="1.11.2" orientation="orthogonal" renderorder="right-down" width="30" height="20" tilewidth="16" tileheight="16" infinite="1" nextlayerid="10" nextobjectid="1">
 <tileset firstgid="1" name="tielmap_all_inverted" tilewidth="16" tileheight="16" tilecount="2067" columns="39">
  <image source="../Tilesets/tielmap_all_inverted.png" width="624" height="848"/>
  <tile id="40">
   <objectgroup draworder="index" id="2">
    <object id="1" x="0" y="2" width="16" height="14"/>
   </objectgroup>
  </tile>
  <tile id="41">
   <objectgroup draworder="index" id="2">
    <object id="1" x="0" y="2" width="16" height="14"/>
   </objectgroup>
  </tile>
  <tile id="42">
   <objectgroup draworder="index" id="2">
    <object id="1" x="0" y="2" width="16" height="14"/>
   </objectgroup>
  </tile>
  <tile id="43">
   <objectgroup draworder="index" id="2">
    <object id="1" x="0" y="2" width="16" height="7"/>
   </objectgroup>
  </tile>
  <tile id="44">
   <objectgroup draworder="index" id="2">
    <object id="1" x="0" y="2" width="16" height="14"/>
   </objectgroup>
  </tile>
  <tile id="45">
   <objectgroup draworder="index" id="2">
    <object id="1" x="0" y="2" width="16" height="14"/>
   </objectgroup>
  </tile>
  <tile id="46">
   <objectgroup draworder="index" id="2">
    <object id="1" x="0" y="2" width="16" height="14"/>
   </objectgroup>
  </tile>
  <tile id="79">
   <objectgroup draworder="index" id="2">
    <object id="1" x="0" y="1" width="16" height="14"/>
   </objectgroup>
  </tile>
  <tile id="80">
   <objectgroup draworder="index" id="2">
    <object id="1" x="0" y="1" width="16" height="14"/>
   </objectgroup>
  </tile>
  <tile id="81">
   <objectgroup draworder="index" id="2">
    <object id="1" x="0" y="1" width="16" height="14"/>
   </objectgroup>
  </tile>
  <tile id="82">
   <objectgroup draworder="index" id="2">
    <object id="1" x="0" y="2" width="16" height="14"/>
   </objectgroup>
  </tile>
  <tile id="83">
   <objectgroup draworder="index" id="2">
    <object id="1" x="0" y="1" width="16" height="14"/>
   </objectgroup>
  </tile>
  <tile id="84">
   <objectgroup draworder="index" id="2">
    <object id="1" x="0" y="1" width="16" height="14"/>
   </objectgroup>
  </tile>
  <tile id="85">
   <objectgroup draworder="index" id="2">
    <object id="1" x="0" y="1" width="16" height="14"/>
   </objectgroup>
  </tile>
  <tile id="118">
   <objectgroup draworder="index" id="2">
    <object id="1" x="0" y="2" width="16" height="7"/>
   </objectgroup>
  </tile>
  <tile id="120">
   <objectgroup draworder="index" id="2">
    <object id="1" x="0" y="1" width="16" height="9"/>
   </objectgroup>
  </tile>
  <tile id="121">
   <objectgroup draworder="index" id="2">
    <object id="1" x="0" y="1" width="16" height="8"/>
   </objectgroup>
  </tile>
  <tile id="122">
   <objectgroup draworder="index" id="2">
    <object id="1" x="0" y="1" width="16" height="9"/>
   </objectgroup>
  </tile>
  <tile id="124">
   <objectgroup draworder="index" id="2">
    <object id="1" x="0" y="2" width="16" height="7"/>
   </objectgroup>
  </tile>
  <tile id="219">
   <objectgroup draworder="index" id="2">
    <object id="1" x="12" y="0" width="4" height="16"/>
   </objectgroup>
  </tile>
  <tile id="220">
   <objectgroup draworder="index" id="2">
    <object id="1" x="0" y="0" width="16" height="16"/>
   </objectgroup>
  </tile>
  <tile id="221">
   <objectgroup draworder="index" id="2">
    <object id="1" x="0" y="0" width="16" height="16"/>
   </objectgroup>
  </tile>
  <tile id="222">
   <objectgroup draworder="index" id="2">
    <object id="1" x="0" y="0" width="4" height="16"/>
   </objectgroup>
  </tile>
  <tile id="223">
   <objectgroup draworder="index" id="2">
    <object id="1" x="12" y="0" width="4" height="16"/>
   </objectgroup>
  </tile>
  <tile id="224">
   <objectgroup draworder="index" id="2">
    <object id="1" x="0" y="0" width="16" height="16"/>
   </objectgroup>
  </tile>
  <tile id="225">
   <objectgroup draworder="index" id="2">
    <object id="1" x="0" y="0" width="4" height="16"/>
   </objectgroup>
  </tile>
  <tile id="226">
   <objectgroup draworder="index" id="2">
    <object id="1" x="9" y="0" width="7" height="16"/>
   </objectgroup>
  </tile>
  <tile id="227">
   <objectgroup draworder="index" id="2">
    <object id="1" x="0" y="0" width="16" height="16"/>
   </objectgroup>
  </tile>
  <tile id="228">
   <objectgroup draworder="index" id="2">
    <object id="1" x="0" y="0" width="16" height="16"/>
   </objectgroup>
  </tile>
  <tile id="229">
   <objectgroup draworder="index" id="2">
    <object id="1" x="0" y="0" width="7" height="16"/>
   </objectgroup>
  </tile>
  <tile id="230">
   <objectgroup draworder="index" id="2">
    <object id="1" x="9" y="0" width="7" height="16"/>
   </objectgroup>
  </tile>
  <tile id="231">
   <objectgroup draworder="index" id="2">
    <object id="1" x="0" y="0" width="16" height="16"/>
   </objectgroup>
  </tile>
  <tile id="232">
   <objectgroup draworder="index" id="2">
    <object id="1" x="0" y="0" width="7" height="16"/>
   </objectgroup>
  </tile>
  <tile id="236">
   <objectgroup draworder="index" id="2">
    <object id="1" x="0" y="1" width="16" height="15"/>
   </objectgroup>
  </tile>
  <tile id="237">
   <objectgroup draworder="index" id="2">
    <object id="1" x="0" y="1" width="16" height="15"/>
   </objectgroup>
  </tile>
  <tile id="238">
   <objectgroup draworder="index" id="2">
    <object id="1" x="0" y="2" width="16" height="14"/>
   </objectgroup>
  </tile>
  <tile id="239">
   <objectgroup draworder="index" id="2">
    <object id="1" x="0" y="1" width="16" height="15"/>
   </objectgroup>
  </tile>
  <tile id="240">
   <objectgroup draworder="index" id="2">
    <object id="1" x="0" y="1" width="16" height="15"/>
   </objectgroup>
  </tile>
  <tile id="548">
   <objectgroup draworder="index" id="2">
    <object id="1" x="0" y="0" width="16" height="16"/>
   </objectgroup>
  </tile>
  <tile id="549">
   <objectgroup draworder="index" id="2">
    <object id="1" x="0" y="0" width="6.04348" height="16"/>
   </objectgroup>
  </tile>
  <tile id="556">
   <objectgroup draworder="index" id="2">
    <object id="1" x="0" y="0" width="16" height="16"/>
   </objectgroup>
  </tile>
  <tile id="557">
   <objectgroup draworder="index" id="2">
    <object id="1" x="0" y="0" width="6.04348" height="16"/>
   </objectgroup>
  </tile>
  <tile id="563">
   <objectgroup draworder="index" id="2">
    <object id="1" x="0" y="8.03125" width="16" height="7.96875"/>
   </objectgroup>
  </tile>
  <tile id="564">
   <objectgroup draworder="index" id="2">
    <object id="1" x="0" y="8.01563" width="16" height="7.98438"/>
   </objectgroup>
  </tile>
  <tile id="565">
   <objectgroup draworder="index" id="2">
    <object id="1" x="0" y="7.98438" width="16" height="8.01563"/>
   </objectgroup>
  </tile>
  <tile id="566">
   <objectgroup draworder="index" id="2">
    <object id="1" x="0" y="8" width="16" height="8"/>
   </objectgroup>
  </tile>
  <tile id="567">
   <objectgroup draworder="index" id="2">
    <object id="1" x="0" y="7.95313" width="16" height="8.04688"/>
   </objectgroup>
  </tile>
  <tile id="569">
   <objectgroup draworder="index" id="2">
    <object id="1" x="0" y="0" width="16" height="16"/>
   </objectgroup>
  </tile>
  <tile id="570">
   <objectgroup draworder="index" id="2">
    <object id="1" x="0" y="0" width="6" height="16"/>
   </objectgroup>
  </tile>
  <tile id="577">
   <objectgroup draworder="index" id="2">
    <object id="1" x="0" y="0" width="16" height="16"/>
   </objectgroup>
  </tile>
  <tile id="578">
   <objectgroup draworder="index" id="2">
    <object id="1" x="0" y="0" width="6.04348" height="16"/>
   </objectgroup>
  </tile>
  <tile id="587">
   <objectgroup draworder="index" id="2">
    <object id="1" x="0" y="0" width="16" height="16"/>
   </objectgroup>
  </tile>
  <tile id="595">
   <objectgroup draworder="index" id="2">
    <object id="1" x="0" y="0" width="16" height="16"/>
   </objectgroup>
  </tile>
  <tile id="602">
   <objectgroup draworder="index" id="2">
    <object id="1" x="0" y="8" width="13" height="8"/>
   </objectgroup>
  </tile>
  <tile id="603">
   <objectgroup draworder="index" id="2">
    <object id="1" x="3" y="8" width="13" height="8"/>
   </objectgroup>
  </tile>
  <tile id="608">
   <objectgroup draworder="index" id="2">
    <object id="1" x="0" y="0" width="16" height="16"/>
   </objectgroup>
  </tile>
  <tile id="616">
   <objectgroup draworder="index" id="2">
    <object id="1" x="0" y="0" width="16" height="16"/>
   </objectgroup>
  </tile>
  <tile id="641">
   <objectgroup draworder="index" id="2">
    <object id="1" x="0" y="0" width="16" height="16"/>
   </objectgroup>
  </tile>
  <tile id="642">
   <objectgroup draworder="index" id="2">
    <object id="1" x="0" y="0" width="16" height="16"/>
   </objectgroup>
  </tile>
  <tile id="644">
   <objectgroup draworder="index" id="2">
    <object id="1" x="0" y="0" width="13" height="16"/>
   </objectgroup>
  </tile>
  <tile id="645">
   <objectgroup draworder="index" id="2">
    <object id="1" x="3" y="0" width="13" height="16"/>
   </objectgroup>
  </tile>
  <tile id="664">
   <objectgroup draworder="index" id="2">
    <object id="1" x="11" y="0" width="5" height="9"/>
   </objectgroup>
  </tile>
  <tile id="665">
   <objectgroup draworder="index" id="2">
    <object id="1" x="0" y="0" width="16" height="16"/>
   </objectgroup>
  </tile>
  <tile id="666">
   <objectgroup draworder="index" id="2">
    <object id="1" x="0" y="0" width="16" height="16"/>
   </objectgroup>
  </tile>
  <tile id="667">
   <objectgroup draworder="index" id="2">
    <object id="1" x="0" y="0" width="16" height="16"/>
   </objectgroup>
  </tile>
  <tile id="669">
   <objectgroup draworder="index" id="2">
    <object id="1" x="0" y="0" width="16" height="16"/>
   </objectgroup>
  </tile>
  <tile id="670">
   <objectgroup draworder="index" id="2">
    <object id="1" x="0" y="0" width="16" height="16"/>
   </objectgroup>
  </tile>
  <tile id="671">
   <objectgroup draworder="index" id="2">
    <object id="1" x="0" y="0" width="16" height="16"/>
   </objectgroup>
  </tile>
  <tile id="673">
   <objectgroup draworder="index" id="2">
    <object id="1" x="0" y="0" width="16" height="16"/>
   </objectgroup>
  </tile>
  <tile id="674">
   <objectgroup draworder="index" id="2">
    <object id="1" x="0" y="0" width="16" height="16"/>
   </objectgroup>
  </tile>
  <tile id="675">
   <objectgroup draworder="index" id="2">
    <object id="1" x="0" y="0" width="16" height="16"/>
   </objectgroup>
  </tile>
  <tile id="676">
   <objectgroup draworder="index" id="2">
    <object id="1" x="0" y="0" width="16" height="16"/>
   </objectgroup>
  </tile>
  <tile id="677">
   <objectgroup draworder="index" id="2">
    <object id="1" x="0" y="0" width="16" height="16"/>
   </objectgroup>
  </tile>
  <tile id="678">
   <objectgroup draworder="index" id="2">
    <object id="1" x="0" y="0" width="16" height="16"/>
   </objectgroup>
  </tile>
  <tile id="679">
   <objectgroup draworder="index" id="2">
    <object id="1" x="0" y="0" width="5" height="9"/>
   </objectgroup>
  </tile>
  <tile id="683">
   <objectgroup draworder="index" id="2">
    <object id="1" x="0" y="0" width="16" height="16"/>
   </objectgroup>
  </tile>
  <tile id="684">
   <objectgroup draworder="index" id="2">
    <object id="1" x="0" y="0" width="16" height="16"/>
   </objectgroup>
  </tile>
  <tile id="685">
   <objectgroup draworder="index" id="2">
    <object id="1" x="11" y="0" width="5" height="9"/>
   </objectgroup>
  </tile>
  <tile id="686">
   <objectgroup draworder="index" id="2">
    <object id="1" x="0" y="0" width="16" height="16"/>
   </objectgroup>
  </tile>
  <tile id="687">
   <objectgroup draworder="index" id="2">
    <object id="1" x="0" y="0" width="16" height="16"/>
   </objectgroup>
  </tile>
  <tile id="688">
   <objectgroup draworder="index" id="2">
    <object id="1" x="0" y="0" width="16" height="16"/>
   </objectgroup>
  </tile>
  <tile id="690">
   <objectgroup draworder="index" id="2">
    <object id="1" x="0" y="0" width="16" height="16"/>
   </objectgroup>
  </tile>
  <tile id="691">
   <objectgroup draworder="index" id="2">
    <object id="2" x="0" y="0" width="16" height="16"/>
   </objectgroup>
  </tile>
  <tile id="692">
   <objectgroup draworder="index" id="2">
    <object id="1" x="0" y="0" width="16" height="16"/>
   </objectgroup>
  </tile>
  <tile id="694">
   <objectgroup draworder="index" id="2">
    <object id="1" x="0" y="0" width="16" height="16"/>
   </objectgroup>
  </tile>
  <tile id="695">
   <objectgroup draworder="index" id="2">
    <object id="1" x="0" y="0" width="16" height="16"/>
   </objectgroup>
  </tile>
  <tile id="696">
   <objectgroup draworder="index" id="2">
    <object id="1" x="0" y="0" width="16" height="16"/>
   </objectgroup>
  </tile>
  <tile id="697">
   <objectgroup draworder="index" id="2">
    <object id="1" x="0" y="0" width="16" height="16"/>
   </objectgroup>
  </tile>
  <tile id="698">
   <objectgroup draworder="index" id="2">
    <object id="1" x="0" y="0" width="16" height="16"/>
   </objectgroup>
  </tile>
  <tile id="699">
   <objectgroup draworder="index" id="2">
    <object id="1" x="0" y="0" width="16" height="16"/>
   </objectgroup>
  </tile>
  <tile id="700">
   <objectgroup draworder="index" id="2">
    <object id="1" x="0" y="0" width="5" height="9"/>
   </objectgroup>
  </tile>
  <tile id="704">
   <objectgroup draworder="index" id="2">
    <object id="1" x="0" y="0" width="16" height="16"/>
   </objectgroup>
  </tile>
  <tile id="717">
   <objectgroup draworder="index" id="2">
    <object id="1" x="0" y="0" width="12" height="16"/>
   </objectgroup>
  </tile>
  <tile id="725">
   <objectgroup draworder="index" id="2">
    <object id="1" x="0" y="0" width="16" height="16"/>
   </objectgroup>
  </tile>
  <tile id="738">
   <objectgroup draworder="index" id="2">
    <object id="1" x="0" y="0" width="12" height="16"/>
   </objectgroup>
  </tile>
  <tile id="743">
   <objectgroup draworder="index" id="2">
    <object id="1" x="0" y="0" width="16" height="16"/>
   </objectgroup>
  </tile>
  <tile id="755">
   <objectgroup draworder="index" id="2">
    <object id="1" x="0" y="0" width="16" height="16"/>
   </objectgroup>
  </tile>
  <tile id="756">
   <objectgroup draworder="index" id="2">
    <object id="1" x="0" y="0" width="4" height="7"/>
   </objectgroup>
  </tile>
  <tile id="764">
   <objectgroup draworder="index" id="2">
    <object id="1" x="0" y="0" width="16" height="16"/>
   </objectgroup>
  </tile>
  <tile id="776">
   <objectgroup draworder="index" id="2">
    <object id="1" x="0" y="0" width="16" height="16"/>
   </objectgroup>
  </tile>
  <tile id="777">
   <objectgroup draworder="index" id="2">
    <object id="1" x="0" y="0" width="4" height="7"/>
   </objectgroup>
  </tile>
  <tile id="821">
   <objectgroup draworder="index" id="2">
    <object id="1" x="0" y="0" width="16" height="16"/>
   </objectgroup>
  </tile>
  <tile id="833">
   <objectgroup draworder="index" id="2">
    <object id="1" x="0" y="0" width="12" height="16"/>
   </objectgroup>
  </tile>
  <tile id="842">
   <objectgroup draworder="index" id="2">
    <object id="1" x="0" y="0" width="16" height="16"/>
   </objectgroup>
  </tile>
  <tile id="860">
   <objectgroup draworder="index" id="2">
    <object id="1" x="0" y="0" width="16" height="16"/>
   </objectgroup>
  </tile>
  <tile id="871">
   <objectgroup draworder="index" id="2">
    <object id="1" x="0" y="0" width="16" height="16"/>
   </objectgroup>
  </tile>
  <tile id="872">
   <objectgroup draworder="index" id="2">
    <object id="1" x="0" y="0" width="4" height="7"/>
   </objectgroup>
  </tile>
  <tile id="881">
   <objectgroup draworder="index" id="2">
    <object id="1" x="0" y="0" width="16" height="16"/>
   </objectgroup>
  </tile>
  <tile id="892">
   <objectgroup draworder="index" id="2">
    <object id="1" x="0" y="0" width="16" height="16"/>
   </objectgroup>
  </tile>
  <tile id="893">
   <objectgroup draworder="index" id="2">
    <object id="1" x="0" y="0" width="4" height="7"/>
   </objectgroup>
  </tile>
  <tile id="898">
   <objectgroup draworder="index" id="2">
    <object id="1" x="8" y="0" width="8" height="16"/>
   </objectgroup>
  </tile>
  <tile id="899">
   <objectgroup draworder="index" id="2">
    <object id="1" x="0" y="0" width="16" height="16"/>
   </objectgroup>
  </tile>
  <tile id="909">
   <objectgroup draworder="index" id="2">
    <object id="1" x="0" y="0" width="16" height="16"/>
   </objectgroup>
  </tile>
  <tile id="910">
   <objectgroup draworder="index" id="2">
    <object id="1" x="0" y="0" width="12" height="16"/>
   </objectgroup>
  </tile>
  <tile id="920">
   <objectgroup draworder="index" id="2">
    <object id="1" x="0" y="0" width="16" height="16"/>
   </objectgroup>
  </tile>
  <tile id="930">
   <objectgroup draworder="index" id="2">
    <object id="1" x="0" y="0" width="16" height="16"/>
   </objectgroup>
  </tile>
  <tile id="931">
   <objectgroup draworder="index" id="2">
    <object id="1" x="0" y="0" width="12" height="16"/>
   </objectgroup>
  </tile>
  <tile id="937">
   <objectgroup draworder="index" id="2">
    <object id="1" x="8" y="0" width="8" height="16"/>
   </objectgroup>
  </tile>
  <tile id="938">
   <objectgroup draworder="index" id="2">
    <object id="1" x="0" y="0" width="16" height="16"/>
   </objectgroup>
  </tile>
  <tile id="939">
   <objectgroup draworder="index" id="2">
    <object id="1" x="0" y="0" width="16" height="16"/>
   </objectgroup>
  </tile>
  <tile id="940">
   <objectgroup draworder="index" id="2">
    <object id="1" x="0" y="0" width="16" height="16"/>
   </objectgroup>
  </tile>
  <tile id="942">
   <objectgroup draworder="index" id="2">
    <object id="1" x="0" y="0" width="16" height="16"/>
   </objectgroup>
  </tile>
  <tile id="943">
   <objectgroup draworder="index" id="2">
    <object id="1" x="0" y="0" width="16" height="16"/>
   </objectgroup>
  </tile>
  <tile id="944">
   <objectgroup draworder="index" id="2">
    <object id="1" x="0" y="0" width="16" height="16"/>
   </objectgroup>
  </tile>
  <tile id="946">
   <objectgroup draworder="index" id="2">
    <object id="1" x="0" y="0" width="16" height="16"/>
   </objectgroup>
  </tile>
  <tile id="947">
   <objectgroup draworder="index" id="2">
    <object id="1" x="0" y="0" width="16" height="15"/>
   </objectgroup>
  </tile>
  <tile id="948">
   <objectgroup draworder="index" id="2">
    <object id="1" x="0" y="0" width="16" height="10"/>
   </objectgroup>
  </tile>
  <tile id="959">
   <objectgroup draworder="index" id="2">
    <object id="1" x="0" y="0" width="16" height="16"/>
   </objectgroup>
  </tile>
  <tile id="969">
   <objectgroup draworder="index" id="2">
    <object id="1" x="0" y="0" width="16" height="10"/>
   </objectgroup>
  </tile>
  <tile id="1016">
   <objectgroup draworder="index" id="2">
    <object id="1" x="0" y="7.91304" width="16" height="8.08696"/>
   </objectgroup>
  </tile>
  <tile id="1017">
   <objectgroup draworder="index" id="2">
    <object id="1" x="0" y="8.04348" width="16" height="7.95652"/>
   </objectgroup>
  </tile>
  <tile id="1018">
   <objectgroup draworder="index" id="2">
    <object id="1" x="0" y="8.04348" width="16" height="7.95652"/>
   </objectgroup>
  </tile>
  <tile id="1019">
   <objectgroup draworder="index" id="2">
    <object id="1" x="0" y="8.04348" width="16" height="7.95652"/>
   </objectgroup>
  </tile>
  <tile id="1020">
   <objectgroup draworder="index" id="2">
    <object id="1" x="0" y="7.95652" width="16" height="8.04348"/>
   </objectgroup>
  </tile>
  <tile id="1021">
   <objectgroup draworder="index" id="2">
    <object id="1" x="0" y="8.04348" width="16" height="7.95652"/>
   </objectgroup>
  </tile>
  <tile id="1022">
   <objectgroup draworder="index" id="2">
    <object id="1" x="0" y="7.91304" width="16" height="8.08696"/>
   </objectgroup>
  </tile>
  <tile id="1027">
   <objectgroup draworder="index" id="2">
    <object id="1" x="3" y="0" width="13" height="16"/>
   </objectgroup>
  </tile>
  <tile id="1034">
   <objectgroup draworder="index" id="2">
    <object id="1" x="0" y="0" width="13" height="16"/>
   </objectgroup>
  </tile>
  <tile id="1055">
   <objectgroup draworder="index" id="2">
    <object id="1" x="3" y="0" width="13" height="16"/>
   </objectgroup>
  </tile>
  <tile id="1061">
   <objectgroup draworder="index" id="2">
    <object id="1" x="0" y="0" width="13" height="16"/>
   </objectgroup>
  </tile>
  <tile id="1066">
   <objectgroup draworder="index" id="2">
    <object id="1" x="4" y="0" width="12" height="16"/>
   </objectgroup>
  </tile>
  <tile id="1073">
   <objectgroup draworder="index" id="2">
    <object id="1" x="0" y="0" width="12" height="16"/>
   </objectgroup>
  </tile>
  <tile id="1094">
   <objectgroup draworder="index" id="2">
    <object id="1" x="4" y="0" width="12" height="16"/>
   </objectgroup>
  </tile>
  <tile id="1100">
   <objectgroup draworder="index" id="2">
    <object id="1" x="0" y="0" width="12" height="16"/>
   </objectgroup>
  </tile>
  <tile id="1105">
   <objectgroup draworder="index" id="2">
    <object id="1" x="4" y="0" width="12" height="16"/>
   </objectgroup>
  </tile>
  <tile id="1112">
   <objectgroup draworder="index" id="2">
    <object id="1" x="0" y="0" width="12" height="16"/>
   </objectgroup>
  </tile>
  <tile id="1133">
   <objectgroup draworder="index" id="2">
    <object id="1" x="4" y="0" width="12" height="16"/>
   </objectgroup>
  </tile>
  <tile id="1139">
   <objectgroup draworder="index" id="2">
    <object id="1" x="0" y="0" width="12" height="16"/>
   </objectgroup>
  </tile>
  <tile id="1144">
   <objectgroup draworder="index" id="2">
    <object id="1" x="0" y="0" width="16" height="16"/>
   </objectgroup>
  </tile>
  <tile id="1151">
   <objectgroup draworder="index" id="2">
    <object id="1" x="0" y="0" width="13" height="16"/>
   </objectgroup>
  </tile>
  <tile id="1157">
   <objectgroup draworder="index" id="2">
    <object id="1" x="11" y="13" width="5" height="3"/>
   </objectgroup>
  </tile>
  <tile id="1158">
   <objectgroup draworder="index" id="2">
    <object id="1" x="0" y="13" width="5" height="3"/>
   </objectgroup>
  </tile>
  <tile id="1183">
   <objectgroup draworder="index" id="2">
    <object id="1" x="4" y="0" width="12" height="16"/>
   </objectgroup>
  </tile>
  <tile id="1190">
   <objectgroup draworder="index" id="2">
    <object id="1" x="0" y="0" width="12" height="16"/>
   </objectgroup>
  </tile>
  <tile id="1195">
   <objectgroup draworder="index" id="2">
    <object id="1" x="0" y="2" width="16" height="14"/>
   </objectgroup>
  </tile>
  <tile id="1196">
   <objectgroup draworder="index" id="2">
    <object id="1" x="0" y="0" width="16" height="16"/>
   </objectgroup>
  </tile>
  <tile id="1197">
   <objectgroup draworder="index" id="2">
    <object id="1" x="0" y="0" width="16" height="16"/>
   </objectgroup>
  </tile>
  <tile id="1210">
   <objectgroup draworder="index" id="2">
    <object id="1" x="2" y="8" width="14" height="8"/>
   </objectgroup>
  </tile>
  <tile id="1222">
   <objectgroup draworder="index" id="2">
    <object id="1" x="4" y="0" width="12" height="16"/>
   </objectgroup>
  </tile>
  <tile id="1229">
   <objectgroup draworder="index" id="2">
    <object id="1" x="0" y="0" width="12" height="16"/>
   </objectgroup>
  </tile>
  <tile id="1234">
   <objectgroup draworder="index" id="2">
    <object id="1" x="1" y="10" width="14" height="6"/>
   </objectgroup>
  </tile>
  <tile id="1235">
   <objectgroup draworder="index" id="2">
    <object id="1" x="5" y="5" width="11" height="11"/>
   </objectgroup>
  </tile>
  <tile id="1236">
   <objectgroup draworder="index" id="2">
    <object id="1" x="0" y="5" width="11" height="11"/>
   </objectgroup>
  </tile>
  <tile id="1250">
   <objectgroup draworder="index" id="2">
    <object id="1" x="0" y="0" width="16" height="16"/>
   </objectgroup>
  </tile>
  <tile id="1273">
   <objectgroup draworder="index" id="2">
    <object id="1" x="0" y="0" width="16" height="16"/>
   </objectgroup>
  </tile>
  <tile id="1274">
   <objectgroup draworder="index" id="2">
    <object id="1" x="0" y="0" width="16" height="16"/>
   </objectgroup>
  </tile>
  <tile id="1275">
   <objectgroup draworder="index" id="2">
    <object id="1" x="0" y="0" width="16" height="16"/>
   </objectgroup>
  </tile>
  <tile id="1405">
   <objectgroup draworder="index" id="2">
    <object id="1" x="11" y="0" width="5" height="9"/>
   </objectgroup>
  </tile>
  <tile id="1406">
   <objectgroup draworder="index" id="2">
    <object id="1" x="0" y="0" width="16" height="16"/>
   </objectgroup>
  </tile>
  <tile id="1407">
   <objectgroup draworder="index" id="2">
    <object id="1" x="0" y="0" width="16" height="16"/>
   </objectgroup>
  </tile>
  <tile id="1408">
   <objectgroup draworder="index" id="2">
    <object id="1" x="0" y="0" width="16" height="16"/>
   </objectgroup>
  </tile>
  <tile id="1409">
   <objectgroup draworder="index" id="2">
    <object id="1" x="0" y="0" width="16" height="16"/>
   </objectgroup>
  </tile>
  <tile id="1410">
   <objectgroup draworder="index" id="2">
    <object id="1" x="0" y="0" width="16" height="16"/>
   </objectgroup>
  </tile>
  <tile id="1411">
   <objectgroup draworder="index" id="2">
    <object id="1" x="0" y="0" width="16" height="16"/>
   </objectgroup>
  </tile>
  <tile id="1412">
   <objectgroup draworder="index" id="2">
    <object id="1" x="0" y="0" width="16" height="16"/>
    <object id="2" x="0" y="0" width="16" height="16"/>
   </objectgroup>
  </tile>
  <tile id="1413">
   <objectgroup draworder="index" id="2">
    <object id="1" x="0" y="0" width="16" height="16"/>
   </objectgroup>
  </tile>
  <tile id="1414">
   <objectgroup draworder="index" id="2">
    <object id="1" x="0" y="0" width="16" height="16"/>
   </objectgroup>
  </tile>
  <tile id="1415">
   <objectgroup draworder="index" id="2">
    <object id="1" x="0" y="0" width="5" height="9"/>
   </objectgroup>
  </tile>
  <tile id="1416">
   <objectgroup draworder="index" id="2">
    <object id="1" x="0" y="0" width="16" height="16"/>
   </objectgroup>
  </tile>
  <tile id="1417">
   <objectgroup draworder="index" id="2">
    <object id="1" x="0" y="0" width="16" height="16"/>
    <object id="2" x="0" y="0" width="16" height="16"/>
   </objectgroup>
  </tile>
  <tile id="1418">
   <objectgroup draworder="index" id="2">
    <object id="1" x="0" y="0" width="16" height="16"/>
    <object id="2" x="0" y="0" width="16" height="16"/>
   </objectgroup>
  </tile>
  <tile id="1420">
   <objectgroup draworder="index" id="2">
    <object id="1" x="0" y="0" width="13" height="16"/>
   </objectgroup>
  </tile>
  <tile id="1421">
   <objectgroup draworder="index" id="2">
    <object id="1" x="3" y="0" width="13" height="16"/>
   </objectgroup>
  </tile>
  <tile id="1445">
   <objectgroup draworder="index" id="2">
    <object id="1" x="0" y="0" width="16" height="16"/>
   </objectgroup>
  </tile>
  <tile id="1459">
   <objectgroup draworder="index" id="2">
    <object id="1" x="0" y="0" width="16" height="16"/>
   </objectgroup>
  </tile>
  <tile id="1460">
   <objectgroup draworder="index" id="2">
    <object id="1" x="0" y="0" width="16" height="16"/>
   </objectgroup>
  </tile>
  <tile id="1484">
   <objectgroup draworder="index" id="2">
    <object id="1" x="0" y="0" width="16" height="16"/>
   </objectgroup>
  </tile>
  <tile id="1498">
   <objectgroup draworder="index" id="2">
    <object id="1" x="0" y="8" width="13" height="8"/>
   </objectgroup>
  </tile>
  <tile id="1499">
   <objectgroup draworder="index" id="2">
    <object id="1" x="3" y="8" width="13" height="8"/>
   </objectgroup>
  </tile>
  <tile id="1505">
   <objectgroup draworder="index" id="2">
    <object id="1" x="4.9375" y="0" width="11.0625" height="16"/>
   </objectgroup>
  </tile>
  <tile id="1506">
   <objectgroup draworder="index" id="2">
    <object id="1" x="0" y="0" width="14" height="16"/>
   </objectgroup>
  </tile>
  <tile id="1523">
   <objectgroup draworder="index" id="2">
    <object id="1" x="0" y="0" width="16" height="16"/>
   </objectgroup>
  </tile>
  <tile id="1537">
   <objectgroup draworder="index" id="2">
    <object id="1" x="0" y="0" width="16" height="16"/>
   </objectgroup>
  </tile>
  <tile id="1538">
   <objectgroup draworder="index" id="2">
    <object id="1" x="0" y="0" width="16" height="16"/>
   </objectgroup>
  </tile>
  <tile id="1544">
   <objectgroup draworder="index" id="2">
    <object id="1" x="0" y="0" width="16" height="16"/>
   </objectgroup>
  </tile>
  <tile id="1545">
   <objectgroup draworder="index" id="2">
    <object id="1" x="0" y="0" width="16" height="16"/>
   </objectgroup>
  </tile>
  <tile id="1562">
   <objectgroup draworder="index" id="2">
    <object id="1" x="0" y="0" width="16" height="16"/>
   </objectgroup>
  </tile>
  <tile id="1579">
   <objectgroup draworder="index" id="2">
    <object id="1" x="0" y="16">
     <polygon points="0,0 16,0 16,-16 12.9922,-16.0156 10.0234,-15.0156 8.03906,-14.0156 7,-12.9844 5.99219,-11.9844 3.00781,-8.99219 2.03125,-6.97656 1.00781,-4.02344"/>
    </object>
   </objectgroup>
  </tile>
  <tile id="1580">
   <objectgroup draworder="index" id="2">
    <object id="1" x="0" y="0" width="15" height="16"/>
   </objectgroup>
  </tile>
  <tile id="1581">
   <objectgroup draworder="index" id="2">
    <object id="1" x="1" y="0" width="15" height="16"/>
    <object id="2" x="0" y="16">
     <polygon points="0,0 16,0 16,-16 12.9922,-16.0156 10.0234,-15.0156 8.03906,-14.0156 7,-12.9844 5.99219,-11.9844 3.00781,-8.99219 2.03125,-6.97656 1.00781,-4.02344"/>
    </object>
   </objectgroup>
  </tile>
  <tile id="1582">
   <objectgroup draworder="index" id="2">
    <object id="1" x="0" y="0" width="15" height="16"/>
   </objectgroup>
  </tile>
  <tile id="1583">
   <objectgroup draworder="index" id="2">
    <object id="1" x="5" y="13" width="11" height="3"/>
   </objectgroup>
  </tile>
  <tile id="1584">
   <objectgroup draworder="index" id="2">
    <object id="1" x="0" y="13" width="10" height="3"/>
   </objectgroup>
  </tile>
  <tile id="1601">
   <objectgroup draworder="index" id="2">
    <object id="1" x="0" y="0" width="16" height="16"/>
   </objectgroup>
  </tile>
  <tile id="1619">
   <objectgroup draworder="index" id="2">
    <object id="1" x="0" y="0" width="16" height="16"/>
   </objectgroup>
  </tile>
  <tile id="1620">
   <objectgroup draworder="index" id="2">
    <object id="1" x="1" y="0" width="15" height="16"/>
   </objectgroup>
  </tile>
  <tile id="1621">
   <objectgroup draworder="index" id="2">
    <object id="1" x="0" y="0" width="15" height="16"/>
   </objectgroup>
  </tile>
  <tile id="1622">
   <objectgroup draworder="index" id="2">
    <object id="1" x="3" y="0" width="13" height="16"/>
   </objectgroup>
  </tile>
  <tile id="1623">
   <objectgroup draworder="index" id="2">
    <object id="1" x="0" y="0" width="14" height="16"/>
   </objectgroup>
  </tile>
  <tile id="1640">
   <objectgroup draworder="index" id="2">
    <object id="1" x="0" y="0" width="16" height="16"/>
   </objectgroup>
  </tile>
  <tile id="1717">
   <objectgroup draworder="index" id="2">
    <object id="1" x="11" y="0" width="5" height="9"/>
   </objectgroup>
  </tile>
  <tile id="1718">
   <objectgroup draworder="index" id="2">
    <object id="1" x="0" y="0" width="16" height="16"/>
   </objectgroup>
  </tile>
  <tile id="1719">
   <objectgroup draworder="index" id="2">
    <object id="1" x="0" y="0" width="16" height="16"/>
   </objectgroup>
  </tile>
  <tile id="1720">
   <objectgroup draworder="index" id="2">
    <object id="1" x="0" y="0" width="16" height="16"/>
   </objectgroup>
  </tile>
  <tile id="1721">
   <objectgroup draworder="index" id="2">
    <object id="1" x="0" y="0" width="16" height="16"/>
   </objectgroup>
  </tile>
  <tile id="1722">
   <objectgroup draworder="index" id="2">
    <object id="1" x="0" y="0" width="16" height="16"/>
   </objectgroup>
  </tile>
  <tile id="1723">
   <objectgroup draworder="index" id="2">
    <object id="1" x="0" y="0" width="16" height="16"/>
   </objectgroup>
  </tile>
  <tile id="1724">
   <objectgroup draworder="index" id="2">
    <object id="1" x="0" y="0" width="16" height="16"/>
   </objectgroup>
  </tile>
  <tile id="1725">
   <objectgroup draworder="index" id="2">
    <object id="1" x="0" y="0" width="16" height="16"/>
   </objectgroup>
  </tile>
  <tile id="1726">
   <objectgroup draworder="index" id="2">
    <object id="1" x="0" y="0" width="16" height="16"/>
   </objectgroup>
  </tile>
  <tile id="1727">
   <objectgroup draworder="index" id="2">
    <object id="1" x="0" y="0" width="5" height="9"/>
   </objectgroup>
  </tile>
  <tile id="1728">
   <objectgroup draworder="index" id="2">
    <object id="1" x="0" y="0" width="16" height="16"/>
   </objectgroup>
  </tile>
  <tile id="1729">
   <objectgroup draworder="index" id="2">
    <object id="1" x="0" y="0" width="16" height="16"/>
   </objectgroup>
  </tile>
  <tile id="1730">
   <objectgroup draworder="index" id="2">
    <object id="1" x="0" y="0" width="16" height="16"/>
   </objectgroup>
  </tile>
  <tile id="1771">
   <objectgroup draworder="index" id="2">
    <object id="1" x="0" y="0" width="16" height="16"/>
   </objectgroup>
  </tile>
  <tile id="1810">
   <objectgroup draworder="index" id="2">
    <object id="1" x="0" y="0" width="16" height="16"/>
   </objectgroup>
  </tile>
  <tile id="1811">
   <objectgroup draworder="index" id="2">
    <object id="1" x="0" y="0" width="16" height="16"/>
   </objectgroup>
  </tile>
 </tileset>
 <tileset firstgid="2068" name="tilemap_all_ship" tilewidth="16" tileheight="16" tilecount="2067" columns="39">
  <image source="../Tilesets/tilemap_all_ship.png" width="624" height="848"/>
  <tile id="154">
   <objectgroup draworder="index" id="2">
    <object id="1" x="0" y="2" width="16" height="7"/>
   </objectgroup>
  </tile>
  <tile id="196">
   <objectgroup draworder="index" id="2">
    <object id="1" x="9" y="0" width="7" height="16"/>
   </objectgroup>
  </tile>
  <tile id="197">
   <objectgroup draworder="index" id="2">
    <object id="1" x="0" y="0" width="16" height="16"/>
   </objectgroup>
  </tile>
  <tile id="198">
   <objectgroup draworder="index" id="2">
    <object id="1" x="0" y="0" width="7" height="16"/>
   </objectgroup>
  </tile>
  <tile id="199">
   <objectgroup draworder="index" id="2">
    <object id="1" x="9" y="0" width="7" height="16"/>
   </objectgroup>
  </tile>
  <tile id="200">
   <objectgroup draworder="index" id="2">
    <object id="1" x="0" y="0" width="16" height="16"/>
   </objectgroup>
  </tile>
  <tile id="201">
   <objectgroup draworder="index" id="2">
    <object id="1" x="0" y="0" width="16" height="16"/>
   </objectgroup>
  </tile>
  <tile id="202">
   <objectgroup draworder="index" id="2">
    <object id="1" x="0" y="0" width="7" height="16"/>
   </objectgroup>
  </tile>
  <tile id="203">
   <objectgroup draworder="index" id="2">
    <object id="1" x="12" y="0" width="4" height="16"/>
   </objectgroup>
  </tile>
  <tile id="204">
   <objectgroup draworder="index" id="2">
    <object id="1" x="0" y="0" width="16" height="16"/>
   </objectgroup>
  </tile>
  <tile id="205">
   <objectgroup draworder="index" id="2">
    <object id="1" x="0" y="0" width="4" height="16"/>
   </objectgroup>
  </tile>
  <tile id="206">
   <objectgroup draworder="index" id="2">
    <object id="1" x="12" y="0" width="4" height="16"/>
   </objectgroup>
  </tile>
  <tile id="207">
   <objectgroup draworder="index" id="2">
    <object id="1" x="0" y="0" width="16" height="16"/>
   </objectgroup>
  </tile>
  <tile id="208">
   <objectgroup draworder="index" id="2">
    <object id="1" x="0" y="0" width="16" height="16"/>
   </objectgroup>
  </tile>
  <tile id="209">
   <objectgroup draworder="index" id="2">
    <object id="1" x="0" y="0" width="4" height="16"/>
   </objectgroup>
  </tile>
  <tile id="563">
   <objectgroup draworder="index" id="2">
    <object id="1" x="0" y="7.98217" width="16" height="8.01783"/>
   </objectgroup>
  </tile>
  <tile id="564">
   <objectgroup draworder="index" id="2">
    <object id="1" x="0" y="7.95149" width="16" height="8.04851"/>
   </objectgroup>
  </tile>
  <tile id="565">
   <objectgroup draworder="index" id="2">
    <object id="1" x="0" y="7.93318" width="16" height="8.06682"/>
   </objectgroup>
  </tile>
  <tile id="566">
   <objectgroup draworder="index" id="2">
    <object id="1" x="0" y="8.0742" width="16" height="7.9258"/>
   </objectgroup>
  </tile>
  <tile id="567">
   <objectgroup draworder="index" id="2">
    <object id="1" x="0" y="7.95149" width="16" height="8.04851"/>
   </objectgroup>
  </tile>
  <tile id="605">
   <objectgroup draworder="index" id="2">
    <object id="1" x="0" y="8" width="13" height="8"/>
   </objectgroup>
  </tile>
  <tile id="606">
   <objectgroup draworder="index" id="2">
    <object id="1" x="3" y="8" width="13" height="8"/>
   </objectgroup>
  </tile>
  <tile id="641">
   <objectgroup draworder="index" id="2">
    <object id="1" x="0" y="0" width="13" height="16"/>
   </objectgroup>
  </tile>
  <tile id="642">
   <objectgroup draworder="index" id="2">
    <object id="1" x="3" y="0" width="13" height="16"/>
    <object id="2" x="3" y="0" width="13" height="16"/>
   </objectgroup>
  </tile>
  <tile id="644">
   <objectgroup draworder="index" id="2">
    <object id="1" x="0" y="0" width="16" height="16"/>
   </objectgroup>
  </tile>
  <tile id="645">
   <objectgroup draworder="index" id="2">
    <object id="1" x="0" y="0" width="16" height="16"/>
    <object id="2" x="0" y="0" width="16" height="16"/>
   </objectgroup>
  </tile>
  <tile id="664">
   <objectgroup draworder="index" id="2">
    <object id="1" x="11" y="0" width="5" height="9"/>
    <object id="2" x="11" y="0" width="5" height="9"/>
   </objectgroup>
  </tile>
  <tile id="665">
   <objectgroup draworder="index" id="2">
    <object id="4" x="0" y="0" width="16" height="16"/>
    <object id="5" x="0" y="0" width="16" height="16"/>
   </objectgroup>
  </tile>
  <tile id="666">
   <objectgroup draworder="index" id="2">
    <object id="1" x="0" y="0" width="16" height="16"/>
    <object id="2" x="0" y="0" width="16" height="16"/>
   </objectgroup>
  </tile>
  <tile id="667">
   <objectgroup draworder="index" id="2">
    <object id="1" x="0" y="0" width="16" height="16"/>
    <object id="2" x="0" y="0" width="16" height="16"/>
   </objectgroup>
  </tile>
  <tile id="668">
   <objectgroup draworder="index" id="2">
    <object id="1" x="0" y="0" width="16" height="16"/>
    <object id="2" x="0" y="0" width="16" height="16"/>
   </objectgroup>
  </tile>
  <tile id="669">
   <objectgroup draworder="index" id="2">
    <object id="1" x="0" y="0" width="16" height="16"/>
    <object id="2" x="0" y="0" width="16" height="16"/>
   </objectgroup>
  </tile>
  <tile id="670">
   <objectgroup draworder="index" id="2">
    <object id="1" x="0" y="0" width="16" height="16"/>
    <object id="2" x="0" y="0" width="16" height="16"/>
   </objectgroup>
  </tile>
  <tile id="672">
   <objectgroup draworder="index" id="2">
    <object id="1" x="0" y="0" width="16" height="16"/>
    <object id="2" x="0" y="0" width="16" height="16"/>
   </objectgroup>
  </tile>
  <tile id="673">
   <objectgroup draworder="index" id="2">
    <object id="1" x="0" y="0" width="16" height="16"/>
    <object id="2" x="0" y="0" width="16" height="16"/>
   </objectgroup>
  </tile>
  <tile id="674">
   <objectgroup draworder="index" id="2">
    <object id="1" x="0" y="0" width="16" height="16"/>
    <object id="2" x="0" y="0" width="16" height="16"/>
   </objectgroup>
  </tile>
  <tile id="676">
   <objectgroup draworder="index" id="2">
    <object id="1" x="0" y="0" width="16" height="16"/>
    <object id="2" x="0" y="0" width="16" height="16"/>
   </objectgroup>
  </tile>
  <tile id="677">
   <objectgroup draworder="index" id="2">
    <object id="1" x="0" y="0" width="16" height="16"/>
    <object id="2" x="0" y="0" width="16" height="16"/>
   </objectgroup>
  </tile>
  <tile id="678">
   <objectgroup draworder="index" id="2">
    <object id="1" x="0" y="0" width="16" height="16"/>
    <object id="2" x="0" y="0" width="16" height="16"/>
   </objectgroup>
  </tile>
  <tile id="679">
   <objectgroup draworder="index" id="2">
    <object id="1" x="0" y="0" width="5" height="9"/>
    <object id="2" x="0" y="0" width="5" height="9"/>
   </objectgroup>
  </tile>
  <tile id="680">
   <objectgroup draworder="index" id="2">
    <object id="1" x="0" y="0" width="16" height="16"/>
   </objectgroup>
  </tile>
  <tile id="681">
   <objectgroup draworder="index" id="2">
    <object id="1" x="0" y="0" width="16" height="16"/>
    <object id="2" x="0" y="0" width="16" height="16"/>
   </objectgroup>
  </tile>
  <tile id="684">
   <objectgroup draworder="index" id="2">
    <object id="1" x="0" y="0" width="16" height="16"/>
   </objectgroup>
  </tile>
  <tile id="685">
   <objectgroup draworder="index" id="2">
    <object id="1" x="11" y="0" width="5" height="9"/>
   </objectgroup>
  </tile>
  <tile id="686">
   <objectgroup draworder="index" id="2">
    <object id="1" x="0" y="0" width="16" height="16"/>
   </objectgroup>
  </tile>
  <tile id="687">
   <objectgroup draworder="index" id="2">
    <object id="1" x="0" y="0" width="16" height="16"/>
    <object id="2" x="0" y="0" width="16" height="16"/>
   </objectgroup>
  </tile>
  <tile id="688">
   <objectgroup draworder="index" id="2">
    <object id="1" x="0" y="0" width="16" height="16"/>
    <object id="2" x="0" y="0" width="16" height="16"/>
   </objectgroup>
  </tile>
  <tile id="689">
   <objectgroup draworder="index" id="2">
    <object id="1" x="0" y="0" width="16" height="16"/>
    <object id="2" x="0" y="0" width="16" height="16"/>
    <object id="3" x="0" y="0" width="16" height="16"/>
   </objectgroup>
  </tile>
  <tile id="690">
   <objectgroup draworder="index" id="2">
    <object id="1" x="0" y="0" width="16" height="16"/>
    <object id="2" x="0" y="0" width="16" height="16"/>
   </objectgroup>
  </tile>
  <tile id="691">
   <objectgroup draworder="index" id="2">
    <object id="1" x="0" y="0" width="16" height="16"/>
   </objectgroup>
  </tile>
  <tile id="693">
   <objectgroup draworder="index" id="2">
    <object id="1" x="0" y="0" width="16" height="16"/>
   </objectgroup>
  </tile>
  <tile id="694">
   <objectgroup draworder="index" id="2">
    <object id="1" x="0" y="0" width="16" height="16"/>
   </objectgroup>
  </tile>
  <tile id="695">
   <objectgroup draworder="index" id="2">
    <object id="1" x="0" y="0" width="16" height="16"/>
   </objectgroup>
  </tile>
  <tile id="697">
   <objectgroup draworder="index" id="2">
    <object id="1" x="0" y="0" width="16" height="16"/>
   </objectgroup>
  </tile>
  <tile id="698">
   <objectgroup draworder="index" id="2">
    <object id="1" x="0" y="0" width="16" height="16"/>
   </objectgroup>
  </tile>
  <tile id="699">
   <objectgroup draworder="index" id="2">
    <object id="1" x="0" y="0" width="16" height="16"/>
   </objectgroup>
  </tile>
  <tile id="700">
   <objectgroup draworder="index" id="2">
    <object id="1" x="0" y="0" width="5" height="9"/>
   </objectgroup>
  </tile>
  <tile id="704">
   <objectgroup draworder="index" id="2">
    <object id="1" x="4" y="0" width="12" height="16"/>
   </objectgroup>
  </tile>
  <tile id="743">
   <objectgroup draworder="index" id="2">
    <object id="1" x="12" y="0" width="4" height="7"/>
   </objectgroup>
  </tile>
  <tile id="744">
   <objectgroup draworder="index" id="2">
    <object id="1" x="0" y="0" width="16" height="16"/>
   </objectgroup>
  </tile>
  <tile id="758">
   <objectgroup draworder="index" id="2">
    <object id="8" x="0" y="16">
     <polygon points="0,0 16,0 16.0078,-6 5,-16 0,-16"/>
    </object>
   </objectgroup>
  </tile>
  <tile id="759">
   <objectgroup draworder="index" id="2">
    <object id="1" x="0" y="11" width="5" height="5"/>
   </objectgroup>
  </tile>
  <tile id="764">
   <objectgroup draworder="index" id="2">
    <object id="1" x="12" y="0" width="4" height="7"/>
   </objectgroup>
  </tile>
  <tile id="765">
   <objectgroup draworder="index" id="2">
    <object id="1" x="0" y="0" width="16" height="16"/>
   </objectgroup>
  </tile>
  <tile id="797">
   <objectgroup draworder="index" id="2">
    <object id="1" x="0" y="0" width="16" height="16"/>
   </objectgroup>
  </tile>
  <tile id="798">
   <objectgroup draworder="index" id="2">
    <object id="1" x="0" y="0" width="16" height="16"/>
   </objectgroup>
  </tile>
  <tile id="799">
   <objectgroup draworder="index" id="2">
    <object id="1" x="0" y="8" width="16" height="8"/>
   </objectgroup>
  </tile>
  <tile id="822">
   <objectgroup draworder="index" id="2">
    <object id="1" x="4" y="0" width="12" height="16"/>
   </objectgroup>
  </tile>
  <tile id="843">
   <objectgroup draworder="index" id="2">
    <object id="1" x="4" y="0" width="12" height="16"/>
   </objectgroup>
  </tile>
  <tile id="861">
   <objectgroup draworder="index" id="2">
    <object id="1" x="12" y="0" width="4" height="7"/>
   </objectgroup>
  </tile>
  <tile id="862">
   <objectgroup draworder="index" id="2">
    <object id="1" x="0" y="0" width="16" height="16"/>
   </objectgroup>
  </tile>
  <tile id="882">
   <objectgroup draworder="index" id="2">
    <object id="1" x="12" y="0" width="4" height="7"/>
   </objectgroup>
  </tile>
  <tile id="883">
   <objectgroup draworder="index" id="2">
    <object id="1" x="0" y="0" width="16" height="16"/>
   </objectgroup>
  </tile>
  <tile id="901">
   <objectgroup draworder="index" id="2">
    <object id="1" x="4" y="0" width="12" height="16"/>
   </objectgroup>
  </tile>
  <tile id="916">
   <objectgroup draworder="index" id="2">
    <object id="1" x="0" y="8" width="16" height="8"/>
   </objectgroup>
  </tile>
  <tile id="917">
   <objectgroup draworder="index" id="2">
    <object id="1" x="0" y="8" width="16" height="8"/>
   </objectgroup>
  </tile>
  <tile id="922">
   <objectgroup draworder="index" id="2">
    <object id="1" x="4" y="0" width="12" height="16"/>
   </objectgroup>
  </tile>
  <tile id="1425">
   <objectgroup draworder="index" id="2">
    <object id="1" x="0" y="0" width="13" height="16"/>
   </objectgroup>
  </tile>
  <tile id="1426">
   <objectgroup draworder="index" id="2">
    <object id="1" x="3" y="0" width="13" height="16"/>
   </objectgroup>
  </tile>
  <tile id="1431">
   <objectgroup draworder="index" id="2">
    <object id="1" x="11" y="0" width="5" height="9"/>
   </objectgroup>
  </tile>
  <tile id="1432">
   <objectgroup draworder="index" id="2">
    <object id="1" x="0" y="0" width="16" height="16"/>
   </objectgroup>
  </tile>
  <tile id="1433">
   <objectgroup draworder="index" id="2">
    <object id="1" x="0" y="0" width="16" height="16"/>
    <object id="2" x="0" y="0" width="16" height="16"/>
   </objectgroup>
  </tile>
  <tile id="1434">
   <objectgroup draworder="index" id="2">
    <object id="1" x="0" y="0" width="16" height="16"/>
   </objectgroup>
  </tile>
  <tile id="1435">
   <objectgroup draworder="index" id="2">
    <object id="1" x="0" y="0" width="16" height="16"/>
   </objectgroup>
  </tile>
  <tile id="1436">
   <objectgroup draworder="index" id="2">
    <object id="1" x="0" y="0" width="16" height="16"/>
   </objectgroup>
  </tile>
  <tile id="1437">
   <objectgroup draworder="index" id="2">
    <object id="1" x="0" y="0" width="16" height="16"/>
   </objectgroup>
  </tile>
  <tile id="1438">
   <objectgroup draworder="index" id="2">
    <object id="1" x="0" y="0" width="16" height="16"/>
   </objectgroup>
  </tile>
  <tile id="1439">
   <objectgroup draworder="index" id="2">
    <object id="1" x="0" y="0" width="16" height="16"/>
   </objectgroup>
  </tile>
  <tile id="1440">
   <objectgroup draworder="index" id="2">
    <object id="1" x="0" y="0" width="16" height="16"/>
   </objectgroup>
  </tile>
  <tile id="1441">
   <objectgroup draworder="index" id="2">
    <object id="1" x="0" y="0" width="5" height="9"/>
   </objectgroup>
  </tile>
  <tile id="1464">
   <objectgroup draworder="index" id="2">
    <object id="1" x="0" y="0" width="16" height="16"/>
   </objectgroup>
  </tile>
  <tile id="1465">
   <objectgroup draworder="index" id="2">
    <object id="1" x="0" y="0" width="16" height="16"/>
   </objectgroup>
  </tile>
  <tile id="1496">
   <objectgroup draworder="index" id="2">
    <object id="1" x="2" y="0" width="14" height="16"/>
   </objectgroup>
  </tile>
  <tile id="1497">
   <objectgroup draworder="index" id="2">
    <object id="1" x="0" y="0" width="14" height="16"/>
   </objectgroup>
  </tile>
  <tile id="1503">
   <objectgroup draworder="index" id="2">
    <object id="1" x="0" y="8" width="13" height="8"/>
   </objectgroup>
  </tile>
  <tile id="1504">
   <objectgroup draworder="index" id="2">
    <object id="1" x="3" y="8" width="13" height="8"/>
   </objectgroup>
  </tile>
  <tile id="1535">
   <objectgroup draworder="index" id="2">
    <object id="1" x="0" y="0" width="16" height="16"/>
   </objectgroup>
  </tile>
  <tile id="1536">
   <objectgroup draworder="index" id="2">
    <object id="1" x="0" y="0" width="16" height="16"/>
   </objectgroup>
  </tile>
  <tile id="1542">
   <objectgroup draworder="index" id="2">
    <object id="1" x="0" y="0" width="16" height="16"/>
   </objectgroup>
  </tile>
  <tile id="1543">
   <objectgroup draworder="index" id="2">
    <object id="1" x="0" y="0" width="16" height="16"/>
   </objectgroup>
  </tile>
  <tile id="1574">
   <objectgroup draworder="index" id="2">
    <object id="1" x="6" y="13" width="10" height="3"/>
   </objectgroup>
  </tile>
  <tile id="1575">
   <objectgroup draworder="index" id="2">
    <object id="1" x="0" y="13" width="11" height="3"/>
   </objectgroup>
  </tile>
  <tile id="1613">
   <objectgroup draworder="index" id="2">
    <object id="1" x="2" y="0" width="14" height="16"/>
   </objectgroup>
  </tile>
  <tile id="1614">
   <objectgroup draworder="index" id="2">
    <object id="1" x="0" y="0" width="13" height="16"/>
   </objectgroup>
  </tile>
  <tile id="1659">
   <objectgroup draworder="index" id="2">
    <object id="1" x="0" y="0" width="16" height="16"/>
   </objectgroup>
  </tile>
  <tile id="1698">
   <objectgroup draworder="index" id="2">
    <object id="1" x="0" y="0" width="16" height="16"/>
   </objectgroup>
  </tile>
  <tile id="1699">
   <objectgroup draworder="index" id="2">
    <object id="1" x="0" y="0" width="16" height="16"/>
   </objectgroup>
  </tile>
  <tile id="1740">
   <objectgroup draworder="index" id="2">
    <object id="1" x="0" y="0" width="16" height="16"/>
   </objectgroup>
  </tile>
  <tile id="1741">
   <objectgroup draworder="index" id="2">
    <object id="1" x="0" y="0" width="16" height="16"/>
   </objectgroup>
  </tile>
  <tile id="1742">
   <objectgroup draworder="index" id="2">
    <object id="1" x="0" y="0" width="16" height="16"/>
   </objectgroup>
  </tile>
  <tile id="1743">
   <objectgroup draworder="index" id="2">
    <object id="1" x="11" y="0" width="5" height="9"/>
   </objectgroup>
  </tile>
  <tile id="1744">
   <objectgroup draworder="index" id="2">
    <object id="1" x="0" y="0" width="16" height="16"/>
   </objectgroup>
  </tile>
  <tile id="1745">
   <objectgroup draworder="index" id="2">
    <object id="1" x="0" y="0" width="16" height="16"/>
   </objectgroup>
  </tile>
  <tile id="1746">
   <objectgroup draworder="index" id="2">
    <object id="1" x="0" y="0" width="16" height="16"/>
   </objectgroup>
  </tile>
  <tile id="1747">
   <objectgroup draworder="index" id="2">
    <object id="1" x="0" y="0" width="16" height="16"/>
   </objectgroup>
  </tile>
  <tile id="1748">
   <objectgroup draworder="index" id="2">
    <object id="1" x="0" y="0" width="16" height="16"/>
   </objectgroup>
  </tile>
  <tile id="1749">
   <objectgroup draworder="index" id="2">
    <object id="1" x="0" y="0" width="16" height="16"/>
   </objectgroup>
  </tile>
  <tile id="1750">
   <objectgroup draworder="index" id="2">
    <object id="1" x="0" y="0" width="16" height="16"/>
   </objectgroup>
  </tile>
  <tile id="1751">
   <objectgroup draworder="index" id="2">
    <object id="1" x="0" y="0" width="16" height="16"/>
   </objectgroup>
  </tile>
  <tile id="1752">
   <objectgroup draworder="index" id="2">
    <object id="1" x="0" y="0" width="16" height="16"/>
   </objectgroup>
  </tile>
  <tile id="1753">
   <objectgroup draworder="index" id="2">
    <object id="1" x="0" y="0" width="5" height="9"/>
   </objectgroup>
  </tile>
  <tile id="1776">
   <objectgroup draworder="index" id="2">
    <object id="1" x="11" y="11" width="5" height="5"/>
   </objectgroup>
  </tile>
  <tile id="1777">
   <objectgroup draworder="index" id="2">
    <object id="1" x="0" y="0" width="16" height="16"/>
   </objectgroup>
  </tile>
  <tile id="1815">
   <objectgroup draworder="index" id="2">
    <object id="1" x="0" y="0" width="16" height="16"/>
   </objectgroup>
  </tile>
  <tile id="1816">
   <objectgroup draworder="index" id="2">
    <object id="1" x="0" y="0" width="16" height="16"/>
   </objectgroup>
  </tile>
  <tile id="1861">
   <objectgroup draworder="index" id="2">
    <object id="1" x="0" y="0" width="16" height="9"/>
   </objectgroup>
  </tile>
  <tile id="1932">
   <objectgroup draworder="index" id="2">
    <object id="1" x="0" y="0" width="16" height="16"/>
   </objectgroup>
  </tile>
  <tile id="1933">
   <objectgroup draworder="index" id="2">
    <object id="1" x="0" y="0" width="16" height="16"/>
   </objectgroup>
  </tile>
  <tile id="1964">
   <objectgroup draworder="index" id="2">
    <object id="1" x="0" y="0" width="16" height="16"/>
   </objectgroup>
  </tile>
  <tile id="1965">
   <objectgroup draworder="index" id="2">
    <object id="1" x="0" y="0" width="16" height="9"/>
   </objectgroup>
  </tile>
  <tile id="1966">
   <objectgroup draworder="index" id="2">
    <object id="1" x="0" y="0" width="16" height="15"/>
   </objectgroup>
  </tile>
  <tile id="1967">
   <objectgroup draworder="index" id="2">
    <object id="1" x="0" y="0" width="16" height="13"/>
   </objectgroup>
  </tile>
  <tile id="1968">
   <objectgroup draworder="index" id="2">
    <object id="1" x="0" y="0" width="16" height="9"/>
   </objectgroup>
  </tile>
  <tile id="1969">
   <objectgroup draworder="index" id="2">
    <object id="1" x="0" y="0" width="16" height="16"/>
   </objectgroup>
  </tile>
 </tileset>
 <tileset firstgid="4135" name="tilemap_all_bay" tilewidth="16" tileheight="16" tilecount="2067" columns="39">
  <image source="../Tilesets/tilemap_all_bay.png" width="624" height="848"/>
  <tile id="45">
   <objectgroup draworder="index" id="2">
    <object id="1" x="7" y="0" width="9" height="7"/>
   </objectgroup>
  </tile>
  <tile id="46">
   <objectgroup draworder="index" id="2">
    <object id="1" x="0" y="0" width="16" height="7"/>
   </objectgroup>
  </tile>
  <tile id="47">
   <objectgroup draworder="index" id="2">
    <object id="1" x="0" y="0" width="16" height="7"/>
   </objectgroup>
  </tile>
  <tile id="48">
   <objectgroup draworder="index" id="2">
    <object id="1" x="0" y="0" width="16" height="7"/>
   </objectgroup>
  </tile>
  <tile id="49">
   <objectgroup draworder="index" id="2">
    <object id="1" x="0" y="0" width="16" height="7"/>
   </objectgroup>
  </tile>
  <tile id="50">
   <objectgroup draworder="index" id="2">
    <object id="1" x="0" y="0" width="8" height="7"/>
   </objectgroup>
  </tile>
  <tile id="84">
   <objectgroup draworder="index" id="2">
    <object id="1" x="0" y="0" width="16" height="7"/>
   </objectgroup>
  </tile>
  <tile id="85">
   <objectgroup draworder="index" id="2">
    <object id="1" x="0" y="0" width="16" height="7"/>
   </objectgroup>
  </tile>
  <tile id="86">
   <objectgroup draworder="index" id="2">
    <object id="1" x="0" y="0" width="16" height="7"/>
   </objectgroup>
  </tile>
  <tile id="87">
   <objectgroup draworder="index" id="2">
    <object id="1" x="0" y="0" width="16" height="7"/>
   </objectgroup>
  </tile>
  <tile id="88">
   <objectgroup draworder="index" id="2">
    <object id="1" x="0" y="0" width="16" height="7"/>
   </objectgroup>
  </tile>
  <tile id="89">
   <objectgroup draworder="index" id="2">
    <object id="1" x="0" y="0" width="16" height="7"/>
   </objectgroup>
  </tile>
  <tile id="210">
   <objectgroup draworder="index" id="2">
    <object id="1" x="5" y="1.96338" width="11" height="14.0366"/>
   </objectgroup>
  </tile>
  <tile id="211">
   <objectgroup draworder="index" id="2">
    <object id="1" x="0" y="2.02473" width="16" height="13.9753"/>
   </objectgroup>
  </tile>
  <tile id="212">
   <objectgroup draworder="index" id="2">
    <object id="1" x="0" y="2.05541" width="16" height="13.9446"/>
   </objectgroup>
  </tile>
  <tile id="213">
   <objectgroup draworder="index" id="2">
    <object id="1" x="0" y="2.05541" width="16" height="11.9446"/>
   </objectgroup>
  </tile>
  <tile id="214">
   <objectgroup draworder="index" id="2">
    <object id="1" x="0" y="2" width="16" height="14"/>
   </objectgroup>
  </tile>
  <tile id="247">
   <objectgroup draworder="index" id="2">
    <object id="1" x="0" y="2" width="16" height="14"/>
   </objectgroup>
  </tile>
  <tile id="248">
   <objectgroup draworder="index" id="2">
    <object id="1" x="0" y="2" width="16" height="12"/>
   </objectgroup>
  </tile>
  <tile id="286">
   <objectgroup draworder="index" id="2">
    <object id="1" x="5" y="1.96338" width="11" height="14.0366"/>
   </objectgroup>
  </tile>
  <tile id="287">
   <objectgroup draworder="index" id="2">
    <object id="1" x="0" y="2.05541" width="16" height="13.9446"/>
   </objectgroup>
  </tile>
  <tile id="325">
   <objectgroup draworder="index" id="2">
    <object id="1" x="12" y="0" width="4" height="16"/>
   </objectgroup>
  </tile>
  <tile id="326">
   <objectgroup draworder="index" id="2">
    <object id="1" x="0" y="0" width="4" height="16"/>
   </objectgroup>
  </tile>
  <tile id="443">
   <objectgroup draworder="index" id="2">
    <object id="1" x="0" y="0" width="16" height="16"/>
   </objectgroup>
  </tile>
  <tile id="446">
   <objectgroup draworder="index" id="2">
    <object id="1" x="0" y="0" width="16" height="16"/>
   </objectgroup>
  </tile>
  <tile id="481">
   <objectgroup draworder="index" id="2">
    <object id="1" x="0" y="0" width="16" height="16"/>
   </objectgroup>
  </tile>
  <tile id="482">
   <objectgroup draworder="index" id="2">
    <object id="1" x="0" y="0" width="16" height="10"/>
   </objectgroup>
  </tile>
  <tile id="483">
   <objectgroup draworder="index" id="2">
    <object id="2" x="0" y="0" width="16" height="16"/>
   </objectgroup>
  </tile>
  <tile id="484">
   <objectgroup draworder="index" id="2">
    <object id="2" x="0" y="0" width="16" height="16"/>
   </objectgroup>
  </tile>
  <tile id="485">
   <objectgroup draworder="index" id="2">
    <object id="1" x="0" y="0" width="16" height="10"/>
   </objectgroup>
  </tile>
  <tile id="486">
   <objectgroup draworder="index" id="2">
    <object id="1" x="0" y="0" width="16" height="16"/>
   </objectgroup>
  </tile>
  <tile id="684">
   <objectgroup draworder="index" id="2">
    <object id="1" x="0" y="1" width="16" height="15"/>
   </objectgroup>
  </tile>
  <tile id="685">
   <objectgroup draworder="index" id="2">
    <object id="1" x="0" y="1" width="16" height="15"/>
   </objectgroup>
  </tile>
  <tile id="686">
   <objectgroup draworder="index" id="2">
    <object id="1" x="0" y="1" width="16" height="15"/>
   </objectgroup>
  </tile>
  <tile id="687">
   <objectgroup draworder="index" id="2">
    <object id="1" x="0" y="1" width="16" height="15"/>
   </objectgroup>
  </tile>
  <tile id="696">
   <objectgroup draworder="index" id="2">
    <object id="1" x="0" y="1" width="16" height="15"/>
   </objectgroup>
  </tile>
  <tile id="697">
   <objectgroup draworder="index" id="2">
    <object id="1" x="0" y="1" width="16" height="15"/>
   </objectgroup>
  </tile>
  <tile id="698">
   <objectgroup draworder="index" id="2">
    <object id="1" x="0" y="1" width="16" height="15"/>
   </objectgroup>
  </tile>
  <tile id="699">
   <objectgroup draworder="index" id="2">
    <object id="1" x="0" y="1" width="16" height="15"/>
   </objectgroup>
  </tile>
  <tile id="716">
   <objectgroup draworder="index" id="2">
    <object id="1" x="6" y="0" width="10" height="9"/>
   </objectgroup>
  </tile>
  <tile id="822">
   <objectgroup draworder="index" id="2">
    <object id="1" x="0" y="0" width="16" height="16"/>
   </objectgroup>
  </tile>
  <tile id="823">
   <objectgroup draworder="index" id="2">
    <object id="1" x="0" y="0" width="16" height="16"/>
   </objectgroup>
  </tile>
  <tile id="824">
   <objectgroup draworder="index" id="2">
    <object id="1" x="0" y="0" width="16" height="16"/>
   </objectgroup>
  </tile>
  <tile id="825">
   <objectgroup draworder="index" id="2">
    <object id="1" x="0" y="0" width="16" height="16"/>
   </objectgroup>
  </tile>
  <tile id="860">
   <objectgroup draworder="index" id="2">
    <object id="1" x="0" y="0" width="16" height="16"/>
   </objectgroup>
  </tile>
  <tile id="861">
   <objectgroup draworder="index" id="2">
    <object id="1" x="0" y="0" width="16" height="16"/>
   </objectgroup>
  </tile>
  <tile id="864">
   <objectgroup draworder="index" id="2">
    <object id="1" x="0" y="0" width="16" height="16"/>
   </objectgroup>
  </tile>
  <tile id="865">
   <objectgroup draworder="index" id="2">
    <object id="1" x="0" y="0" width="16" height="16"/>
   </objectgroup>
  </tile>
  <tile id="898">
   <objectgroup draworder="index" id="2">
    <object id="1" x="0" y="2.05541" width="16" height="13.9446"/>
   </objectgroup>
  </tile>
  <tile id="899">
   <objectgroup draworder="index" id="2">
    <object id="1" x="0" y="16">
     <polyline points="0,0 16,0 0,-16 0,0"/>
    </object>
   </objectgroup>
  </tile>
  <tile id="904">
   <objectgroup draworder="index" id="2">
    <object id="1" x="16" y="16">
     <polyline points="0,0 0,-16 -16,0 0,0"/>
    </object>
   </objectgroup>
  </tile>
  <tile id="905">
   <objectgroup draworder="index" id="2">
    <object id="1" x="0" y="1.96338" width="16" height="14.0366"/>
   </objectgroup>
  </tile>
  <tile id="937">
   <objectgroup draworder="index" id="2">
    <object id="1" x="1" y="0" width="15" height="16"/>
   </objectgroup>
  </tile>
  <tile id="938">
   <objectgroup draworder="index" id="2">
    <object id="1" x="0" y="0" width="16" height="16"/>
   </objectgroup>
  </tile>
  <tile id="939">
   <objectgroup draworder="index" id="2">
    <object id="1" x="0" y="1.9327" width="16" height="14.0673"/>
   </objectgroup>
  </tile>
  <tile id="940">
   <objectgroup draworder="index" id="2">
    <object id="1" x="0" y="2.02473" width="16" height="13.9753"/>
   </objectgroup>
  </tile>
  <tile id="941">
   <objectgroup draworder="index" id="2">
    <object id="1" x="0" y="1.9327" width="16" height="14.0673"/>
   </objectgroup>
  </tile>
  <tile id="942">
   <objectgroup draworder="index" id="2">
    <object id="1" x="0" y="1.9327" width="16" height="14.0673"/>
   </objectgroup>
  </tile>
  <tile id="943">
   <objectgroup draworder="index" id="2">
    <object id="1" x="0" y="0" width="16" height="16"/>
   </objectgroup>
  </tile>
  <tile id="944">
   <objectgroup draworder="index" id="2">
    <object id="1" x="0" y="0" width="16" height="16"/>
   </objectgroup>
  </tile>
  <tile id="976">
   <objectgroup draworder="index" id="2">
    <object id="1" x="0" y="0" width="16" height="16"/>
   </objectgroup>
  </tile>
  <tile id="983">
   <objectgroup draworder="index" id="2">
    <object id="1" x="0" y="0" width="16" height="16"/>
   </objectgroup>
  </tile>
  <tile id="1015">
   <objectgroup draworder="index" id="2">
    <object id="1" x="0" y="0" width="16" height="16"/>
   </objectgroup>
  </tile>
  <tile id="1022">
   <objectgroup draworder="index" id="2">
    <object id="1" x="0" y="0" width="15" height="16"/>
   </objectgroup>
  </tile>
  <tile id="1055">
   <objectgroup draworder="index" id="2">
    <object id="1" x="0" y="0" width="16" height="16"/>
   </objectgroup>
  </tile>
  <tile id="1056">
   <objectgroup draworder="index" id="2">
    <object id="1" x="0" y="0" width="16" height="16"/>
   </objectgroup>
  </tile>
  <tile id="1057">
   <objectgroup draworder="index" id="2">
    <object id="1" x="0" y="0" width="16" height="16"/>
   </objectgroup>
  </tile>
  <tile id="1058">
   <objectgroup draworder="index" id="2">
    <object id="1" x="0" y="0" width="16" height="16"/>
   </objectgroup>
  </tile>
  <tile id="1059">
   <objectgroup draworder="index" id="2">
    <object id="1" x="0" y="0" width="16" height="16"/>
   </objectgroup>
  </tile>
  <tile id="1060">
   <objectgroup draworder="index" id="2">
    <object id="1" x="0" y="0" width="16" height="16"/>
   </objectgroup>
  </tile>
  <tile id="1460">
   <objectgroup draworder="index" id="2">
    <object id="1" x="0" y="9" width="16" height="7"/>
   </objectgroup>
  </tile>
  <tile id="1461">
   <objectgroup draworder="index" id="2">
    <object id="1" x="0" y="8" width="16" height="8"/>
   </objectgroup>
  </tile>
  <tile id="1462">
   <objectgroup draworder="index" id="2">
    <object id="1" x="0" y="10" width="16" height="6"/>
   </objectgroup>
  </tile>
  <tile id="1499">
   <objectgroup draworder="index" id="2">
    <object id="1" x="0" y="0" width="16" height="9"/>
   </objectgroup>
  </tile>
  <tile id="1500">
   <objectgroup draworder="index" id="2">
    <object id="1" x="0" y="0" width="16" height="10"/>
    <object id="2" x="0" y="0" width="16" height="10"/>
   </objectgroup>
  </tile>
  <tile id="1501">
   <objectgroup draworder="index" id="2">
    <object id="1" x="0" y="0" width="16" height="8"/>
   </objectgroup>
  </tile>
  <tile id="1538">
   <objectgroup draworder="index" id="2">
    <object id="1" x="0" y="9" width="16" height="7"/>
   </objectgroup>
  </tile>
  <tile id="1539">
   <objectgroup draworder="index" id="2">
    <object id="1" x="0" y="8" width="16" height="8"/>
   </objectgroup>
  </tile>
  <tile id="1540">
   <objectgroup draworder="index" id="2">
    <object id="1" x="0" y="10" width="16" height="6"/>
   </objectgroup>
  </tile>
  <tile id="1548">
   <objectgroup draworder="index" id="2">
    <object id="1" x="0" y="0" width="16" height="16"/>
   </objectgroup>
  </tile>
  <tile id="1549">
   <objectgroup draworder="index" id="2">
    <object id="1" x="0" y="0" width="16" height="16"/>
   </objectgroup>
  </tile>
  <tile id="1550">
   <objectgroup draworder="index" id="2">
    <object id="1" x="0" y="0" width="16" height="16"/>
   </objectgroup>
  </tile>
  <tile id="1552">
   <objectgroup draworder="index" id="2">
    <object id="1" x="0" y="0" width="16" height="16"/>
   </objectgroup>
  </tile>
  <tile id="1553">
   <objectgroup draworder="index" id="2">
    <object id="1" x="0" y="0" width="16" height="16"/>
   </objectgroup>
  </tile>
  <tile id="1554">
   <objectgroup draworder="index" id="2">
    <object id="1" x="0" y="0" width="16" height="16"/>
   </objectgroup>
  </tile>
  <tile id="1577">
   <objectgroup draworder="index" id="2">
    <object id="1" x="0" y="0" width="16" height="16"/>
   </objectgroup>
  </tile>
  <tile id="1578">
   <objectgroup draworder="index" id="2">
    <object id="1" x="0" y="0" width="16" height="16"/>
   </objectgroup>
  </tile>
  <tile id="1579">
   <objectgroup draworder="index" id="2">
    <object id="1" x="0" y="0" width="16" height="8"/>
   </objectgroup>
  </tile>
  <tile id="1627">
   <objectgroup draworder="index" id="2">
    <object id="1" x="4" y="0" width="12" height="16"/>
   </objectgroup>
  </tile>
  <tile id="1628">
   <objectgroup draworder="index" id="2">
    <object id="1" x="0" y="0" width="16" height="16"/>
   </objectgroup>
  </tile>
  <tile id="1629">
   <objectgroup draworder="index" id="2">
    <object id="1" x="0" y="0" width="16" height="8"/>
   </objectgroup>
  </tile>
  <tile id="1630">
   <objectgroup draworder="index" id="2">
    <object id="1" x="0" y="0" width="16" height="8"/>
   </objectgroup>
  </tile>
  <tile id="1631">
   <objectgroup draworder="index" id="2">
    <object id="1" x="0" y="0" width="16" height="16"/>
   </objectgroup>
  </tile>
  <tile id="1632">
   <objectgroup draworder="index" id="2">
    <object id="1" x="0" y="0" width="12" height="16"/>
   </objectgroup>
  </tile>
  <tile id="1656">
   <objectgroup draworder="index" id="2">
    <object id="1" x="0" y="0" width="16" height="16"/>
   </objectgroup>
  </tile>
  <tile id="1657">
   <objectgroup draworder="index" id="2">
    <object id="1" x="0" y="0" width="9" height="16"/>
   </objectgroup>
  </tile>
  <tile id="1695">
   <objectgroup draworder="index" id="2">
    <object id="1" x="0" y="0" width="16" height="16"/>
   </objectgroup>
  </tile>
  <tile id="1696">
   <objectgroup draworder="index" id="2">
    <object id="1" x="0" y="0" width="9" height="16"/>
   </objectgroup>
  </tile>
  <tile id="1808">
   <objectgroup draworder="index" id="2">
    <object id="1" x="0" y="0" width="16" height="16"/>
   </objectgroup>
  </tile>
  <tile id="1809">
   <objectgroup draworder="index" id="2">
    <object id="1" x="0" y="0" width="16" height="16"/>
   </objectgroup>
  </tile>
  <tile id="1810">
   <objectgroup draworder="index" id="2">
    <object id="1" x="0" y="0" width="16" height="16"/>
   </objectgroup>
  </tile>
  <tile id="1811">
   <objectgroup draworder="index" id="2">
    <object id="1" x="0" y="0" width="16" height="16"/>
   </objectgroup>
  </tile>
  <tile id="1812">
   <objectgroup draworder="index" id="2">
    <object id="1" x="0" y="0" width="16" height="16"/>
   </objectgroup>
  </tile>
  <tile id="1813">
   <objectgroup draworder="index" id="2">
    <object id="1" x="0" y="0" width="16" height="16"/>
   </objectgroup>
  </tile>
  <tile id="1926">
   <objectgroup draworder="index" id="2">
    <object id="1" x="0" y="0" width="16" height="16"/>
   </objectgroup>
  </tile>
  <tile id="1927">
   <objectgroup draworder="index" id="2">
    <object id="1" x="0" y="0" width="16" height="13"/>
   </objectgroup>
  </tile>
  <tile id="1928">
   <objectgroup draworder="index" id="2">
    <object id="1" x="0" y="0" width="16" height="13"/>
   </objectgroup>
  </tile>
  <tile id="1929">
   <objectgroup draworder="index" id="2">
    <object id="1" x="0" y="0" width="16" height="13"/>
   </objectgroup>
  </tile>
  <tile id="1930">
   <objectgroup draworder="index" id="2">
    <object id="1" x="0" y="0" width="14" height="16"/>
   </objectgroup>
  </tile>
  <tile id="1932">
   <objectgroup draworder="index" id="2">
    <object id="1" x="0" y="0" width="16" height="16"/>
   </objectgroup>
  </tile>
  <tile id="1933">
   <objectgroup draworder="index" id="2">
    <object id="1" x="0" y="0" width="16" height="12"/>
   </objectgroup>
  </tile>
  <tile id="1934">
   <objectgroup draworder="index" id="2">
    <object id="1" x="0" y="0" width="16" height="12"/>
   </objectgroup>
  </tile>
  <tile id="1935">
   <objectgroup draworder="index" id="2">
    <object id="1" x="0" y="0" width="16" height="12"/>
   </objectgroup>
  </tile>
  <tile id="1936">
   <objectgroup draworder="index" id="2">
    <object id="1" x="0" y="0" width="16" height="12"/>
   </objectgroup>
  </tile>
  <tile id="1937">
   <objectgroup draworder="index" id="2">
    <object id="1" x="0" y="0" width="16" height="12"/>
   </objectgroup>
  </tile>
  <tile id="1938">
   <objectgroup draworder="index" id="2">
    <object id="1" x="0" y="0" width="16" height="12"/>
   </objectgroup>
  </tile>
  <tile id="1939">
   <objectgroup draworder="index" id="2">
    <object id="1" x="0" y="0" width="16" height="16"/>
   </objectgroup>
  </tile>
 </tileset>
 <layer id="5" name="FarBackground" width="30" height="20">
  <data encoding="csv">
   <chunk x="0" y="-16" width="16" height="16">
0,0,0,0,0,0,0,0,0,0,0,0,0,0,0,0,
0,0,0,0,0,0,0,0,0,0,0,0,0,0,0,0,
0,0,0,0,0,0,0,2109,0,0,0,0,0,0,0,0,
0,0,0,0,0,0,0,2116,2117,2118,0,0,0,0,0,0,
0,0,0,0,0,0,0,2187,0,0,0,0,0,0,0,0,
0,0,0,0,0,0,0,2226,0,0,0,0,0,0,0,0,
0,0,0,0,0,0,0,2343,0,0,0,0,0,0,0,0,
0,0,0,0,0,0,0,2311,0,0,0,0,0,0,0,0,
0,0,0,0,0,0,0,2304,0,0,0,0,0,0,0,0,
0,0,0,0,0,0,0,2421,0,0,0,0,0,0,0,0,
0,0,0,0,0,0,0,2460,0,0,0,0,0,0,0,0,
0,0,0,0,0,0,0,2499,0,0,0,0,0,0,0,0,
0,0,0,0,0,0,0,0,0,0,0,0,0,0,0,0,
0,0,0,0,0,0,0,0,0,0,0,0,0,0,0,0,
0,0,0,0,0,0,0,0,0,0,0,0,0,0,0,0,
0,0,0,0,0,0,0,0,0,0,0,0,0,0,0,0
</chunk>
   <chunk x="16" y="-16" width="16" height="16">
0,0,0,0,0,0,0,0,0,0,0,0,0,0,0,0,
0,0,0,0,0,0,0,0,0,0,0,0,0,0,0,0,
0,0,0,0,0,0,0,0,0,0,0,0,0,0,0,0,
0,0,0,0,0,0,0,0,0,0,0,0,0,0,0,0,
0,0,0,0,0,0,0,0,0,0,0,0,0,0,0,0,
0,0,0,0,0,0,0,0,0,0,0,0,0,0,0,0,
2314,2315,0,0,0,0,0,0,0,0,0,0,0,0,0,0,
2307,2308,0,0,0,0,0,0,0,0,0,0,0,0,0,0,
2346,2347,0,0,0,0,0,0,0,0,0,0,0,0,0,0,
2307,2308,0,0,0,0,0,0,0,0,0,0,0,0,0,0,
2307,2308,0,0,0,0,0,0,0,0,0,0,0,0,0,0,
2424,2425,0,0,0,0,0,0,0,0,0,0,0,0,0,0,
2463,2464,0,0,0,0,0,0,0,0,0,0,0,0,0,0,
2502,2503,0,0,0,0,0,0,0,0,0,0,0,0,0,0,
0,0,0,0,0,0,0,0,0,0,0,0,0,0,0,0,
0,0,0,0,0,0,0,0,0,0,0,0,0,0,0,0
</chunk>
   <chunk x="48" y="-16" width="16" height="16">
0,0,0,0,0,0,0,0,0,0,0,0,0,0,0,0,
0,0,0,0,0,0,0,0,0,0,0,0,0,0,0,0,
0,0,0,0,0,0,0,0,0,0,0,0,0,0,0,0,
0,0,0,0,0,0,0,0,0,0,0,0,0,0,0,0,
0,0,0,0,0,0,0,0,0,0,0,0,0,0,0,0,
0,0,0,0,0,0,0,0,0,0,0,0,0,0,0,0,
0,0,271,0,0,0,0,0,0,0,0,0,0,0,0,0,
0,0,271,0,0,0,0,0,0,0,0,0,0,0,0,0,
0,0,271,0,0,0,0,0,0,0,0,0,0,0,0,0,
0,0,271,0,0,0,0,0,0,0,0,0,0,0,0,0,
0,0,271,0,0,0,0,0,0,0,0,0,0,0,0,0,
0,0,381,0,0,0,0,0,0,0,0,0,0,0,0,0,
0,419,420,421,0,0,0,0,0,0,0,0,0,0,0,0,
0,458,459,460,0,0,0,0,0,0,0,0,0,0,0,0,
0,0,0,0,0,0,0,0,0,0,0,0,0,0,0,0,
0,0,0,0,0,0,0,0,0,0,0,0,0,0,0,0
</chunk>
  </data>
 </layer>
 <layer id="6" name="BackgroundClose" width="30" height="20">
  <data encoding="csv">
   <chunk x="0" y="-16" width="16" height="16">
0,0,0,0,0,0,0,0,0,0,0,0,0,0,0,0,
0,0,0,0,0,0,0,0,0,0,0,0,0,0,0,0,
0,0,0,0,0,0,0,0,0,0,0,0,0,0,0,0,
0,0,0,0,0,0,0,0,0,0,0,0,0,0,0,0,
0,0,0,0,0,0,0,0,0,0,0,0,0,0,0,0,
0,0,0,0,0,0,0,0,0,0,0,0,0,0,0,0,
0,0,0,0,0,0,0,0,0,0,0,0,0,0,0,0,
0,0,0,0,0,0,0,0,0,0,0,0,0,0,0,0,
0,0,0,2218,2177,2178,2179,2180,2181,2182,2183,2220,0,0,0,0,
0,0,0,0,0,0,0,0,0,0,0,0,0,0,0,0,
0,0,0,0,0,0,0,0,0,0,0,0,0,0,0,0,
0,0,0,0,0,0,0,0,0,0,0,0,0,0,0,0,
0,0,0,0,0,0,0,0,0,0,0,0,0,0,0,0,
0,0,0,0,0,0,0,0,0,0,0,0,0,0,0,0,
0,0,0,0,0,0,0,0,0,0,0,0,0,0,0,0,
0,0,0,0,0,0,0,0,0,0,0,0,0,0,0,0
</chunk>
   <chunk x="16" y="-16" width="16" height="16">
0,0,0,0,0,0,0,0,0,0,0,0,0,0,0,0,
0,0,0,0,0,0,0,0,0,0,0,0,0,0,0,0,
0,0,0,0,0,0,0,0,0,0,0,0,0,0,0,0,
0,0,0,0,0,0,0,0,0,0,0,0,0,0,0,0,
0,0,0,0,0,0,0,0,0,0,0,0,0,0,0,0,
0,0,0,0,0,0,0,0,0,0,0,0,0,0,0,0,
0,0,0,0,0,0,0,0,0,0,0,0,0,0,0,0,
0,0,0,0,0,0,0,0,0,0,0,0,0,0,0,0,
0,0,0,0,0,0,0,0,0,0,0,0,0,0,0,0,
0,0,0,0,0,0,0,0,1028,1029,1030,1031,1032,1033,1034,1035,
0,0,0,0,0,0,0,0,3139,1068,1069,1070,1071,1072,1073,3185,
0,0,0,0,0,0,0,0,3139,1107,1108,1109,1110,1111,1112,3185,
0,0,0,0,0,0,0,0,3139,1107,1108,1109,1110,1111,1107,3185,
0,0,0,0,0,0,0,0,0,0,0,0,0,0,0,0,
0,0,0,0,0,0,0,0,0,0,0,0,0,0,0,0,
0,0,0,0,0,0,0,0,0,0,0,0,0,0,0,0
</chunk>
   <chunk x="32" y="-16" width="16" height="16">
0,0,0,0,0,0,0,0,0,0,0,0,0,0,0,0,
0,0,0,0,0,0,0,0,0,0,0,0,0,0,0,0,
0,0,0,0,0,0,0,0,0,0,0,0,0,0,0,0,
0,0,0,0,0,0,0,0,0,0,0,0,0,0,0,0,
0,0,0,0,0,0,0,0,0,0,0,0,0,0,0,0,
0,0,0,0,0,0,0,0,0,0,0,0,0,0,119,237,
0,0,0,0,0,0,0,0,0,0,0,0,0,0,0,276,
0,0,0,0,0,0,0,0,0,0,0,0,0,0,0,315,
0,0,0,0,0,0,0,0,0,0,0,0,0,0,0,354,
0,0,0,0,0,0,0,0,0,0,0,0,0,0,0,393,
0,0,0,0,0,0,0,0,0,0,0,0,0,0,0,432,
0,0,0,0,0,0,0,0,0,0,0,0,0,0,0,0,
0,0,0,0,0,0,0,0,0,0,0,0,0,0,0,0,
0,0,0,0,0,0,0,0,0,0,0,0,0,0,0,0,
0,0,0,0,0,0,0,0,0,0,0,0,0,0,0,0,
0,0,0,0,0,0,0,0,0,0,0,0,0,0,0,0
</chunk>
   <chunk x="48" y="-16" width="16" height="16">
0,0,0,0,0,0,0,0,0,0,0,0,0,0,0,0,
0,0,0,0,0,0,0,0,0,0,0,0,0,0,0,0,
0,0,0,0,0,0,0,0,0,0,0,0,0,0,0,0,
0,0,0,0,0,0,0,0,0,0,0,0,0,0,0,0,
0,0,0,0,0,0,0,0,0,0,0,0,0,0,0,0,
238,238,239,238,238,238,125,0,0,0,0,0,0,0,0,0,
277,277,278,277,277,277,281,0,0,0,0,0,0,0,0,0,
316,316,317,316,316,316,320,0,0,0,0,0,0,0,0,0,
355,355,356,355,355,355,359,0,0,0,0,0,0,0,0,0,
394,394,395,394,394,394,398,0,0,0,0,0,0,0,0,0,
433,433,434,433,433,433,437,0,0,0,0,0,0,0,0,0,
0,0,0,0,0,0,0,0,0,0,0,0,0,0,0,0,
0,0,0,0,0,0,0,0,0,0,0,0,0,0,0,0,
0,0,0,0,0,0,0,0,0,0,0,0,0,0,0,0,
0,0,0,0,0,0,0,0,0,0,0,0,0,0,0,0,
0,0,0,0,0,0,0,0,0,0,0,0,0,0,0,0
</chunk>
  </data>
 </layer>
 <layer id="4" name="2WalkArea" width="30" height="20">
  <data encoding="csv">
   <chunk x="-16" y="-16" width="16" height="16">
0,0,0,0,0,0,0,0,0,0,0,0,0,0,0,0,
0,0,0,0,0,0,0,0,0,0,0,0,0,0,0,0,
0,0,0,0,0,0,0,0,0,0,0,0,0,0,0,0,
0,0,0,0,0,0,0,0,0,0,0,0,0,0,0,0,
0,0,0,0,0,0,0,0,0,0,0,0,0,0,0,0,
0,0,0,0,0,0,0,0,0,0,0,0,0,0,0,0,
0,0,0,0,0,0,0,0,0,0,0,0,0,0,0,0,
0,0,0,0,0,0,0,0,0,0,0,0,0,0,0,0,
0,0,0,0,0,0,0,0,0,0,0,0,0,0,0,0,
0,0,0,0,0,0,0,0,0,0,0,0,0,0,0,0,
0,0,0,0,0,0,0,0,0,0,0,0,0,0,0,0,
0,0,0,0,0,0,0,0,0,0,0,0,0,0,0,0,
0,0,0,0,0,0,0,0,0,0,0,0,0,0,0,3811,
0,0,0,0,0,0,0,0,0,0,0,0,0,0,0,0,
0,0,0,0,0,0,0,0,0,0,0,0,0,0,0,0,
0,0,0,0,0,0,0,0,0,0,0,0,0,0,0,0
</chunk>
   <chunk x="0" y="-16" width="16" height="16">
0,0,0,0,0,0,0,0,0,0,0,0,0,0,0,0,
0,0,0,0,0,0,0,0,0,0,0,0,0,0,0,0,
0,0,0,0,0,0,0,0,0,0,0,0,0,0,0,0,
0,0,0,0,0,0,0,0,0,0,0,0,0,0,0,0,
0,0,0,0,0,0,0,0,0,0,0,0,0,0,0,0,
0,0,0,0,0,0,0,0,0,0,0,0,0,0,0,0,
0,0,0,0,0,0,0,0,0,0,0,0,0,0,0,0,
0,0,0,0,0,0,0,0,0,0,0,0,0,0,0,0,
0,0,0,0,0,0,0,0,0,0,0,0,0,0,0,0,
0,0,0,0,0,0,0,0,0,0,0,0,0,0,0,0,
0,0,0,0,0,0,0,0,0,0,0,0,0,0,0,0,
0,0,0,0,0,0,0,0,0,0,0,0,0,0,0,0,
3812,3501,3501,3501,3501,3501,3501,3501,3501,3501,3501,3727,3728,0,0,0,
3851,3852,3932,3932,3932,3932,3932,3932,3932,3932,3932,3766,3767,2867,2867,2867,
3890,3891,3935,3932,3932,3932,3932,3932,3932,3932,3932,3932,3932,3932,3932,3932,
0,3851,3852,3932,3932,3932,3932,3932,3932,3932,3932,3932,3932,3932,3932,3932
</chunk>
   <chunk x="16" y="-16" width="16" height="16">
0,0,0,0,0,0,0,0,0,0,0,0,0,0,0,0,
0,0,0,0,0,0,0,0,0,0,0,0,0,0,0,0,
0,0,0,0,0,0,0,0,0,0,0,0,0,0,0,0,
0,0,0,0,0,0,0,0,0,0,0,0,0,0,0,0,
0,0,0,0,0,0,0,0,0,0,0,0,0,0,0,0,
0,0,0,0,0,0,0,0,0,0,0,0,0,0,0,0,
0,0,0,0,0,0,0,0,0,0,0,0,0,0,0,0,
0,0,0,0,0,0,0,0,0,0,0,0,0,0,0,0,
0,0,0,0,0,0,0,0,0,0,0,0,0,0,0,0,
0,0,0,0,0,0,0,0,0,0,0,0,0,0,0,0,
0,0,0,0,0,0,0,0,0,0,0,0,0,0,0,0,
0,0,0,0,0,0,0,0,0,0,0,0,0,0,0,0,
0,0,0,0,0,3572,2985,2985,2985,2985,2985,2631,2632,2632,2633,2632,
2867,2867,2867,2867,2867,3611,3932,3932,3932,3932,3932,3932,3932,3932,3932,3935,
3932,3932,3932,3932,3932,3932,3932,3932,3932,3932,3932,3932,3932,3932,3932,3935,
3932,3932,3932,3932,3932,3932,3932,3932,3932,3932,3932,3932,3932,3932,3932,3935
</chunk>
   <chunk x="32" y="-16" width="16" height="16">
0,0,0,0,0,0,0,0,0,0,0,0,0,0,0,0,
0,0,0,0,0,0,0,0,0,0,0,0,0,0,0,0,
0,0,0,0,0,0,0,0,0,0,0,0,0,0,0,0,
0,0,0,0,0,0,0,0,0,0,0,0,0,0,0,0,
0,0,0,0,0,0,0,0,0,0,0,0,0,0,0,0,
0,0,0,0,0,0,0,0,0,0,0,0,0,0,0,0,
0,0,0,0,0,0,0,0,0,0,0,0,0,0,0,0,
0,0,0,0,0,0,0,0,0,0,0,0,0,0,0,0,
0,0,0,0,0,0,0,0,0,0,0,0,0,0,0,0,
0,0,0,0,0,0,0,0,0,0,0,0,0,0,0,0,
0,0,0,0,0,0,0,0,0,0,0,0,0,0,0,0,
0,0,0,0,0,0,0,0,0,0,0,0,0,0,0,0,
2635,2673,0,0,0,0,0,0,0,0,0,0,0,0,0,0,
3859,0,0,0,0,0,1718,1719,1720,1720,1720,1720,1720,1720,1421,0,
3859,0,0,0,0,0,1757,1758,1838,1838,1838,1838,1838,1838,1460,1723,
3859,0,0,0,0,0,1757,1758,1838,1838,1838,1838,1838,1838,1838,1838
</chunk>
   <chunk x="48" y="-16" width="16" height="16">
0,0,0,0,0,0,0,0,0,0,0,0,0,0,0,0,
0,0,0,0,0,0,0,0,0,0,0,0,0,0,0,0,
0,0,0,0,0,0,0,0,0,0,0,0,0,0,0,0,
0,0,0,0,0,0,0,0,0,0,0,0,0,0,0,0,
0,0,0,0,0,0,0,0,0,0,0,0,0,0,0,0,
0,0,0,0,0,0,0,0,0,0,0,0,0,0,0,0,
0,0,0,0,0,0,0,0,0,0,0,0,0,0,0,0,
0,0,0,0,0,0,0,0,0,0,0,0,0,0,0,0,
0,0,0,0,0,0,0,0,0,0,0,0,0,0,0,0,
0,0,0,0,0,0,0,0,0,0,0,0,0,0,0,0,
0,0,0,0,0,0,0,0,0,0,0,0,0,0,0,0,
0,0,0,0,0,0,0,0,0,0,0,0,0,0,0,0,
0,0,0,0,0,0,0,0,0,0,0,0,0,0,0,0,
0,0,0,0,0,0,0,0,0,0,0,0,0,0,0,0,
1723,1723,1723,1720,1726,1726,1726,1726,1726,1726,1727,1728,0,0,0,0,
1838,1838,1838,1838,1838,1838,1838,1838,1838,1765,1766,1767,0,0,0,0
</chunk>
   <chunk x="0" y="0" width="16" height="16">
0,3890,3891,3932,3932,3932,3932,3932,3932,3932,3932,3932,3932,3932,3932,3932,
0,0,3930,3931,3932,3932,3932,3932,3932,3932,3932,3932,3932,3932,3932,3932,
0,0,3969,3970,3971,3972,3932,3932,3932,3932,3932,3932,3932,3932,3932,3932,
0,0,4008,4009,4010,4011,3932,3932,3932,3932,3932,3932,3932,3932,3932,3932,
0,0,4047,4048,4049,4050,4051,4052,4053,4053,4053,4053,4053,4053,4053,4053,
0,0,0,0,0,0,0,0,0,0,0,0,0,0,0,0,
0,0,0,0,0,0,0,0,0,0,0,0,0,0,0,0,
0,0,0,0,0,0,0,0,0,0,0,0,0,0,0,0,
0,0,0,0,0,0,0,0,0,0,0,0,0,0,0,0,
0,0,0,0,0,0,0,0,0,0,0,0,0,0,0,0,
0,0,0,0,0,0,0,0,0,0,0,0,0,0,0,0,
0,0,0,0,0,0,0,0,0,0,0,0,0,0,0,0,
0,0,0,0,0,0,0,0,0,0,0,0,0,0,0,0,
0,0,0,0,0,0,0,0,0,0,0,0,0,0,0,0,
0,0,0,0,0,0,0,0,0,0,0,0,0,0,0,0,
0,0,0,0,0,0,0,0,0,0,0,0,0,0,0,0
</chunk>
   <chunk x="16" y="0" width="16" height="16">
3932,3932,3932,3932,3932,3932,3932,3932,3932,3932,3932,3932,3932,3932,3932,3935,
3932,3932,3932,3932,3932,3932,3932,3932,3932,3932,3932,3932,3932,3932,3932,3935,
3932,3932,3932,3932,3932,3932,3932,3932,3932,3932,3932,3932,3932,3932,3932,3935,
3932,3932,3932,3932,3932,3932,3932,3932,3932,3932,3932,3932,3932,3932,3932,3935,
4053,4053,4053,4053,4053,4053,4053,4053,4053,4053,4053,4053,4053,4053,4053,4053,
0,0,0,0,0,0,0,0,0,0,0,0,0,0,0,0,
0,0,0,0,0,0,0,0,0,0,0,0,0,0,0,0,
0,0,0,0,0,0,0,0,0,0,0,0,0,0,0,0,
0,0,0,0,0,0,0,0,0,0,0,0,0,0,0,0,
0,0,0,0,0,0,0,0,0,0,0,0,0,0,0,0,
0,0,0,0,0,0,0,0,0,0,0,0,0,0,0,0,
0,0,0,0,0,0,0,0,0,0,0,0,0,0,0,0,
0,0,0,0,0,0,0,0,0,0,0,0,0,0,0,0,
0,0,0,0,0,0,0,0,0,0,0,0,0,0,0,0,
0,0,0,0,0,0,0,0,0,0,0,0,0,0,0,0,
0,0,0,0,0,0,0,0,0,0,0,0,0,0,0,0
</chunk>
   <chunk x="32" y="0" width="16" height="16">
3859,2903,0,0,0,0,0,1836,1838,1838,1838,1838,1838,1838,1838,1838,
3859,3938,0,0,0,0,1874,1875,1838,1838,1838,1838,1838,1838,1838,1838,
3976,3977,0,0,0,0,1913,1914,1838,1838,1838,1838,1838,1838,1838,1838,
4015,4016,0,0,0,0,1952,1953,1954,1954,1954,1954,1954,1954,1954,1954,
4054,4055,0,0,0,0,0,0,0,0,0,0,0,0,0,0,
0,0,0,0,0,0,0,0,0,0,0,0,0,0,0,0,
0,0,0,0,0,0,0,0,0,0,0,0,0,0,0,0,
0,0,0,0,0,0,0,0,0,0,0,0,0,0,0,0,
0,0,0,0,0,0,0,0,0,0,0,0,0,0,0,0,
0,0,0,0,0,0,0,0,0,0,0,0,0,0,0,0,
0,0,0,0,0,0,0,0,0,0,0,0,0,0,0,0,
0,0,0,0,0,0,0,0,0,0,0,0,0,0,0,0,
0,0,0,0,0,0,0,0,0,0,0,0,0,0,0,0,
0,0,0,0,0,0,0,0,0,0,0,0,0,0,0,0,
0,0,0,0,0,0,0,0,0,0,0,0,0,0,0,0,
0,0,0,0,0,0,0,0,0,0,0,0,0,0,0,0
</chunk>
   <chunk x="48" y="0" width="16" height="16">
1838,1838,1838,1838,1838,1838,1838,1838,1838,1804,1805,0,0,0,0,0,
1838,1838,1838,1838,1838,1838,1838,1838,1765,1766,0,0,0,0,0,0,
1838,1838,1838,1838,1838,1838,1838,1919,1920,0,0,0,0,0,0,0,
1954,1954,1954,1954,1954,1956,1957,1958,1959,0,0,0,0,0,0,0,
0,0,0,0,0,0,0,0,0,0,0,0,0,0,0,0,
0,0,0,0,0,0,0,0,0,0,0,0,0,0,0,0,
0,0,0,0,0,0,0,0,0,0,0,0,0,0,0,0,
0,0,0,0,0,0,0,0,0,0,0,0,0,0,0,0,
0,0,0,0,0,0,0,0,0,0,0,0,0,0,0,0,
0,0,0,0,0,0,0,0,0,0,0,0,0,0,0,0,
0,0,0,0,0,0,0,0,0,0,0,0,0,0,0,0,
0,0,0,0,0,0,0,0,0,0,0,0,0,0,0,0,
0,0,0,0,0,0,0,0,0,0,0,0,0,0,0,0,
0,0,0,0,0,0,0,0,0,0,0,0,0,0,0,0,
0,0,0,0,0,0,0,0,0,0,0,0,0,0,0,0,
0,0,0,0,0,0,0,0,0,0,0,0,0,0,0,0
</chunk>
  </data>
 </layer>
 <layer id="7" name="ForegroundClose" width="30" height="20">
  <data encoding="csv">
   <chunk x="0" y="-16" width="16" height="16">
0,0,0,0,0,0,0,0,0,0,0,0,0,0,0,0,
0,0,0,0,0,0,0,0,0,0,0,0,0,0,0,0,
0,0,0,0,0,0,0,0,0,0,0,0,0,0,0,0,
0,0,0,0,0,0,0,0,0,0,0,0,0,0,0,0,
0,0,0,0,0,0,0,0,0,0,0,0,0,0,0,0,
0,0,0,0,0,0,0,0,0,0,0,0,0,0,0,0,
0,0,0,0,0,0,0,0,0,0,0,0,0,0,0,0,
0,0,0,0,0,0,0,0,0,0,0,0,0,0,0,0,
0,0,0,0,0,0,0,0,0,0,0,0,0,0,0,0,
0,0,0,0,0,0,0,0,0,0,0,0,0,0,0,0,
0,0,0,0,0,0,0,0,0,0,0,0,0,0,0,0,
0,0,0,0,0,0,0,0,0,0,0,0,0,0,0,0,
0,0,0,0,0,0,0,0,0,0,0,0,0,0,0,0,
0,0,0,0,0,0,0,0,0,0,0,0,0,0,0,0,
0,0,0,3093,3094,0,0,0,0,0,0,0,0,0,0,0,
0,0,0,3095,3096,0,0,0,0,0,0,0,0,0,0,0
</chunk>
   <chunk x="0" y="0" width="16" height="16">
0,0,0,3134,3135,0,0,0,0,0,0,0,0,0,0,0,
0,0,0,3173,3174,0,0,0,0,0,3241,0,0,3239,0,0,
0,0,0,0,0,0,0,0,0,0,0,0,0,0,0,0,
0,0,0,0,0,0,0,0,0,0,0,0,0,0,0,0,
0,0,0,0,0,0,0,0,0,0,0,0,0,0,0,0,
0,0,0,0,0,0,0,0,0,0,0,0,0,0,0,0,
0,0,0,0,0,0,0,0,0,0,0,0,0,0,0,0,
0,0,0,0,0,0,0,0,0,0,0,0,0,0,0,0,
0,0,0,0,0,0,0,0,0,0,0,0,0,0,0,0,
0,0,0,0,0,0,0,0,0,0,0,0,0,0,0,0,
0,0,0,0,0,0,0,0,0,0,0,0,0,0,0,0,
0,0,0,0,0,0,0,0,0,0,0,0,0,0,0,0,
0,0,0,0,0,0,0,0,0,0,0,0,0,0,0,0,
0,0,0,0,0,0,0,0,0,0,0,0,0,0,0,0,
0,0,0,0,0,0,0,0,0,0,0,0,0,0,0,0,
0,0,0,0,0,0,0,0,0,0,0,0,0,0,0,0
</chunk>
   <chunk x="16" y="0" width="16" height="16">
0,0,0,0,0,0,0,0,0,0,0,0,0,0,0,0,
3083,0,0,3083,0,0,3241,0,0,3241,0,0,3239,0,0,0,
0,0,0,0,0,0,0,0,0,0,0,0,0,0,0,0,
0,0,0,0,0,0,0,0,0,0,0,0,0,0,0,0,
0,0,0,0,0,0,0,0,0,0,0,0,0,0,0,0,
0,0,0,0,0,0,0,0,0,0,0,0,0,0,0,0,
0,0,0,0,0,0,0,0,0,0,0,0,0,0,0,0,
0,0,0,0,0,0,0,0,0,0,0,0,0,0,0,0,
0,0,0,0,0,0,0,0,0,0,0,0,0,0,0,0,
0,0,0,0,0,0,0,0,0,0,0,0,0,0,0,0,
0,0,0,0,0,0,0,0,0,0,0,0,0,0,0,0,
0,0,0,0,0,0,0,0,0,0,0,0,0,0,0,0,
0,0,0,0,0,0,0,0,0,0,0,0,0,0,0,0,
0,0,0,0,0,0,0,0,0,0,0,0,0,0,0,0,
0,0,0,0,0,0,0,0,0,0,0,0,0,0,0,0,
0,0,0,0,0,0,0,0,0,0,0,0,0,0,0,0
</chunk>
  </data>
 </layer>
 <layer id="8" name="ForegroundFar" width="30" height="20">
  <data encoding="csv">
   <chunk x="64" y="-16" width="16" height="16">
0,0,0,0,0,0,0,0,0,0,0,0,0,0,0,0,
0,0,0,0,0,0,0,0,0,0,0,0,0,0,0,0,
0,0,0,0,0,0,0,0,0,0,0,0,0,0,0,0,
0,0,0,0,0,0,0,0,0,0,0,0,0,0,0,0,
0,0,0,0,0,0,0,0,0,0,0,0,0,0,0,0,
0,0,0,0,0,0,0,0,0,0,0,0,0,0,0,0,
0,0,0,0,0,0,0,0,0,0,0,0,0,0,0,0,
0,0,0,0,0,0,0,0,0,0,0,0,0,0,0,0,
0,0,0,0,0,0,0,0,0,0,0,0,0,0,0,0,
0,0,0,0,0,0,0,0,0,0,0,0,0,0,0,0,
0,0,0,0,0,0,0,0,0,0,0,0,0,0,0,0,
0,0,0,0,0,0,0,0,0,0,0,0,0,0,0,0,
0,0,0,0,0,0,0,0,0,0,0,0,0,0,0,0,
4345,4346,4347,4383,4348,4349,0,0,0,0,0,0,0,0,0,0,
4384,4385,0,0,0,4388,0,0,0,0,0,0,0,0,0,0,
4423,4424,0,0,0,4425,0,0,0,0,0,0,0,0,0,0
</chunk>
   <chunk x="-16" y="0" width="16" height="16">
0,0,0,0,0,0,0,0,0,0,0,0,0,0,0,0,
0,0,0,0,0,0,0,0,0,0,0,0,0,0,0,4369,
0,0,0,0,0,0,0,0,0,0,0,0,0,0,0,0,
0,0,0,0,0,0,0,0,0,0,0,0,0,0,0,0,
0,0,0,0,0,0,0,0,0,0,0,0,0,0,0,0,
0,0,0,0,0,0,0,0,0,0,0,0,0,0,0,0,
0,0,0,0,0,0,0,0,0,0,0,0,0,0,0,0,
0,0,0,0,0,0,0,0,0,0,0,0,0,0,0,0,
0,0,0,0,0,0,0,0,0,0,0,0,0,0,0,0,
0,0,0,0,0,0,0,0,0,0,0,0,0,0,0,0,
0,0,0,0,0,0,0,0,0,0,0,0,0,0,0,0,
0,0,0,0,0,0,0,0,0,0,0,0,0,0,0,0,
0,0,0,0,0,0,0,0,0,0,0,0,0,0,0,0,
0,0,0,0,0,0,0,0,0,0,0,0,0,0,0,0,
0,0,0,0,0,0,0,0,0,0,0,0,0,0,0,0,
0,0,0,0,0,0,0,0,0,0,0,0,0,0,0,0
</chunk>
   <chunk x="0" y="0" width="16" height="16">
4292,0,0,0,0,4292,0,0,0,0,4292,0,0,0,0,0,
4370,4372,4372,4372,4372,4371,4372,4372,4372,4372,4371,0,0,0,0,4292,
4292,0,0,0,0,4292,0,0,0,0,4292,0,0,0,0,4371,
4370,4372,4372,4372,4372,4371,4372,4372,4372,4372,4371,0,0,0,0,4292,
4292,0,0,0,0,4292,0,0,0,0,4292,0,0,0,0,4371,
4292,0,0,0,0,4292,0,0,0,0,4292,0,0,0,0,4292,
0,0,0,0,0,0,0,0,0,0,0,0,0,0,0,0,
0,0,0,0,0,0,0,0,0,0,0,0,0,0,0,0,
0,0,0,0,0,0,0,0,0,0,0,0,0,0,0,0,
0,0,0,0,0,0,0,0,0,0,0,0,0,0,0,0,
0,0,0,0,0,0,0,0,0,0,0,0,0,0,0,0,
0,0,0,0,0,0,0,0,0,0,0,0,0,0,0,0,
0,0,0,0,0,0,0,0,0,0,0,0,0,0,0,0,
0,0,0,0,0,0,0,0,0,0,0,0,0,0,0,0,
0,0,0,0,0,0,0,0,0,0,0,0,0,0,0,0,
0,0,0,0,0,0,0,0,0,0,0,0,0,0,0,0
</chunk>
   <chunk x="16" y="0" width="16" height="16">
0,0,0,0,0,0,0,0,0,0,0,0,0,0,0,0,
0,0,0,0,4292,0,0,0,0,4292,0,0,0,0,4292,0,
4372,4372,4372,4372,4371,0,0,0,0,4371,4372,4372,4372,4372,4371,4372,
0,0,0,0,4292,0,0,0,0,4292,0,0,0,0,4292,0,
4372,4372,4372,4372,4371,0,0,0,0,4371,4372,4372,4372,4372,4371,4372,
0,0,0,0,4292,0,0,0,0,4292,0,0,0,0,4292,0,
0,0,0,0,0,0,0,0,0,0,0,0,0,0,0,0,
0,0,0,0,0,0,0,0,0,0,0,0,0,0,0,0,
0,0,0,0,0,0,0,0,0,0,0,0,0,0,0,0,
0,0,0,0,0,0,0,0,0,0,0,0,0,0,0,0,
0,0,0,0,0,0,0,0,0,0,0,0,0,0,0,0,
0,0,0,0,0,0,0,0,0,0,0,0,0,0,0,0,
0,0,0,0,0,0,0,0,0,0,0,0,0,0,0,0,
0,0,0,0,0,0,0,0,0,0,0,0,0,0,0,0,
0,0,0,0,0,0,0,0,0,0,0,0,0,0,0,0,
0,0,0,0,0,0,0,0,0,0,0,0,0,0,0,0
</chunk>
   <chunk x="32" y="0" width="16" height="16">
0,0,0,0,0,0,0,0,0,0,0,0,0,0,0,0,
0,0,0,4292,0,0,0,0,0,0,0,0,0,0,0,0,
4372,4372,4372,4371,0,0,0,0,4292,0,0,0,0,4292,0,0,
0,0,0,4292,0,0,0,0,4371,0,0,0,0,4370,0,0,
4372,4372,4372,4371,0,0,0,0,4292,0,0,0,0,4292,0,0,
0,0,0,4292,0,0,0,0,4371,0,0,0,0,4370,0,0,
0,0,0,0,0,0,0,0,4292,0,0,0,0,4292,0,0,
0,0,0,0,0,0,0,0,0,0,0,0,0,0,0,0,
0,0,0,0,0,0,0,0,0,0,0,0,0,0,0,0,
0,0,0,0,0,0,0,0,0,0,0,0,0,0,0,0,
0,0,0,0,0,0,0,0,0,0,0,0,0,0,0,0,
0,0,0,0,0,0,0,0,0,0,0,0,0,0,0,0,
0,0,0,0,0,0,0,0,0,0,0,0,0,0,0,0,
0,0,0,0,0,0,0,0,0,0,0,0,0,0,0,0,
0,0,0,0,0,0,0,0,0,0,0,0,0,0,0,0,
0,0,0,0,0,0,0,0,0,0,0,0,0,0,0,0
</chunk>
   <chunk x="48" y="0" width="16" height="16">
0,0,0,0,0,0,0,0,0,0,0,0,0,0,0,0,
0,0,0,0,0,0,0,0,0,0,0,0,0,0,4499,4500,
0,0,4292,0,0,0,0,4292,0,0,0,0,4292,0,0,0,
0,0,4371,4372,4372,4372,4372,4371,4372,4372,4372,4372,4371,4372,4372,4372,
0,0,4292,0,0,0,0,4292,0,0,0,0,4292,0,0,0,
0,0,4371,4372,4372,4372,4372,4371,4372,4372,4372,4372,4371,4372,4372,4372,
0,0,4292,0,0,0,0,4292,0,0,0,0,4292,0,0,0,
0,0,0,0,0,0,0,0,0,0,0,0,0,0,0,0,
0,0,0,0,0,0,0,0,0,0,0,0,0,0,0,0,
0,0,0,0,0,0,0,0,0,0,0,0,0,0,0,0,
0,0,0,0,0,0,0,0,0,0,0,0,0,0,0,0,
0,0,0,0,0,0,0,0,0,0,0,0,0,0,0,0,
0,0,0,0,0,0,0,0,0,0,0,0,0,0,0,0,
0,0,0,0,0,0,0,0,0,0,0,0,0,0,0,0,
0,0,0,0,0,0,0,0,0,0,0,0,0,0,0,0,
0,0,0,0,0,0,0,0,0,0,0,0,0,0,0,0
</chunk>
   <chunk x="64" y="0" width="16" height="16">
4462,4463,0,0,0,0,0,0,0,0,0,0,0,0,0,0,
4501,4502,4503,4504,0,0,0,0,0,0,0,0,0,0,0,0,
0,4292,0,0,0,4292,0,0,0,0,0,0,0,0,0,0,
4372,4371,4372,4372,4372,4374,0,0,0,0,0,0,0,0,0,0,
0,4292,0,0,0,4292,0,0,0,0,0,0,0,0,0,0,
4372,4371,4372,4372,4372,4374,0,0,0,0,0,0,0,0,0,0,
0,4292,0,0,0,4292,0,0,0,0,0,0,0,0,0,0,
0,0,0,0,0,0,0,0,0,0,0,0,0,0,0,0,
0,0,0,0,0,0,0,0,0,0,0,0,0,0,0,0,
0,0,0,0,0,0,0,0,0,0,0,0,0,0,0,0,
0,0,0,0,0,0,0,0,0,0,0,0,0,0,0,0,
0,0,0,0,0,0,0,0,0,0,0,0,0,0,0,0,
0,0,0,0,0,0,0,0,0,0,0,0,0,0,0,0,
0,0,0,0,0,0,0,0,0,0,0,0,0,0,0,0,
0,0,0,0,0,0,0,0,0,0,0,0,0,0,0,0,
0,0,0,0,0,0,0,0,0,0,0,0,0,0,0,0
</chunk>
  </data>
 </layer>
 <layer id="1" name="Kachelebene 1" width="30" height="20">
  <data encoding="csv">
   <chunk x="0" y="0" width="16" height="16">
4219,4219,4219,4219,4219,4219,4219,4219,4219,4219,4219,4219,0,0,0,0,
0,0,0,0,0,0,0,0,0,0,0,0,0,0,4219,4219,
0,0,0,0,0,0,0,0,0,0,0,0,0,0,0,0,
0,0,0,0,0,0,0,0,0,0,0,0,0,0,0,0,
0,0,0,0,0,0,0,0,0,0,0,0,0,0,0,0,
0,0,0,0,0,0,0,0,0,0,0,0,0,0,0,0,
0,0,0,0,0,0,0,0,0,0,0,0,0,0,0,0,
0,0,0,0,0,0,0,0,0,0,0,0,0,0,0,0,
0,0,0,0,0,0,0,0,0,0,0,0,0,0,0,0,
0,0,0,0,0,0,0,0,0,0,0,0,0,0,0,0,
0,0,0,0,0,0,0,0,0,0,0,0,0,0,0,0,
0,0,0,0,0,0,0,0,0,0,0,0,0,0,0,0,
0,0,0,0,0,0,0,0,0,0,0,0,0,0,0,0,
0,0,0,0,0,0,0,0,0,0,0,0,0,0,0,0,
0,0,0,0,0,0,0,0,0,0,0,0,0,0,0,0,
0,0,0,0,0,0,0,0,0,0,0,0,0,0,0,0
</chunk>
   <chunk x="16" y="0" width="16" height="16">
0,0,0,0,0,0,0,0,0,0,0,0,0,0,0,0,
4219,4219,4219,4219,4219,0,0,0,0,4219,4219,4219,4219,4219,4219,4219,
0,0,0,0,0,0,0,0,0,0,0,0,0,0,0,0,
0,0,0,0,0,0,0,0,0,0,0,0,0,0,0,0,
0,0,0,0,0,0,0,0,0,0,0,0,0,0,0,0,
0,0,0,0,0,0,0,0,0,0,0,0,0,0,0,0,
0,0,0,0,0,0,0,0,0,0,0,0,0,0,0,0,
0,0,0,0,0,0,0,0,0,0,0,0,0,0,0,0,
0,0,0,0,0,0,0,0,0,0,0,0,0,0,0,0,
0,0,0,0,0,0,0,0,0,0,0,0,0,0,0,0,
0,0,0,0,0,0,0,0,0,0,0,0,0,0,0,0,
0,0,0,0,0,0,0,0,0,0,0,0,0,0,0,0,
0,0,0,0,0,0,0,0,0,0,0,0,0,0,0,0,
0,0,0,0,0,0,0,0,0,0,0,0,0,0,0,0,
0,0,0,0,0,0,0,0,0,0,0,0,0,0,0,0,
0,0,0,0,0,0,0,0,0,0,0,0,0,0,0,0
</chunk>
   <chunk x="32" y="0" width="16" height="16">
0,0,0,0,0,0,0,0,0,0,0,0,0,0,0,0,
4219,4219,4219,4219,0,0,0,0,0,0,0,0,0,0,0,0,
0,0,0,0,0,0,0,0,4219,4219,4219,4219,4219,4219,0,0,
0,0,0,0,0,0,0,0,0,0,0,0,0,0,0,0,
0,0,0,0,0,0,0,0,0,0,0,0,0,0,0,0,
0,0,0,0,0,0,0,0,0,0,0,0,0,0,0,0,
0,0,0,0,0,0,0,0,0,0,0,0,0,0,0,0,
0,0,0,0,0,0,0,0,0,0,0,0,0,0,0,0,
0,0,0,0,0,0,0,0,0,0,0,0,0,0,0,0,
0,0,0,0,0,0,0,0,0,0,0,0,0,0,0,0,
0,0,0,0,0,0,0,0,0,0,0,0,0,0,0,0,
0,0,0,0,0,0,0,0,0,0,0,0,0,0,0,0,
0,0,0,0,0,0,0,0,0,0,0,0,0,0,0,0,
0,0,0,0,0,0,0,0,0,0,0,0,0,0,0,0,
0,0,0,0,0,0,0,0,0,0,0,0,0,0,0,0,
0,0,0,0,0,0,0,0,0,0,0,0,0,0,0,0
</chunk>
   <chunk x="48" y="0" width="16" height="16">
0,0,0,0,0,0,0,0,0,0,0,0,0,0,0,0,
0,0,0,0,0,0,0,0,0,0,0,0,0,0,0,0,
0,0,4219,4219,4219,4219,4219,4219,4219,4219,4219,4219,4219,4219,4219,4219,
0,0,0,0,0,0,0,0,0,0,0,0,0,0,0,0,
0,0,0,0,0,0,0,0,0,0,0,0,0,0,0,0,
0,0,0,0,0,0,0,0,0,0,0,0,0,0,0,0,
0,0,0,0,0,0,0,0,0,0,0,0,0,0,0,0,
0,0,0,0,0,0,0,0,0,0,0,0,0,0,0,0,
0,0,0,0,0,0,0,0,0,0,0,0,0,0,0,0,
0,0,0,0,0,0,0,0,0,0,0,0,0,0,0,0,
0,0,0,0,0,0,0,0,0,0,0,0,0,0,0,0,
0,0,0,0,0,0,0,0,0,0,0,0,0,0,0,0,
0,0,0,0,0,0,0,0,0,0,0,0,0,0,0,0,
0,0,0,0,0,0,0,0,0,0,0,0,0,0,0,0,
0,0,0,0,0,0,0,0,0,0,0,0,0,0,0,0,
0,0,0,0,0,0,0,0,0,0,0,0,0,0,0,0
</chunk>
   <chunk x="64" y="0" width="16" height="16">
0,0,0,0,0,0,0,0,0,0,0,0,0,0,0,0,
0,0,0,0,0,0,0,0,0,0,0,0,0,0,0,0,
4219,4219,4219,4219,4219,4219,0,0,0,0,0,0,0,0,0,0,
0,0,0,0,0,0,0,0,0,0,0,0,0,0,0,0,
0,0,0,0,0,0,0,0,0,0,0,0,0,0,0,0,
0,0,0,0,0,0,0,0,0,0,0,0,0,0,0,0,
0,0,0,0,0,0,0,0,0,0,0,0,0,0,0,0,
0,0,0,0,0,0,0,0,0,0,0,0,0,0,0,0,
0,0,0,0,0,0,0,0,0,0,0,0,0,0,0,0,
0,0,0,0,0,0,0,0,0,0,0,0,0,0,0,0,
0,0,0,0,0,0,0,0,0,0,0,0,0,0,0,0,
0,0,0,0,0,0,0,0,0,0,0,0,0,0,0,0,
0,0,0,0,0,0,0,0,0,0,0,0,0,0,0,0,
0,0,0,0,0,0,0,0,0,0,0,0,0,0,0,0,
0,0,0,0,0,0,0,0,0,0,0,0,0,0,0,0,
0,0,0,0,0,0,0,0,0,0,0,0,0,0,0,0
</chunk>
  </data>
 </layer>
 <layer id="9" name="InfrontPlayer" width="30" height="20">
  <data encoding="csv">
   <chunk x="32" y="-16" width="16" height="16">
0,0,0,0,0,0,0,0,0,0,0,0,0,0,0,0,
0,0,0,0,0,0,0,0,0,0,0,0,0,0,0,0,
0,0,0,0,0,0,0,0,0,0,0,0,0,0,0,0,
0,0,0,0,0,0,0,0,0,0,0,0,0,0,0,0,
0,0,0,0,0,0,0,0,0,0,0,0,0,0,0,0,
0,0,0,0,0,0,0,0,0,0,0,0,0,0,0,0,
0,0,0,0,0,0,0,0,0,0,0,0,0,0,0,0,
0,0,0,0,0,0,0,0,0,0,0,0,0,0,0,0,
0,0,0,0,0,0,0,0,0,0,0,0,0,0,0,0,
0,0,0,0,0,0,0,0,0,0,0,0,0,0,0,0,
0,0,0,0,0,0,0,0,0,0,0,0,0,0,0,0,
0,0,0,0,0,0,0,0,0,0,0,0,0,0,0,0,
0,0,0,0,0,0,0,627,628,628,628,628,629,0,0,0,
0,0,0,0,0,0,0,0,0,0,0,0,0,0,0,0,
0,0,0,0,0,0,0,0,0,0,0,0,0,0,0,0,
0,0,0,0,0,0,0,0,0,0,0,0,0,0,0,0
</chunk>
  </data>
 </layer>
 <layer id="3" name="Player (Immer Layer 1)" width="30" height="20">
  <data encoding="csv"/>
 </layer>
 <layer id="2" name="Water" width="30" height="20" visible="0">
  <data encoding="csv">
   <chunk x="0" y="0" width="16" height="16">
0,0,0,0,0,0,0,0,0,0,0,0,0,0,0,0,
0,0,0,0,0,0,0,0,0,0,0,0,0,0,0,0,
5510,5510,5510,5510,5510,5510,5510,5510,5510,5510,5510,5510,5510,5510,5510,5510,
0,0,0,0,0,0,0,0,0,0,0,0,0,0,0,0,
0,0,0,0,0,0,0,0,0,0,0,0,0,0,0,0,
0,0,0,0,0,0,0,0,0,0,0,0,0,0,0,0,
0,0,0,0,0,0,0,0,0,0,0,0,0,0,0,0,
0,0,0,0,0,0,0,0,0,0,0,0,0,0,0,0,
0,0,0,0,0,0,0,0,0,0,0,0,0,0,0,0,
0,0,0,0,0,0,0,0,0,0,0,0,0,0,0,0,
0,0,0,0,0,0,0,0,0,0,0,0,0,0,0,0,
0,0,0,0,0,0,0,0,0,0,0,0,0,0,0,0,
0,0,0,0,0,0,0,0,0,0,0,0,0,0,0,0,
0,0,0,0,0,0,0,0,0,0,0,0,0,0,0,0,
0,0,0,0,0,0,0,0,0,0,0,0,0,0,0,0,
0,0,0,0,0,0,0,0,0,0,0,0,0,0,0,0
</chunk>
   <chunk x="16" y="0" width="16" height="16">
0,0,0,0,0,0,0,0,0,0,0,0,0,0,0,0,
0,0,0,0,0,0,0,0,0,0,0,0,0,0,0,0,
5510,5510,5510,5510,5510,5510,5510,5510,5510,5510,5510,5510,5510,5510,5510,5510,
0,0,0,0,0,0,0,0,0,0,0,0,0,0,0,0,
0,0,0,0,0,0,0,0,0,0,0,0,0,0,0,0,
0,0,0,0,0,0,0,0,0,0,0,0,0,0,0,0,
0,0,0,0,0,0,0,0,0,0,0,0,0,0,0,0,
0,0,0,0,0,0,0,0,0,0,0,0,0,0,0,0,
0,0,0,0,0,0,0,0,0,0,0,0,0,0,0,0,
0,0,0,0,0,0,0,0,0,0,0,0,0,0,0,0,
0,0,0,0,0,0,0,0,0,0,0,0,0,0,0,0,
0,0,0,0,0,0,0,0,0,0,0,0,0,0,0,0,
0,0,0,0,0,0,0,0,0,0,0,0,0,0,0,0,
0,0,0,0,0,0,0,0,0,0,0,0,0,0,0,0,
0,0,0,0,0,0,0,0,0,0,0,0,0,0,0,0,
0,0,0,0,0,0,0,0,0,0,0,0,0,0,0,0
</chunk>
   <chunk x="32" y="0" width="16" height="16">
0,0,0,0,0,0,0,0,0,0,0,0,0,0,0,0,
0,0,0,0,0,0,0,0,0,0,0,0,0,0,0,0,
5510,5510,5510,5510,5510,5510,5510,5510,5510,5510,5510,5510,5510,5510,5510,5510,
0,0,0,0,0,0,0,0,0,0,0,0,0,0,0,0,
0,0,0,0,0,0,0,0,0,0,0,0,0,0,0,0,
0,0,0,0,0,0,0,0,0,0,0,0,0,0,0,0,
0,0,0,0,0,0,0,0,0,0,0,0,0,0,0,0,
0,0,0,0,0,0,0,0,0,0,0,0,0,0,0,0,
0,0,0,0,0,0,0,0,0,0,0,0,0,0,0,0,
0,0,0,0,0,0,0,0,0,0,0,0,0,0,0,0,
0,0,0,0,0,0,0,0,0,0,0,0,0,0,0,0,
0,0,0,0,0,0,0,0,0,0,0,0,0,0,0,0,
0,0,0,0,0,0,0,0,0,0,0,0,0,0,0,0,
0,0,0,0,0,0,0,0,0,0,0,0,0,0,0,0,
0,0,0,0,0,0,0,0,0,0,0,0,0,0,0,0,
0,0,0,0,0,0,0,0,0,0,0,0,0,0,0,0
</chunk>
   <chunk x="48" y="0" width="16" height="16">
0,0,0,0,0,0,0,0,0,0,0,0,0,0,0,0,
0,0,0,0,0,0,0,0,0,0,0,0,0,0,0,0,
5510,5510,5510,5510,5510,5510,5510,5510,5510,5510,5510,5510,5510,5510,5510,5510,
0,0,0,0,0,0,0,0,0,0,0,0,0,0,0,0,
0,0,0,0,0,0,0,0,0,0,0,0,0,0,0,0,
0,0,0,0,0,0,0,0,0,0,0,0,0,0,0,0,
0,0,0,0,0,0,0,0,0,0,0,0,0,0,0,0,
0,0,0,0,0,0,0,0,0,0,0,0,0,0,0,0,
0,0,0,0,0,0,0,0,0,0,0,0,0,0,0,0,
0,0,0,0,0,0,0,0,0,0,0,0,0,0,0,0,
0,0,0,0,0,0,0,0,0,0,0,0,0,0,0,0,
0,0,0,0,0,0,0,0,0,0,0,0,0,0,0,0,
0,0,0,0,0,0,0,0,0,0,0,0,0,0,0,0,
0,0,0,0,0,0,0,0,0,0,0,0,0,0,0,0,
0,0,0,0,0,0,0,0,0,0,0,0,0,0,0,0,
0,0,0,0,0,0,0,0,0,0,0,0,0,0,0,0
</chunk>
   <chunk x="64" y="0" width="16" height="16">
0,0,0,0,0,0,0,0,0,0,0,0,0,0,0,0,
0,0,0,0,0,0,0,0,0,0,0,0,0,0,0,0,
5510,5510,5510,5510,5510,5510,5510,5510,5510,5510,5510,5510,5510,5510,5510,5510,
0,0,0,0,0,0,0,0,0,0,0,0,0,0,0,0,
0,0,0,0,0,0,0,0,0,0,0,0,0,0,0,0,
0,0,0,0,0,0,0,0,0,0,0,0,0,0,0,0,
0,0,0,0,0,0,0,0,0,0,0,0,0,0,0,0,
0,0,0,0,0,0,0,0,0,0,0,0,0,0,0,0,
0,0,0,0,0,0,0,0,0,0,0,0,0,0,0,0,
0,0,0,0,0,0,0,0,0,0,0,0,0,0,0,0,
0,0,0,0,0,0,0,0,0,0,0,0,0,0,0,0,
0,0,0,0,0,0,0,0,0,0,0,0,0,0,0,0,
0,0,0,0,0,0,0,0,0,0,0,0,0,0,0,0,
0,0,0,0,0,0,0,0,0,0,0,0,0,0,0,0,
0,0,0,0,0,0,0,0,0,0,0,0,0,0,0,0,
0,0,0,0,0,0,0,0,0,0,0,0,0,0,0,0
</chunk>
   <chunk x="80" y="0" width="16" height="16">
0,0,0,0,0,0,0,0,0,0,0,0,0,0,0,0,
0,0,0,0,0,0,0,0,0,0,0,0,0,0,0,0,
5510,5510,5510,5510,5510,5510,5510,5510,5510,5510,5510,5510,5510,5510,5510,5510,
0,0,0,0,0,0,0,0,0,0,0,0,0,0,0,0,
0,0,0,0,0,0,0,0,0,0,0,0,0,0,0,0,
0,0,0,0,0,0,0,0,0,0,0,0,0,0,0,0,
0,0,0,0,0,0,0,0,0,0,0,0,0,0,0,0,
0,0,0,0,0,0,0,0,0,0,0,0,0,0,0,0,
0,0,0,0,0,0,0,0,0,0,0,0,0,0,0,0,
0,0,0,0,0,0,0,0,0,0,0,0,0,0,0,0,
0,0,0,0,0,0,0,0,0,0,0,0,0,0,0,0,
0,0,0,0,0,0,0,0,0,0,0,0,0,0,0,0,
0,0,0,0,0,0,0,0,0,0,0,0,0,0,0,0,
0,0,0,0,0,0,0,0,0,0,0,0,0,0,0,0,
0,0,0,0,0,0,0,0,0,0,0,0,0,0,0,0,
0,0,0,0,0,0,0,0,0,0,0,0,0,0,0,0
</chunk>
   <chunk x="96" y="0" width="16" height="16">
0,0,0,0,0,0,0,0,0,0,0,0,0,0,0,0,
0,0,0,0,0,0,0,0,0,0,0,0,0,0,0,0,
5510,5510,5510,5510,5510,5510,5510,5510,5510,5510,5510,5510,5510,5510,5510,5510,
0,0,0,0,0,0,0,0,0,0,0,0,0,0,0,0,
0,0,0,0,0,0,0,0,0,0,0,0,0,0,0,0,
0,0,0,0,0,0,0,0,0,0,0,0,0,0,0,0,
0,0,0,0,0,0,0,0,0,0,0,0,0,0,0,0,
0,0,0,0,0,0,0,0,0,0,0,0,0,0,0,0,
0,0,0,0,0,0,0,0,0,0,0,0,0,0,0,0,
0,0,0,0,0,0,0,0,0,0,0,0,0,0,0,0,
0,0,0,0,0,0,0,0,0,0,0,0,0,0,0,0,
0,0,0,0,0,0,0,0,0,0,0,0,0,0,0,0,
0,0,0,0,0,0,0,0,0,0,0,0,0,0,0,0,
0,0,0,0,0,0,0,0,0,0,0,0,0,0,0,0,
0,0,0,0,0,0,0,0,0,0,0,0,0,0,0,0,
0,0,0,0,0,0,0,0,0,0,0,0,0,0,0,0
</chunk>
   <chunk x="112" y="0" width="16" height="16">
0,0,0,0,0,0,0,0,0,0,0,0,0,0,0,0,
0,0,0,0,0,0,0,0,0,0,0,0,0,0,0,0,
5510,5510,5510,5510,5510,5510,5510,5510,5510,5510,5510,5510,5510,5510,5510,5510,
0,0,0,0,0,0,0,0,0,0,0,0,0,0,0,0,
0,0,0,0,0,0,0,0,0,0,0,0,0,0,0,0,
0,0,0,0,0,0,0,0,0,0,0,0,0,0,0,0,
0,0,0,0,0,0,0,0,0,0,0,0,0,0,0,0,
0,0,0,0,0,0,0,0,0,0,0,0,0,0,0,0,
0,0,0,0,0,0,0,0,0,0,0,0,0,0,0,0,
0,0,0,0,0,0,0,0,0,0,0,0,0,0,0,0,
0,0,0,0,0,0,0,0,0,0,0,0,0,0,0,0,
0,0,0,0,0,0,0,0,0,0,0,0,0,0,0,0,
0,0,0,0,0,0,0,0,0,0,0,0,0,0,0,0,
0,0,0,0,0,0,0,0,0,0,0,0,0,0,0,0,
0,0,0,0,0,0,0,0,0,0,0,0,0,0,0,0,
0,0,0,0,0,0,0,0,0,0,0,0,0,0,0,0
</chunk>
  </data>
 </layer>
</map>
