<?xml version="1.0" encoding="UTF-8"?>
<map version="1.10" tiledversion="1.11.2" orientation="orthogonal" renderorder="right-down" width="30" height="20" tilewidth="16" tileheight="16" infinite="1" nextlayerid="6" nextobjectid="1">
 <tileset firstgid="1" name="tielmap_all_inverted" tilewidth="16" tileheight="16" tilecount="2067" columns="39">
  <image source="../Tilesets/tielmap_all_inverted.png" width="624" height="848"/>
  <tile id="40">
   <objectgroup draworder="index" id="2">
    <object id="1" x="0" y="2" width="16" height="14"/>
   </objectgroup>
  </tile>
  <tile id="41">
   <objectgroup draworder="index" id="2">
    <object id="1" x="0" y="2" width="16" height="14"/>
   </objectgroup>
  </tile>
  <tile id="42">
   <objectgroup draworder="index" id="2">
    <object id="1" x="0" y="2" width="16" height="14"/>
   </objectgroup>
  </tile>
  <tile id="43">
   <objectgroup draworder="index" id="2">
    <object id="1" x="0" y="2" width="16" height="7"/>
   </objectgroup>
  </tile>
  <tile id="44">
   <objectgroup draworder="index" id="2">
    <object id="1" x="0" y="2" width="16" height="14"/>
   </objectgroup>
  </tile>
  <tile id="45">
   <objectgroup draworder="index" id="2">
    <object id="1" x="0" y="2" width="16" height="14"/>
   </objectgroup>
  </tile>
  <tile id="46">
   <objectgroup draworder="index" id="2">
    <object id="1" x="0" y="2" width="16" height="14"/>
   </objectgroup>
  </tile>
  <tile id="79">
   <objectgroup draworder="index" id="2">
    <object id="1" x="0" y="1" width="16" height="14"/>
   </objectgroup>
  </tile>
  <tile id="80">
   <objectgroup draworder="index" id="2">
    <object id="1" x="0" y="1" width="16" height="14"/>
   </objectgroup>
  </tile>
  <tile id="81">
   <objectgroup draworder="index" id="2">
    <object id="1" x="0" y="1" width="16" height="14"/>
   </objectgroup>
  </tile>
  <tile id="82">
   <objectgroup draworder="index" id="2">
    <object id="1" x="0" y="2" width="16" height="14"/>
   </objectgroup>
  </tile>
  <tile id="83">
   <objectgroup draworder="index" id="2">
    <object id="1" x="0" y="1" width="16" height="14"/>
   </objectgroup>
  </tile>
  <tile id="84">
   <objectgroup draworder="index" id="2">
    <object id="1" x="0" y="1" width="16" height="14"/>
   </objectgroup>
  </tile>
  <tile id="85">
   <objectgroup draworder="index" id="2">
    <object id="1" x="0" y="1" width="16" height="14"/>
   </objectgroup>
  </tile>
  <tile id="118">
   <objectgroup draworder="index" id="2">
    <object id="1" x="0" y="2" width="16" height="7"/>
   </objectgroup>
  </tile>
  <tile id="120">
   <objectgroup draworder="index" id="2">
    <object id="1" x="0" y="1" width="16" height="9"/>
   </objectgroup>
  </tile>
  <tile id="121">
   <objectgroup draworder="index" id="2">
    <object id="1" x="0" y="1" width="16" height="8"/>
   </objectgroup>
  </tile>
  <tile id="122">
   <objectgroup draworder="index" id="2">
    <object id="1" x="0" y="1" width="16" height="9"/>
   </objectgroup>
  </tile>
  <tile id="124">
   <objectgroup draworder="index" id="2">
    <object id="1" x="0" y="2" width="16" height="7"/>
   </objectgroup>
  </tile>
  <tile id="219">
   <objectgroup draworder="index" id="2">
    <object id="1" x="12" y="0" width="4" height="16"/>
   </objectgroup>
  </tile>
  <tile id="220">
   <objectgroup draworder="index" id="2">
    <object id="1" x="0" y="0" width="16" height="16"/>
   </objectgroup>
  </tile>
  <tile id="221">
   <objectgroup draworder="index" id="2">
    <object id="1" x="0" y="0" width="16" height="16"/>
   </objectgroup>
  </tile>
  <tile id="222">
   <objectgroup draworder="index" id="2">
    <object id="1" x="0" y="0" width="4" height="16"/>
   </objectgroup>
  </tile>
  <tile id="223">
   <objectgroup draworder="index" id="2">
    <object id="1" x="12" y="0" width="4" height="16"/>
   </objectgroup>
  </tile>
  <tile id="224">
   <objectgroup draworder="index" id="2">
    <object id="1" x="0" y="0" width="16" height="16"/>
   </objectgroup>
  </tile>
  <tile id="225">
   <objectgroup draworder="index" id="2">
    <object id="1" x="0" y="0" width="4" height="16"/>
   </objectgroup>
  </tile>
  <tile id="226">
   <objectgroup draworder="index" id="2">
    <object id="1" x="9" y="0" width="7" height="16"/>
   </objectgroup>
  </tile>
  <tile id="227">
   <objectgroup draworder="index" id="2">
    <object id="1" x="0" y="0" width="16" height="16"/>
   </objectgroup>
  </tile>
  <tile id="228">
   <objectgroup draworder="index" id="2">
    <object id="1" x="0" y="0" width="16" height="16"/>
   </objectgroup>
  </tile>
  <tile id="229">
   <objectgroup draworder="index" id="2">
    <object id="1" x="0" y="0" width="7" height="16"/>
   </objectgroup>
  </tile>
  <tile id="230">
   <objectgroup draworder="index" id="2">
    <object id="1" x="9" y="0" width="7" height="16"/>
   </objectgroup>
  </tile>
  <tile id="231">
   <objectgroup draworder="index" id="2">
    <object id="1" x="0" y="0" width="16" height="16"/>
   </objectgroup>
  </tile>
  <tile id="232">
   <objectgroup draworder="index" id="2">
    <object id="1" x="0" y="0" width="7" height="16"/>
   </objectgroup>
  </tile>
  <tile id="236">
   <objectgroup draworder="index" id="2">
    <object id="1" x="0" y="1" width="16" height="15"/>
   </objectgroup>
  </tile>
  <tile id="237">
   <objectgroup draworder="index" id="2">
    <object id="1" x="0" y="1" width="16" height="15"/>
   </objectgroup>
  </tile>
  <tile id="238">
   <objectgroup draworder="index" id="2">
    <object id="1" x="0" y="2" width="16" height="14"/>
   </objectgroup>
  </tile>
  <tile id="239">
   <objectgroup draworder="index" id="2">
    <object id="1" x="0" y="1" width="16" height="15"/>
   </objectgroup>
  </tile>
  <tile id="240">
   <objectgroup draworder="index" id="2">
    <object id="1" x="0" y="1" width="16" height="15"/>
   </objectgroup>
  </tile>
  <tile id="548">
   <objectgroup draworder="index" id="2">
    <object id="1" x="0" y="0" width="16" height="16"/>
   </objectgroup>
  </tile>
  <tile id="549">
   <objectgroup draworder="index" id="2">
    <object id="1" x="0" y="0" width="6.04348" height="16"/>
   </objectgroup>
  </tile>
  <tile id="556">
   <objectgroup draworder="index" id="2">
    <object id="1" x="0" y="0" width="16" height="16"/>
   </objectgroup>
  </tile>
  <tile id="557">
   <objectgroup draworder="index" id="2">
    <object id="1" x="0" y="0" width="6.04348" height="16"/>
   </objectgroup>
  </tile>
  <tile id="563">
   <objectgroup draworder="index" id="2">
    <object id="1" x="0" y="8.03125" width="16" height="7.96875"/>
   </objectgroup>
  </tile>
  <tile id="564">
   <objectgroup draworder="index" id="2">
    <object id="1" x="0" y="8.01563" width="16" height="7.98438"/>
   </objectgroup>
  </tile>
  <tile id="565">
   <objectgroup draworder="index" id="2">
    <object id="1" x="0" y="7.98438" width="16" height="8.01563"/>
   </objectgroup>
  </tile>
  <tile id="566">
   <objectgroup draworder="index" id="2">
    <object id="1" x="0" y="8" width="16" height="8"/>
   </objectgroup>
  </tile>
  <tile id="567">
   <objectgroup draworder="index" id="2">
    <object id="1" x="0" y="7.95313" width="16" height="8.04688"/>
   </objectgroup>
  </tile>
  <tile id="569">
   <objectgroup draworder="index" id="2">
    <object id="1" x="0" y="0" width="16" height="16"/>
   </objectgroup>
  </tile>
  <tile id="570">
   <objectgroup draworder="index" id="2">
    <object id="1" x="0" y="0" width="6" height="16"/>
   </objectgroup>
  </tile>
  <tile id="577">
   <objectgroup draworder="index" id="2">
    <object id="1" x="0" y="0" width="16" height="16"/>
   </objectgroup>
  </tile>
  <tile id="578">
   <objectgroup draworder="index" id="2">
    <object id="1" x="0" y="0" width="6.04348" height="16"/>
   </objectgroup>
  </tile>
  <tile id="587">
   <objectgroup draworder="index" id="2">
    <object id="1" x="0" y="0" width="16" height="16"/>
   </objectgroup>
  </tile>
  <tile id="595">
   <objectgroup draworder="index" id="2">
    <object id="1" x="0" y="0" width="16" height="16"/>
   </objectgroup>
  </tile>
  <tile id="602">
   <objectgroup draworder="index" id="2">
    <object id="1" x="0" y="8" width="13" height="8"/>
   </objectgroup>
  </tile>
  <tile id="603">
   <objectgroup draworder="index" id="2">
    <object id="1" x="3" y="8" width="13" height="8"/>
   </objectgroup>
  </tile>
  <tile id="608">
   <objectgroup draworder="index" id="2">
    <object id="1" x="0" y="0" width="16" height="16"/>
   </objectgroup>
  </tile>
  <tile id="616">
   <objectgroup draworder="index" id="2">
    <object id="1" x="0" y="0" width="16" height="16"/>
   </objectgroup>
  </tile>
  <tile id="641">
   <objectgroup draworder="index" id="2">
    <object id="1" x="0" y="0" width="16" height="16"/>
   </objectgroup>
  </tile>
  <tile id="642">
   <objectgroup draworder="index" id="2">
    <object id="1" x="0" y="0" width="16" height="16"/>
   </objectgroup>
  </tile>
  <tile id="644">
   <objectgroup draworder="index" id="2">
    <object id="1" x="0" y="0" width="13" height="16"/>
   </objectgroup>
  </tile>
  <tile id="645">
   <objectgroup draworder="index" id="2">
    <object id="1" x="3" y="0" width="13" height="16"/>
   </objectgroup>
  </tile>
  <tile id="664">
   <objectgroup draworder="index" id="2">
    <object id="1" x="11" y="0" width="5" height="9"/>
   </objectgroup>
  </tile>
  <tile id="665">
   <objectgroup draworder="index" id="2">
    <object id="1" x="0" y="0" width="16" height="16"/>
   </objectgroup>
  </tile>
  <tile id="666">
   <objectgroup draworder="index" id="2">
    <object id="1" x="0" y="0" width="16" height="16"/>
   </objectgroup>
  </tile>
  <tile id="667">
   <objectgroup draworder="index" id="2">
    <object id="1" x="0" y="0" width="16" height="16"/>
   </objectgroup>
  </tile>
  <tile id="669">
   <objectgroup draworder="index" id="2">
    <object id="1" x="0" y="0" width="16" height="16"/>
   </objectgroup>
  </tile>
  <tile id="670">
   <objectgroup draworder="index" id="2">
    <object id="1" x="0" y="0" width="16" height="16"/>
   </objectgroup>
  </tile>
  <tile id="671">
   <objectgroup draworder="index" id="2">
    <object id="1" x="0" y="0" width="16" height="16"/>
   </objectgroup>
  </tile>
  <tile id="673">
   <objectgroup draworder="index" id="2">
    <object id="1" x="0" y="0" width="16" height="16"/>
   </objectgroup>
  </tile>
  <tile id="674">
   <objectgroup draworder="index" id="2">
    <object id="1" x="0" y="0" width="16" height="16"/>
   </objectgroup>
  </tile>
  <tile id="675">
   <objectgroup draworder="index" id="2">
    <object id="1" x="0" y="0" width="16" height="16"/>
   </objectgroup>
  </tile>
  <tile id="676">
   <objectgroup draworder="index" id="2">
    <object id="1" x="0" y="0" width="16" height="16"/>
   </objectgroup>
  </tile>
  <tile id="677">
   <objectgroup draworder="index" id="2">
    <object id="1" x="0" y="0" width="16" height="16"/>
   </objectgroup>
  </tile>
  <tile id="678">
   <objectgroup draworder="index" id="2">
    <object id="1" x="0" y="0" width="16" height="16"/>
   </objectgroup>
  </tile>
  <tile id="679">
   <objectgroup draworder="index" id="2">
    <object id="1" x="0" y="0" width="5" height="9"/>
   </objectgroup>
  </tile>
  <tile id="683">
   <objectgroup draworder="index" id="2">
    <object id="1" x="0" y="0" width="16" height="16"/>
   </objectgroup>
  </tile>
  <tile id="684">
   <objectgroup draworder="index" id="2">
    <object id="1" x="0" y="0" width="16" height="16"/>
   </objectgroup>
  </tile>
  <tile id="685">
   <objectgroup draworder="index" id="2">
    <object id="1" x="11" y="0" width="5" height="9"/>
   </objectgroup>
  </tile>
  <tile id="686">
   <objectgroup draworder="index" id="2">
    <object id="1" x="0" y="0" width="16" height="16"/>
   </objectgroup>
  </tile>
  <tile id="687">
   <objectgroup draworder="index" id="2">
    <object id="1" x="0" y="0" width="16" height="16"/>
   </objectgroup>
  </tile>
  <tile id="688">
   <objectgroup draworder="index" id="2">
    <object id="1" x="0" y="0" width="16" height="16"/>
   </objectgroup>
  </tile>
  <tile id="690">
   <objectgroup draworder="index" id="2">
    <object id="1" x="0" y="0" width="16" height="16"/>
   </objectgroup>
  </tile>
  <tile id="691">
   <objectgroup draworder="index" id="2">
    <object id="1" x="0" y="0" width="16" height="16"/>
   </objectgroup>
  </tile>
  <tile id="692">
   <objectgroup draworder="index" id="2">
    <object id="1" x="0" y="0" width="16" height="16"/>
   </objectgroup>
  </tile>
  <tile id="694">
   <objectgroup draworder="index" id="2">
    <object id="1" x="0" y="0" width="16" height="16"/>
   </objectgroup>
  </tile>
  <tile id="695">
   <objectgroup draworder="index" id="2">
    <object id="1" x="0" y="0" width="16" height="16"/>
   </objectgroup>
  </tile>
  <tile id="696">
   <objectgroup draworder="index" id="2">
    <object id="1" x="0" y="0" width="16" height="16"/>
   </objectgroup>
  </tile>
  <tile id="697">
   <objectgroup draworder="index" id="2">
    <object id="1" x="0" y="0" width="16" height="16"/>
   </objectgroup>
  </tile>
  <tile id="698">
   <objectgroup draworder="index" id="2">
    <object id="1" x="0" y="0" width="16" height="16"/>
   </objectgroup>
  </tile>
  <tile id="699">
   <objectgroup draworder="index" id="2">
    <object id="1" x="0" y="0" width="16" height="16"/>
   </objectgroup>
  </tile>
  <tile id="700">
   <objectgroup draworder="index" id="2">
    <object id="1" x="0" y="0" width="5" height="9"/>
   </objectgroup>
  </tile>
  <tile id="704">
   <objectgroup draworder="index" id="2">
    <object id="1" x="0" y="0" width="16" height="16"/>
   </objectgroup>
  </tile>
  <tile id="717">
   <objectgroup draworder="index" id="2">
    <object id="1" x="0" y="0" width="12" height="16"/>
   </objectgroup>
  </tile>
  <tile id="725">
   <objectgroup draworder="index" id="2">
    <object id="1" x="0" y="0" width="16" height="16"/>
   </objectgroup>
  </tile>
  <tile id="738">
   <objectgroup draworder="index" id="2">
    <object id="1" x="0" y="0" width="12" height="16"/>
   </objectgroup>
  </tile>
  <tile id="743">
   <objectgroup draworder="index" id="2">
    <object id="1" x="0" y="0" width="16" height="16"/>
   </objectgroup>
  </tile>
  <tile id="755">
   <objectgroup draworder="index" id="2">
    <object id="1" x="0" y="0" width="16" height="16"/>
   </objectgroup>
  </tile>
  <tile id="756">
   <objectgroup draworder="index" id="2">
    <object id="1" x="0" y="0" width="4" height="7"/>
   </objectgroup>
  </tile>
  <tile id="764">
   <objectgroup draworder="index" id="2">
    <object id="1" x="0" y="0" width="16" height="16"/>
   </objectgroup>
  </tile>
  <tile id="776">
   <objectgroup draworder="index" id="2">
    <object id="1" x="0" y="0" width="16" height="16"/>
   </objectgroup>
  </tile>
  <tile id="777">
   <objectgroup draworder="index" id="2">
    <object id="1" x="0" y="0" width="4" height="7"/>
   </objectgroup>
  </tile>
  <tile id="821">
   <objectgroup draworder="index" id="2">
    <object id="1" x="0" y="0" width="16" height="16"/>
   </objectgroup>
  </tile>
  <tile id="833">
   <objectgroup draworder="index" id="2">
    <object id="1" x="0" y="0" width="12" height="16"/>
   </objectgroup>
  </tile>
  <tile id="842">
   <objectgroup draworder="index" id="2">
    <object id="1" x="0" y="0" width="16" height="16"/>
   </objectgroup>
  </tile>
  <tile id="860">
   <objectgroup draworder="index" id="2">
    <object id="1" x="0" y="0" width="16" height="16"/>
   </objectgroup>
  </tile>
  <tile id="871">
   <objectgroup draworder="index" id="2">
    <object id="1" x="0" y="0" width="16" height="16"/>
   </objectgroup>
  </tile>
  <tile id="872">
   <objectgroup draworder="index" id="2">
    <object id="1" x="0" y="0" width="4" height="7"/>
   </objectgroup>
  </tile>
  <tile id="881">
   <objectgroup draworder="index" id="2">
    <object id="1" x="0" y="0" width="16" height="16"/>
   </objectgroup>
  </tile>
  <tile id="892">
   <objectgroup draworder="index" id="2">
    <object id="1" x="0" y="0" width="16" height="16"/>
   </objectgroup>
  </tile>
  <tile id="893">
   <objectgroup draworder="index" id="2">
    <object id="1" x="0" y="0" width="4" height="7"/>
   </objectgroup>
  </tile>
  <tile id="898">
   <objectgroup draworder="index" id="2">
    <object id="1" x="8" y="0" width="8" height="16"/>
   </objectgroup>
  </tile>
  <tile id="899">
   <objectgroup draworder="index" id="2">
    <object id="1" x="0" y="0" width="16" height="16"/>
   </objectgroup>
  </tile>
  <tile id="909">
   <objectgroup draworder="index" id="2">
    <object id="1" x="0" y="0" width="16" height="16"/>
   </objectgroup>
  </tile>
  <tile id="910">
   <objectgroup draworder="index" id="2">
    <object id="1" x="0" y="0" width="12" height="16"/>
   </objectgroup>
  </tile>
  <tile id="920">
   <objectgroup draworder="index" id="2">
    <object id="1" x="0" y="0" width="16" height="16"/>
   </objectgroup>
  </tile>
  <tile id="930">
   <objectgroup draworder="index" id="2">
    <object id="1" x="0" y="0" width="16" height="16"/>
   </objectgroup>
  </tile>
  <tile id="931">
   <objectgroup draworder="index" id="2">
    <object id="1" x="0" y="0" width="12" height="16"/>
   </objectgroup>
  </tile>
  <tile id="937">
   <objectgroup draworder="index" id="2">
    <object id="1" x="8" y="0" width="8" height="16"/>
   </objectgroup>
  </tile>
  <tile id="938">
   <objectgroup draworder="index" id="2">
    <object id="1" x="0" y="0" width="16" height="16"/>
   </objectgroup>
  </tile>
  <tile id="939">
   <objectgroup draworder="index" id="2">
    <object id="1" x="0" y="0" width="16" height="16"/>
   </objectgroup>
  </tile>
  <tile id="940">
   <objectgroup draworder="index" id="2">
    <object id="1" x="0" y="0" width="16" height="16"/>
   </objectgroup>
  </tile>
  <tile id="942">
   <objectgroup draworder="index" id="2">
    <object id="1" x="0" y="0" width="16" height="16"/>
   </objectgroup>
  </tile>
  <tile id="943">
   <objectgroup draworder="index" id="2">
    <object id="1" x="0" y="0" width="16" height="16"/>
   </objectgroup>
  </tile>
  <tile id="944">
   <objectgroup draworder="index" id="2">
    <object id="1" x="0" y="0" width="16" height="16"/>
   </objectgroup>
  </tile>
  <tile id="946">
   <objectgroup draworder="index" id="2">
    <object id="1" x="0" y="0" width="16" height="16"/>
   </objectgroup>
  </tile>
  <tile id="947">
   <objectgroup draworder="index" id="2">
    <object id="1" x="0" y="0" width="16" height="15"/>
   </objectgroup>
  </tile>
  <tile id="948">
   <objectgroup draworder="index" id="2">
    <object id="1" x="0" y="0" width="16" height="10"/>
   </objectgroup>
  </tile>
  <tile id="959">
   <objectgroup draworder="index" id="2">
    <object id="1" x="0" y="0" width="16" height="16"/>
   </objectgroup>
  </tile>
  <tile id="969">
   <objectgroup draworder="index" id="2">
    <object id="1" x="0" y="0" width="16" height="10"/>
   </objectgroup>
  </tile>
  <tile id="1016">
   <objectgroup draworder="index" id="2">
    <object id="1" x="0" y="7.91304" width="16" height="8.08696"/>
   </objectgroup>
  </tile>
  <tile id="1017">
   <objectgroup draworder="index" id="2">
    <object id="1" x="0" y="8.04348" width="16" height="7.95652"/>
   </objectgroup>
  </tile>
  <tile id="1018">
   <objectgroup draworder="index" id="2">
    <object id="1" x="0" y="8.04348" width="16" height="7.95652"/>
   </objectgroup>
  </tile>
  <tile id="1019">
   <objectgroup draworder="index" id="2">
    <object id="1" x="0" y="8.04348" width="16" height="7.95652"/>
   </objectgroup>
  </tile>
  <tile id="1020">
   <objectgroup draworder="index" id="2">
    <object id="1" x="0" y="7.95652" width="16" height="8.04348"/>
   </objectgroup>
  </tile>
  <tile id="1021">
   <objectgroup draworder="index" id="2">
    <object id="1" x="0" y="8.04348" width="16" height="7.95652"/>
   </objectgroup>
  </tile>
  <tile id="1022">
   <objectgroup draworder="index" id="2">
    <object id="1" x="0" y="7.91304" width="16" height="8.08696"/>
   </objectgroup>
  </tile>
  <tile id="1027">
   <objectgroup draworder="index" id="2">
    <object id="1" x="3" y="0" width="13" height="16"/>
   </objectgroup>
  </tile>
  <tile id="1034">
   <objectgroup draworder="index" id="2">
    <object id="1" x="0" y="0" width="13" height="16"/>
   </objectgroup>
  </tile>
  <tile id="1055">
   <objectgroup draworder="index" id="2">
    <object id="1" x="3" y="0" width="13" height="16"/>
   </objectgroup>
  </tile>
  <tile id="1061">
   <objectgroup draworder="index" id="2">
    <object id="1" x="0" y="0" width="13" height="16"/>
   </objectgroup>
  </tile>
  <tile id="1066">
   <objectgroup draworder="index" id="2">
    <object id="1" x="4" y="0" width="12" height="16"/>
   </objectgroup>
  </tile>
  <tile id="1073">
   <objectgroup draworder="index" id="2">
    <object id="1" x="0" y="0" width="12" height="16"/>
   </objectgroup>
  </tile>
  <tile id="1094">
   <objectgroup draworder="index" id="2">
    <object id="1" x="4" y="0" width="12" height="16"/>
   </objectgroup>
  </tile>
  <tile id="1100">
   <objectgroup draworder="index" id="2">
    <object id="1" x="0" y="0" width="12" height="16"/>
   </objectgroup>
  </tile>
  <tile id="1105">
   <objectgroup draworder="index" id="2">
    <object id="1" x="4" y="0" width="12" height="16"/>
   </objectgroup>
  </tile>
  <tile id="1112">
   <objectgroup draworder="index" id="2">
    <object id="1" x="0" y="0" width="12" height="16"/>
   </objectgroup>
  </tile>
  <tile id="1133">
   <objectgroup draworder="index" id="2">
    <object id="1" x="4" y="0" width="12" height="16"/>
   </objectgroup>
  </tile>
  <tile id="1139">
   <objectgroup draworder="index" id="2">
    <object id="1" x="0" y="0" width="12" height="16"/>
   </objectgroup>
  </tile>
  <tile id="1144">
   <objectgroup draworder="index" id="2">
    <object id="1" x="0" y="0" width="16" height="16"/>
   </objectgroup>
  </tile>
  <tile id="1151">
   <objectgroup draworder="index" id="2">
    <object id="1" x="0" y="0" width="13" height="16"/>
   </objectgroup>
  </tile>
  <tile id="1157">
   <objectgroup draworder="index" id="2">
    <object id="1" x="11" y="13" width="5" height="3"/>
   </objectgroup>
  </tile>
  <tile id="1158">
   <objectgroup draworder="index" id="2">
    <object id="1" x="0" y="13" width="5" height="3"/>
   </objectgroup>
  </tile>
  <tile id="1183">
   <objectgroup draworder="index" id="2">
    <object id="1" x="4" y="0" width="12" height="16"/>
   </objectgroup>
  </tile>
  <tile id="1190">
   <objectgroup draworder="index" id="2">
    <object id="1" x="0" y="0" width="12" height="16"/>
   </objectgroup>
  </tile>
  <tile id="1195">
   <objectgroup draworder="index" id="2">
    <object id="1" x="0" y="2" width="16" height="14"/>
   </objectgroup>
  </tile>
  <tile id="1196">
   <objectgroup draworder="index" id="2">
    <object id="1" x="0" y="0" width="16" height="16"/>
   </objectgroup>
  </tile>
  <tile id="1197">
   <objectgroup draworder="index" id="2">
    <object id="1" x="0" y="0" width="16" height="16"/>
   </objectgroup>
  </tile>
  <tile id="1210">
   <objectgroup draworder="index" id="2">
    <object id="1" x="2" y="8" width="14" height="8"/>
   </objectgroup>
  </tile>
  <tile id="1222">
   <objectgroup draworder="index" id="2">
    <object id="1" x="4" y="0" width="12" height="16"/>
   </objectgroup>
  </tile>
  <tile id="1229">
   <objectgroup draworder="index" id="2">
    <object id="1" x="0" y="0" width="12" height="16"/>
   </objectgroup>
  </tile>
  <tile id="1234">
   <objectgroup draworder="index" id="2">
    <object id="1" x="1" y="10" width="14" height="6"/>
   </objectgroup>
  </tile>
  <tile id="1235">
   <objectgroup draworder="index" id="2">
    <object id="1" x="5" y="5" width="11" height="11"/>
   </objectgroup>
  </tile>
  <tile id="1236">
   <objectgroup draworder="index" id="2">
    <object id="1" x="0" y="5" width="11" height="11"/>
   </objectgroup>
  </tile>
  <tile id="1250">
   <objectgroup draworder="index" id="2">
    <object id="1" x="0" y="0" width="16" height="16"/>
   </objectgroup>
  </tile>
  <tile id="1273">
   <objectgroup draworder="index" id="2">
    <object id="1" x="0" y="0" width="16" height="16"/>
   </objectgroup>
  </tile>
  <tile id="1274">
   <objectgroup draworder="index" id="2">
    <object id="1" x="0" y="0" width="16" height="16"/>
   </objectgroup>
  </tile>
  <tile id="1275">
   <objectgroup draworder="index" id="2">
    <object id="1" x="0" y="0" width="16" height="16"/>
   </objectgroup>
  </tile>
  <tile id="1405">
   <objectgroup draworder="index" id="2">
    <object id="1" x="11" y="0" width="5" height="9"/>
   </objectgroup>
  </tile>
  <tile id="1406">
   <objectgroup draworder="index" id="2">
    <object id="1" x="0" y="0" width="16" height="16"/>
   </objectgroup>
  </tile>
  <tile id="1407">
   <objectgroup draworder="index" id="2">
    <object id="1" x="0" y="0" width="16" height="16"/>
   </objectgroup>
  </tile>
  <tile id="1408">
   <objectgroup draworder="index" id="2">
    <object id="1" x="0" y="0" width="16" height="16"/>
   </objectgroup>
  </tile>
  <tile id="1409">
   <objectgroup draworder="index" id="2">
    <object id="1" x="0" y="0" width="16" height="16"/>
   </objectgroup>
  </tile>
  <tile id="1410">
   <objectgroup draworder="index" id="2">
    <object id="1" x="0" y="0" width="16" height="16"/>
   </objectgroup>
  </tile>
  <tile id="1411">
   <objectgroup draworder="index" id="2">
    <object id="1" x="0" y="0" width="16" height="16"/>
   </objectgroup>
  </tile>
  <tile id="1412">
   <objectgroup draworder="index" id="2">
    <object id="1" x="0" y="0" width="16" height="16"/>
    <object id="2" x="0" y="0" width="16" height="16"/>
   </objectgroup>
  </tile>
  <tile id="1413">
   <objectgroup draworder="index" id="2">
    <object id="1" x="0" y="0" width="16" height="16"/>
   </objectgroup>
  </tile>
  <tile id="1414">
   <objectgroup draworder="index" id="2">
    <object id="1" x="0" y="0" width="16" height="16"/>
   </objectgroup>
  </tile>
  <tile id="1415">
   <objectgroup draworder="index" id="2">
    <object id="1" x="0" y="0" width="5" height="9"/>
   </objectgroup>
  </tile>
  <tile id="1416">
   <objectgroup draworder="index" id="2">
    <object id="1" x="0" y="0" width="16" height="16"/>
   </objectgroup>
  </tile>
  <tile id="1417">
   <objectgroup draworder="index" id="2">
    <object id="1" x="0" y="0" width="16" height="16"/>
   </objectgroup>
  </tile>
  <tile id="1418">
   <objectgroup draworder="index" id="2">
    <object id="1" x="0" y="0" width="16" height="16"/>
   </objectgroup>
  </tile>
  <tile id="1420">
   <objectgroup draworder="index" id="2">
    <object id="1" x="0" y="0" width="13" height="16"/>
   </objectgroup>
  </tile>
  <tile id="1421">
   <objectgroup draworder="index" id="2">
    <object id="1" x="3" y="0" width="13" height="16"/>
   </objectgroup>
  </tile>
  <tile id="1445">
   <objectgroup draworder="index" id="2">
    <object id="1" x="0" y="0" width="16" height="16"/>
   </objectgroup>
  </tile>
  <tile id="1459">
   <objectgroup draworder="index" id="2">
    <object id="1" x="0" y="0" width="16" height="16"/>
   </objectgroup>
  </tile>
  <tile id="1460">
   <objectgroup draworder="index" id="2">
    <object id="1" x="0" y="0" width="16" height="16"/>
   </objectgroup>
  </tile>
  <tile id="1484">
   <objectgroup draworder="index" id="2">
    <object id="1" x="0" y="0" width="16" height="16"/>
   </objectgroup>
  </tile>
  <tile id="1498">
   <objectgroup draworder="index" id="2">
    <object id="1" x="0" y="8" width="13" height="8"/>
   </objectgroup>
  </tile>
  <tile id="1499">
   <objectgroup draworder="index" id="2">
    <object id="1" x="3" y="8" width="13" height="8"/>
   </objectgroup>
  </tile>
  <tile id="1505">
   <objectgroup draworder="index" id="2">
    <object id="1" x="4.9375" y="0" width="11.0625" height="16"/>
   </objectgroup>
  </tile>
  <tile id="1506">
   <objectgroup draworder="index" id="2">
    <object id="1" x="0" y="0" width="14" height="16"/>
   </objectgroup>
  </tile>
  <tile id="1523">
   <objectgroup draworder="index" id="2">
    <object id="1" x="0" y="0" width="16" height="16"/>
   </objectgroup>
  </tile>
  <tile id="1537">
   <objectgroup draworder="index" id="2">
    <object id="1" x="0" y="0" width="16" height="16"/>
   </objectgroup>
  </tile>
  <tile id="1538">
   <objectgroup draworder="index" id="2">
    <object id="1" x="0" y="0" width="16" height="16"/>
   </objectgroup>
  </tile>
  <tile id="1544">
   <objectgroup draworder="index" id="2">
    <object id="1" x="0" y="0" width="16" height="16"/>
   </objectgroup>
  </tile>
  <tile id="1545">
   <objectgroup draworder="index" id="2">
    <object id="1" x="0" y="0" width="16" height="16"/>
   </objectgroup>
  </tile>
  <tile id="1562">
   <objectgroup draworder="index" id="2">
    <object id="1" x="0" y="0" width="16" height="16"/>
   </objectgroup>
  </tile>
  <tile id="1579">
   <objectgroup draworder="index" id="2">
    <object id="1" x="0" y="16">
     <polygon points="0,0 16,0 16,-16 12.9922,-16.0156 10.0234,-15.0156 8.03906,-14.0156 7,-12.9844 5.99219,-11.9844 3.00781,-8.99219 2.03125,-6.97656 1.00781,-4.02344"/>
    </object>
   </objectgroup>
  </tile>
  <tile id="1580">
   <objectgroup draworder="index" id="2">
    <object id="1" x="0" y="0" width="15" height="16"/>
   </objectgroup>
  </tile>
  <tile id="1581">
   <objectgroup draworder="index" id="2">
    <object id="1" x="1" y="0" width="15" height="16"/>
    <object id="2" x="0" y="16">
     <polygon points="0,0 16,0 16,-16 12.9922,-16.0156 10.0234,-15.0156 8.03906,-14.0156 7,-12.9844 5.99219,-11.9844 3.00781,-8.99219 2.03125,-6.97656 1.00781,-4.02344"/>
    </object>
   </objectgroup>
  </tile>
  <tile id="1582">
   <objectgroup draworder="index" id="2">
    <object id="1" x="0" y="0" width="15" height="16"/>
   </objectgroup>
  </tile>
  <tile id="1583">
   <objectgroup draworder="index" id="2">
    <object id="1" x="5" y="13" width="11" height="3"/>
   </objectgroup>
  </tile>
  <tile id="1584">
   <objectgroup draworder="index" id="2">
    <object id="1" x="0" y="13" width="10" height="3"/>
   </objectgroup>
  </tile>
  <tile id="1601">
   <objectgroup draworder="index" id="2">
    <object id="1" x="0" y="0" width="16" height="16"/>
   </objectgroup>
  </tile>
  <tile id="1619">
   <objectgroup draworder="index" id="2">
    <object id="1" x="0" y="0" width="16" height="16"/>
   </objectgroup>
  </tile>
  <tile id="1620">
   <objectgroup draworder="index" id="2">
    <object id="1" x="1" y="0" width="15" height="16"/>
   </objectgroup>
  </tile>
  <tile id="1621">
   <objectgroup draworder="index" id="2">
    <object id="1" x="0" y="0" width="15" height="16"/>
   </objectgroup>
  </tile>
  <tile id="1622">
   <objectgroup draworder="index" id="2">
    <object id="1" x="3" y="0" width="13" height="16"/>
   </objectgroup>
  </tile>
  <tile id="1623">
   <objectgroup draworder="index" id="2">
    <object id="1" x="0" y="0" width="14" height="16"/>
   </objectgroup>
  </tile>
  <tile id="1640">
   <objectgroup draworder="index" id="2">
    <object id="1" x="0" y="0" width="16" height="16"/>
   </objectgroup>
  </tile>
 </tileset>
 <tileset firstgid="2068" name="tilemap_all_ship" tilewidth="16" tileheight="16" tilecount="2067" columns="39">
  <image source="../Tilesets/tilemap_all_ship.png" width="624" height="848"/>
  <tile id="70">
   <objectgroup draworder="index" id="2">
    <object id="1" x="0" y="2" width="16" height="14"/>
   </objectgroup>
  </tile>
  <tile id="71">
   <objectgroup draworder="index" id="2">
    <object id="1" x="0" y="2" width="16" height="14"/>
   </objectgroup>
  </tile>
  <tile id="72">
   <objectgroup draworder="index" id="2">
    <object id="1" x="0" y="2" width="16" height="14"/>
   </objectgroup>
  </tile>
  <tile id="73">
   <objectgroup draworder="index" id="2">
    <object id="1" x="0" y="2" width="16" height="7"/>
   </objectgroup>
  </tile>
  <tile id="74">
   <objectgroup draworder="index" id="2">
    <object id="1" x="0" y="2" width="16" height="14"/>
   </objectgroup>
  </tile>
  <tile id="75">
   <objectgroup draworder="index" id="2">
    <object id="1" x="0" y="2" width="16" height="14"/>
   </objectgroup>
  </tile>
  <tile id="76">
   <objectgroup draworder="index" id="2">
    <object id="1" x="0" y="2" width="16" height="14"/>
   </objectgroup>
  </tile>
  <tile id="109">
   <objectgroup draworder="index" id="2">
    <object id="1" x="0" y="1" width="16" height="14"/>
   </objectgroup>
  </tile>
  <tile id="110">
   <objectgroup draworder="index" id="2">
    <object id="1" x="0" y="1" width="16" height="14"/>
   </objectgroup>
  </tile>
  <tile id="111">
   <objectgroup draworder="index" id="2">
    <object id="1" x="0" y="1" width="16" height="14"/>
   </objectgroup>
  </tile>
  <tile id="112">
   <objectgroup draworder="index" id="2">
    <object id="1" x="0" y="2" width="16" height="14"/>
   </objectgroup>
  </tile>
  <tile id="113">
   <objectgroup draworder="index" id="2">
    <object id="1" x="0" y="1" width="16" height="14"/>
   </objectgroup>
  </tile>
  <tile id="114">
   <objectgroup draworder="index" id="2">
    <object id="1" x="0" y="1" width="16" height="14"/>
   </objectgroup>
  </tile>
  <tile id="115">
   <objectgroup draworder="index" id="2">
    <object id="1" x="0" y="1" width="16" height="14"/>
   </objectgroup>
  </tile>
  <tile id="148">
   <objectgroup draworder="index" id="2">
    <object id="1" x="0" y="2" width="16" height="7"/>
   </objectgroup>
  </tile>
  <tile id="150">
   <objectgroup draworder="index" id="2">
    <object id="1" x="0" y="1" width="16" height="9"/>
   </objectgroup>
  </tile>
  <tile id="151">
   <objectgroup draworder="index" id="2">
    <object id="1" x="0" y="1" width="16" height="8"/>
   </objectgroup>
  </tile>
  <tile id="152">
   <objectgroup draworder="index" id="2">
    <object id="1" x="0" y="1" width="16" height="9"/>
   </objectgroup>
  </tile>
  <tile id="154">
   <objectgroup draworder="index" id="2">
    <object id="1" x="0" y="2" width="16" height="7"/>
   </objectgroup>
  </tile>
  <tile id="196">
   <objectgroup draworder="index" id="2">
    <object id="1" x="9" y="0" width="7" height="16"/>
   </objectgroup>
  </tile>
  <tile id="197">
   <objectgroup draworder="index" id="2">
    <object id="1" x="0" y="0" width="16" height="16"/>
   </objectgroup>
  </tile>
  <tile id="198">
   <objectgroup draworder="index" id="2">
    <object id="1" x="0" y="0" width="7" height="16"/>
   </objectgroup>
  </tile>
  <tile id="199">
   <objectgroup draworder="index" id="2">
    <object id="1" x="9" y="0" width="7" height="16"/>
   </objectgroup>
  </tile>
  <tile id="200">
   <objectgroup draworder="index" id="2">
    <object id="1" x="0" y="0" width="16" height="16"/>
   </objectgroup>
  </tile>
  <tile id="201">
   <objectgroup draworder="index" id="2">
    <object id="1" x="0" y="0" width="16" height="16"/>
   </objectgroup>
  </tile>
  <tile id="202">
   <objectgroup draworder="index" id="2">
    <object id="1" x="0" y="0" width="7" height="16"/>
   </objectgroup>
  </tile>
  <tile id="203">
   <objectgroup draworder="index" id="2">
    <object id="1" x="12" y="0" width="4" height="16"/>
   </objectgroup>
  </tile>
  <tile id="204">
   <objectgroup draworder="index" id="2">
    <object id="1" x="0" y="0" width="16" height="16"/>
   </objectgroup>
  </tile>
  <tile id="205">
   <objectgroup draworder="index" id="2">
    <object id="1" x="0" y="0" width="4" height="16"/>
   </objectgroup>
  </tile>
  <tile id="206">
   <objectgroup draworder="index" id="2">
    <object id="1" x="12" y="0" width="4" height="16"/>
   </objectgroup>
  </tile>
  <tile id="207">
   <objectgroup draworder="index" id="2">
    <object id="1" x="0" y="0" width="16" height="16"/>
   </objectgroup>
  </tile>
  <tile id="208">
   <objectgroup draworder="index" id="2">
    <object id="1" x="0" y="0" width="16" height="16"/>
   </objectgroup>
  </tile>
  <tile id="209">
   <objectgroup draworder="index" id="2">
    <object id="1" x="0" y="0" width="4" height="16"/>
   </objectgroup>
  </tile>
  <tile id="266">
   <objectgroup draworder="index" id="2">
    <object id="1" x="0" y="1" width="16" height="15"/>
   </objectgroup>
  </tile>
  <tile id="267">
   <objectgroup draworder="index" id="2">
    <object id="1" x="0" y="1" width="16" height="15"/>
   </objectgroup>
  </tile>
  <tile id="268">
   <objectgroup draworder="index" id="2">
    <object id="1" x="0" y="2" width="16" height="14"/>
   </objectgroup>
  </tile>
  <tile id="269">
   <objectgroup draworder="index" id="2">
    <object id="1" x="0" y="1" width="16" height="15"/>
   </objectgroup>
  </tile>
  <tile id="270">
   <objectgroup draworder="index" id="2">
    <object id="1" x="0" y="1" width="16" height="15"/>
   </objectgroup>
  </tile>
  <tile id="605">
   <objectgroup draworder="index" id="2">
    <object id="1" x="0" y="8" width="13" height="8"/>
   </objectgroup>
  </tile>
  <tile id="606">
   <objectgroup draworder="index" id="2">
    <object id="1" x="3" y="8" width="13" height="8"/>
   </objectgroup>
  </tile>
  <tile id="641">
   <objectgroup draworder="index" id="2">
    <object id="1" x="0" y="0" width="13" height="16"/>
   </objectgroup>
  </tile>
  <tile id="642">
   <objectgroup draworder="index" id="2">
    <object id="1" x="3" y="0" width="13" height="16"/>
    <object id="2" x="3" y="0" width="13" height="16"/>
   </objectgroup>
  </tile>
  <tile id="644">
   <objectgroup draworder="index" id="2">
    <object id="1" x="0" y="0" width="16" height="16"/>
   </objectgroup>
  </tile>
  <tile id="645">
   <objectgroup draworder="index" id="2">
    <object id="1" x="0" y="0" width="16" height="16"/>
   </objectgroup>
  </tile>
  <tile id="664">
   <objectgroup draworder="index" id="2">
    <object id="1" x="11" y="0" width="5" height="9"/>
    <object id="2" x="11" y="0" width="5" height="9"/>
   </objectgroup>
  </tile>
  <tile id="665">
   <objectgroup draworder="index" id="2">
    <object id="4" x="0" y="0" width="16" height="16"/>
    <object id="5" x="0" y="0" width="16" height="16"/>
   </objectgroup>
  </tile>
  <tile id="666">
   <objectgroup draworder="index" id="2">
    <object id="1" x="0" y="0" width="16" height="16"/>
    <object id="2" x="0" y="0" width="16" height="16"/>
   </objectgroup>
  </tile>
  <tile id="667">
   <objectgroup draworder="index" id="2">
    <object id="1" x="0" y="0" width="16" height="16"/>
    <object id="2" x="0" y="0" width="16" height="16"/>
   </objectgroup>
  </tile>
  <tile id="668">
   <objectgroup draworder="index" id="2">
    <object id="1" x="0" y="0" width="16" height="16"/>
    <object id="2" x="0" y="0" width="16" height="16"/>
   </objectgroup>
  </tile>
  <tile id="669">
   <objectgroup draworder="index" id="2">
    <object id="1" x="0" y="0" width="16" height="16"/>
    <object id="2" x="0" y="0" width="16" height="16"/>
   </objectgroup>
  </tile>
  <tile id="670">
   <objectgroup draworder="index" id="2">
    <object id="1" x="0" y="0" width="16" height="16"/>
    <object id="2" x="0" y="0" width="16" height="16"/>
   </objectgroup>
  </tile>
  <tile id="672">
   <objectgroup draworder="index" id="2">
    <object id="1" x="0" y="0" width="16" height="16"/>
    <object id="2" x="0" y="0" width="16" height="16"/>
   </objectgroup>
  </tile>
  <tile id="673">
   <objectgroup draworder="index" id="2">
    <object id="1" x="0" y="0" width="16" height="16"/>
    <object id="2" x="0" y="0" width="16" height="16"/>
   </objectgroup>
  </tile>
  <tile id="674">
   <objectgroup draworder="index" id="2">
    <object id="1" x="0" y="0" width="16" height="16"/>
    <object id="2" x="0" y="0" width="16" height="16"/>
   </objectgroup>
  </tile>
  <tile id="676">
   <objectgroup draworder="index" id="2">
    <object id="1" x="0" y="0" width="16" height="16"/>
    <object id="2" x="0" y="0" width="16" height="16"/>
   </objectgroup>
  </tile>
  <tile id="677">
   <objectgroup draworder="index" id="2">
    <object id="1" x="0" y="0" width="16" height="16"/>
    <object id="2" x="0" y="0" width="16" height="16"/>
   </objectgroup>
  </tile>
  <tile id="678">
   <objectgroup draworder="index" id="2">
    <object id="1" x="0" y="0" width="16" height="16"/>
    <object id="2" x="0" y="0" width="16" height="16"/>
   </objectgroup>
  </tile>
  <tile id="679">
   <objectgroup draworder="index" id="2">
    <object id="1" x="0" y="0" width="5" height="9"/>
    <object id="2" x="0" y="0" width="5" height="9"/>
   </objectgroup>
  </tile>
  <tile id="680">
   <objectgroup draworder="index" id="2">
    <object id="1" x="0" y="0" width="16" height="16"/>
   </objectgroup>
  </tile>
  <tile id="681">
   <objectgroup draworder="index" id="2">
    <object id="1" x="0" y="0" width="16" height="16"/>
    <object id="2" x="0" y="0" width="16" height="16"/>
   </objectgroup>
  </tile>
  <tile id="685">
   <objectgroup draworder="index" id="2">
    <object id="1" x="11" y="0" width="5" height="9"/>
   </objectgroup>
  </tile>
  <tile id="686">
   <objectgroup draworder="index" id="2">
    <object id="1" x="0" y="0" width="16" height="16"/>
   </objectgroup>
  </tile>
  <tile id="687">
   <objectgroup draworder="index" id="2">
    <object id="1" x="0" y="0" width="16" height="16"/>
    <object id="2" x="0" y="0" width="16" height="16"/>
   </objectgroup>
  </tile>
  <tile id="688">
   <objectgroup draworder="index" id="2">
    <object id="1" x="0" y="0" width="16" height="16"/>
    <object id="2" x="0" y="0" width="16" height="16"/>
   </objectgroup>
  </tile>
  <tile id="689">
   <objectgroup draworder="index" id="2">
    <object id="1" x="0" y="0" width="16" height="16"/>
    <object id="2" x="0" y="0" width="16" height="16"/>
   </objectgroup>
  </tile>
  <tile id="690">
   <objectgroup draworder="index" id="2">
    <object id="1" x="0" y="0" width="16" height="16"/>
    <object id="2" x="0" y="0" width="16" height="16"/>
   </objectgroup>
  </tile>
  <tile id="691">
   <objectgroup draworder="index" id="2">
    <object id="1" x="0" y="0" width="16" height="16"/>
   </objectgroup>
  </tile>
  <tile id="693">
   <objectgroup draworder="index" id="2">
    <object id="1" x="0" y="0" width="16" height="16"/>
   </objectgroup>
  </tile>
  <tile id="694">
   <objectgroup draworder="index" id="2">
    <object id="1" x="0" y="0" width="16" height="16"/>
   </objectgroup>
  </tile>
  <tile id="695">
   <objectgroup draworder="index" id="2">
    <object id="1" x="0" y="0" width="16" height="16"/>
   </objectgroup>
  </tile>
  <tile id="697">
   <objectgroup draworder="index" id="2">
    <object id="1" x="0" y="0" width="16" height="16"/>
   </objectgroup>
  </tile>
  <tile id="698">
   <objectgroup draworder="index" id="2">
    <object id="1" x="0" y="0" width="16" height="16"/>
   </objectgroup>
  </tile>
  <tile id="699">
   <objectgroup draworder="index" id="2">
    <object id="1" x="0" y="0" width="16" height="16"/>
   </objectgroup>
  </tile>
  <tile id="700">
   <objectgroup draworder="index" id="2">
    <object id="1" x="0" y="0" width="5" height="9"/>
   </objectgroup>
  </tile>
  <tile id="704">
   <objectgroup draworder="index" id="2">
    <object id="1" x="4" y="0" width="12" height="16"/>
   </objectgroup>
  </tile>
  <tile id="743">
   <objectgroup draworder="index" id="2">
    <object id="1" x="12" y="0" width="4" height="7"/>
   </objectgroup>
  </tile>
  <tile id="744">
   <objectgroup draworder="index" id="2">
    <object id="1" x="0" y="0" width="16" height="16"/>
   </objectgroup>
  </tile>
  <tile id="758">
   <objectgroup draworder="index" id="2">
    <object id="8" x="0" y="16">
     <polygon points="0,0 16,0 16.0078,-6 5,-16 0,-16"/>
    </object>
   </objectgroup>
  </tile>
  <tile id="764">
   <objectgroup draworder="index" id="2">
    <object id="1" x="12" y="0" width="4" height="7"/>
   </objectgroup>
  </tile>
  <tile id="765">
   <objectgroup draworder="index" id="2">
    <object id="1" x="0" y="0" width="16" height="16"/>
   </objectgroup>
  </tile>
  <tile id="822">
   <objectgroup draworder="index" id="2">
    <object id="1" x="4" y="0" width="12" height="16"/>
   </objectgroup>
  </tile>
  <tile id="843">
   <objectgroup draworder="index" id="2">
    <object id="1" x="4" y="0" width="12" height="16"/>
   </objectgroup>
  </tile>
  <tile id="861">
   <objectgroup draworder="index" id="2">
    <object id="1" x="12" y="0" width="4" height="7"/>
   </objectgroup>
  </tile>
  <tile id="862">
   <objectgroup draworder="index" id="2">
    <object id="1" x="0" y="0" width="16" height="16"/>
   </objectgroup>
  </tile>
  <tile id="882">
   <objectgroup draworder="index" id="2">
    <object id="1" x="12" y="0" width="4" height="7"/>
   </objectgroup>
  </tile>
  <tile id="883">
   <objectgroup draworder="index" id="2">
    <object id="1" x="0" y="0" width="16" height="16"/>
   </objectgroup>
  </tile>
  <tile id="901">
   <objectgroup draworder="index" id="2">
    <object id="1" x="4" y="0" width="12" height="16"/>
   </objectgroup>
  </tile>
  <tile id="922">
   <objectgroup draworder="index" id="2">
    <object id="1" x="4" y="0" width="12" height="16"/>
   </objectgroup>
  </tile>
  <tile id="1496">
   <objectgroup draworder="index" id="2">
    <object id="1" x="2" y="0" width="14" height="16"/>
   </objectgroup>
  </tile>
  <tile id="1497">
   <objectgroup draworder="index" id="2">
    <object id="1" x="0" y="0" width="14" height="16"/>
   </objectgroup>
  </tile>
  <tile id="1535">
   <objectgroup draworder="index" id="2">
    <object id="1" x="0" y="0" width="16" height="16"/>
   </objectgroup>
  </tile>
  <tile id="1536">
   <objectgroup draworder="index" id="2">
    <object id="1" x="0" y="0" width="16" height="16"/>
   </objectgroup>
  </tile>
  <tile id="1574">
   <objectgroup draworder="index" id="2">
    <object id="1" x="6" y="13" width="10" height="3"/>
   </objectgroup>
  </tile>
  <tile id="1575">
   <objectgroup draworder="index" id="2">
    <object id="1" x="0" y="13" width="11" height="3"/>
   </objectgroup>
  </tile>
  <tile id="1613">
   <objectgroup draworder="index" id="2">
    <object id="1" x="2" y="0" width="14" height="16"/>
   </objectgroup>
  </tile>
  <tile id="1614">
   <objectgroup draworder="index" id="2">
    <object id="1" x="0" y="0" width="13" height="16"/>
   </objectgroup>
  </tile>
  <tile id="1964">
   <objectgroup draworder="index" id="2">
    <object id="1" x="0" y="0" width="16" height="16"/>
   </objectgroup>
  </tile>
  <tile id="1965">
   <objectgroup draworder="index" id="2">
    <object id="1" x="0" y="0" width="16" height="9"/>
   </objectgroup>
  </tile>
  <tile id="1966">
   <objectgroup draworder="index" id="2">
    <object id="1" x="0" y="0" width="16" height="15"/>
   </objectgroup>
  </tile>
  <tile id="1967">
   <objectgroup draworder="index" id="2">
    <object id="1" x="0" y="0" width="16" height="13"/>
   </objectgroup>
  </tile>
  <tile id="1968">
   <objectgroup draworder="index" id="2">
    <object id="1" x="0" y="0" width="16" height="9"/>
   </objectgroup>
  </tile>
  <tile id="1969">
   <objectgroup draworder="index" id="2">
    <object id="1" x="0" y="0" width="16" height="16"/>
   </objectgroup>
  </tile>
 </tileset>
 <tileset firstgid="4135" name="tilemap_all_bay" tilewidth="16" tileheight="16" tilecount="2067" columns="39">
  <image source="../Tilesets/tilemap_all_bay.png" width="624" height="848"/>
  <tile id="45">
   <objectgroup draworder="index" id="2">
    <object id="1" x="7" y="0" width="9" height="7"/>
   </objectgroup>
  </tile>
  <tile id="46">
   <objectgroup draworder="index" id="2">
    <object id="1" x="0" y="0" width="16" height="7"/>
   </objectgroup>
  </tile>
  <tile id="47">
   <objectgroup draworder="index" id="2">
    <object id="1" x="0" y="0" width="16" height="7"/>
   </objectgroup>
  </tile>
  <tile id="48">
   <objectgroup draworder="index" id="2">
    <object id="1" x="0" y="0" width="16" height="7"/>
   </objectgroup>
  </tile>
  <tile id="49">
   <objectgroup draworder="index" id="2">
    <object id="1" x="0" y="0" width="16" height="7"/>
   </objectgroup>
  </tile>
  <tile id="50">
   <objectgroup draworder="index" id="2">
    <object id="1" x="0" y="0" width="8" height="7"/>
   </objectgroup>
  </tile>
  <tile id="84">
   <objectgroup draworder="index" id="2">
    <object id="1" x="0" y="0" width="16" height="7"/>
   </objectgroup>
  </tile>
  <tile id="85">
   <objectgroup draworder="index" id="2">
    <object id="1" x="0" y="0" width="16" height="7"/>
   </objectgroup>
  </tile>
  <tile id="86">
   <objectgroup draworder="index" id="2">
    <object id="1" x="0" y="0" width="16" height="7"/>
   </objectgroup>
  </tile>
  <tile id="87">
   <objectgroup draworder="index" id="2">
    <object id="1" x="0" y="0" width="16" height="7"/>
   </objectgroup>
  </tile>
  <tile id="88">
   <objectgroup draworder="index" id="2">
    <object id="1" x="0" y="0" width="16" height="7"/>
   </objectgroup>
  </tile>
  <tile id="89">
   <objectgroup draworder="index" id="2">
    <object id="1" x="0" y="0" width="16" height="7"/>
   </objectgroup>
  </tile>
  <tile id="313">
   <objectgroup draworder="index" id="2">
    <object id="1" x="4" y="8" width="12" height="8"/>
   </objectgroup>
  </tile>
  <tile id="314">
   <objectgroup draworder="index" id="2">
    <object id="1" x="0" y="8" width="12" height="8"/>
   </objectgroup>
  </tile>
  <tile id="315">
   <objectgroup draworder="index" id="2">
    <object id="1" x="8" y="8" width="8" height="8"/>
    <object id="2" x="8" y="8" width="8" height="8"/>
   </objectgroup>
  </tile>
  <tile id="316">
   <objectgroup draworder="index" id="2">
    <object id="1" x="0" y="8" width="11" height="8"/>
    <object id="2" x="0" y="8" width="11" height="8"/>
   </objectgroup>
  </tile>
  <tile id="317">
   <objectgroup draworder="index" id="2">
    <object id="1" x="0" y="8" width="16" height="8"/>
   </objectgroup>
  </tile>
  <tile id="318">
   <objectgroup draworder="index" id="2">
    <object id="1" x="0" y="8" width="16" height="8"/>
   </objectgroup>
  </tile>
  <tile id="322">
   <objectgroup draworder="index" id="2">
    <object id="1" x="11" y="4" width="5" height="12"/>
   </objectgroup>
  </tile>
  <tile id="323">
   <objectgroup draworder="index" id="2">
    <object id="1" x="0" y="4" width="14" height="12"/>
   </objectgroup>
  </tile>
  <tile id="352">
   <objectgroup draworder="index" id="2">
    <object id="1" x="4" y="0" width="12" height="16"/>
   </objectgroup>
  </tile>
  <tile id="353">
   <objectgroup draworder="index" id="2">
    <object id="1" x="0" y="0" width="12" height="16"/>
   </objectgroup>
  </tile>
  <tile id="354">
   <objectgroup draworder="index" id="2">
    <object id="1" x="4" y="0" width="12" height="16"/>
   </objectgroup>
  </tile>
  <tile id="355">
   <objectgroup draworder="index" id="2">
    <object id="1" x="0" y="0" width="12" height="16"/>
    <object id="2" x="0" y="0" width="12" height="16"/>
   </objectgroup>
  </tile>
  <tile id="356">
   <objectgroup draworder="index" id="2">
    <object id="1" x="0" y="0" width="16" height="16"/>
   </objectgroup>
  </tile>
  <tile id="357">
   <objectgroup draworder="index" id="2">
    <object id="1" x="0" y="0" width="16" height="16"/>
   </objectgroup>
  </tile>
  <tile id="359">
   <objectgroup draworder="index" id="2">
    <object id="1" x="0" y="2" width="16" height="14"/>
   </objectgroup>
  </tile>
  <tile id="360">
   <objectgroup draworder="index" id="2">
    <object id="1" x="0" y="2" width="16" height="14"/>
   </objectgroup>
  </tile>
  <tile id="361">
   <objectgroup draworder="index" id="2">
    <object id="1" x="2" y="4" width="14" height="12"/>
   </objectgroup>
  </tile>
  <tile id="362">
   <objectgroup draworder="index" id="2">
    <object id="1" x="0" y="4" width="14" height="12"/>
   </objectgroup>
  </tile>
  <tile id="393">
   <objectgroup draworder="index" id="2">
    <object id="1" x="4" y="4" width="12" height="12"/>
   </objectgroup>
  </tile>
  <tile id="394">
   <objectgroup draworder="index" id="2">
    <object id="1" x="0" y="2" width="12" height="14"/>
   </objectgroup>
  </tile>
  <tile id="395">
   <objectgroup draworder="index" id="2">
    <object id="1" x="0" y="8" width="16" height="8"/>
   </objectgroup>
  </tile>
  <tile id="396">
   <objectgroup draworder="index" id="2">
    <object id="1" x="0" y="8" width="16" height="8"/>
   </objectgroup>
  </tile>
  <tile id="398">
   <objectgroup draworder="index" id="2">
    <object id="1" x="0" y="1" width="16" height="15"/>
   </objectgroup>
  </tile>
  <tile id="399">
   <objectgroup draworder="index" id="2">
    <object id="1" x="0" y="1" width="16" height="15"/>
   </objectgroup>
  </tile>
  <tile id="400">
   <objectgroup draworder="index" id="2">
    <object id="1" x="4" y="1" width="12" height="15"/>
   </objectgroup>
  </tile>
  <tile id="401">
   <objectgroup draworder="index" id="2">
    <object id="1" x="0" y="1" width="11" height="15"/>
   </objectgroup>
  </tile>
  <tile id="432">
   <objectgroup draworder="index" id="2">
    <object id="1" x="4" y="3" width="12" height="13"/>
   </objectgroup>
  </tile>
  <tile id="433">
   <objectgroup draworder="index" id="2">
    <object id="1" x="0" y="3" width="12" height="13"/>
   </objectgroup>
  </tile>
  <tile id="434">
   <objectgroup draworder="index" id="2">
    <object id="1" x="0" y="0" width="16" height="16"/>
   </objectgroup>
  </tile>
  <tile id="435">
   <objectgroup draworder="index" id="2">
    <object id="1" x="0" y="0" width="16" height="16"/>
   </objectgroup>
  </tile>
  <tile id="437">
   <objectgroup draworder="index" id="2">
    <object id="1" x="0" y="3" width="16" height="13"/>
   </objectgroup>
  </tile>
  <tile id="438">
   <objectgroup draworder="index" id="2">
    <object id="1" x="0" y="1" width="16" height="15"/>
   </objectgroup>
  </tile>
  <tile id="439">
   <objectgroup draworder="index" id="2">
    <object id="1" x="4" y="1" width="12" height="15"/>
   </objectgroup>
  </tile>
  <tile id="440">
   <objectgroup draworder="index" id="2">
    <object id="1" x="0" y="1" width="11" height="15"/>
   </objectgroup>
  </tile>
  <tile id="443">
   <objectgroup draworder="index" id="2">
    <object id="1" x="0" y="0" width="16" height="16"/>
   </objectgroup>
  </tile>
  <tile id="446">
   <objectgroup draworder="index" id="2">
    <object id="1" x="0" y="0" width="16" height="16"/>
   </objectgroup>
  </tile>
  <tile id="481">
   <objectgroup draworder="index" id="2">
    <object id="1" x="0" y="0" width="16" height="16"/>
   </objectgroup>
  </tile>
  <tile id="482">
   <objectgroup draworder="index" id="2">
    <object id="1" x="0" y="0" width="16" height="10"/>
   </objectgroup>
  </tile>
  <tile id="483">
   <objectgroup draworder="index" id="2">
    <object id="2" x="0" y="0" width="16" height="16"/>
   </objectgroup>
  </tile>
  <tile id="484">
   <objectgroup draworder="index" id="2">
    <object id="2" x="0" y="0" width="16" height="16"/>
   </objectgroup>
  </tile>
  <tile id="485">
   <objectgroup draworder="index" id="2">
    <object id="1" x="0" y="0" width="16" height="10"/>
   </objectgroup>
  </tile>
  <tile id="486">
   <objectgroup draworder="index" id="2">
    <object id="1" x="0" y="0" width="16" height="16"/>
   </objectgroup>
  </tile>
  <tile id="508">
   <objectgroup draworder="index" id="2">
    <object id="1" x="2" y="8" width="14" height="8"/>
   </objectgroup>
  </tile>
  <tile id="509">
   <objectgroup draworder="index" id="2">
    <object id="1" x="0" y="8" width="14" height="8"/>
   </objectgroup>
  </tile>
  <tile id="510">
   <objectgroup draworder="index" id="2">
    <object id="1" x="2" y="8" width="14" height="8"/>
   </objectgroup>
  </tile>
  <tile id="511">
   <objectgroup draworder="index" id="2">
    <object id="1" x="0" y="8" width="14" height="8"/>
   </objectgroup>
  </tile>
  <tile id="512">
   <objectgroup draworder="index" id="2">
    <object id="1" x="11" y="5" width="5" height="11"/>
    <object id="2" x="11" y="5" width="5" height="11"/>
   </objectgroup>
  </tile>
  <tile id="513">
   <objectgroup draworder="index" id="2">
    <object id="1" x="0" y="0" width="16" height="16"/>
   </objectgroup>
  </tile>
  <tile id="514">
   <objectgroup draworder="index" id="2">
    <object id="1" x="0" y="1" width="12" height="15"/>
   </objectgroup>
  </tile>
  <tile id="515">
   <objectgroup draworder="index" id="2">
    <object id="1" x="2" y="0" width="14" height="16"/>
   </objectgroup>
  </tile>
  <tile id="516">
   <objectgroup draworder="index" id="2">
    <object id="1" x="0" y="2" width="5" height="14"/>
   </objectgroup>
  </tile>
  <tile id="517">
   <objectgroup draworder="index" id="2">
    <object id="1" x="1" y="0" width="15" height="16"/>
   </objectgroup>
  </tile>
  <tile id="518">
   <objectgroup draworder="index" id="2">
    <object id="1" x="0" y="4" width="6" height="12"/>
   </objectgroup>
  </tile>
  <tile id="547">
   <objectgroup draworder="index" id="2">
    <object id="1" x="2" y="0" width="14" height="16"/>
   </objectgroup>
  </tile>
  <tile id="548">
   <objectgroup draworder="index" id="2">
    <object id="1" x="0" y="0" width="14" height="16"/>
   </objectgroup>
  </tile>
  <tile id="549">
   <objectgroup draworder="index" id="2">
    <object id="1" x="2" y="0" width="14" height="16"/>
   </objectgroup>
  </tile>
  <tile id="550">
   <objectgroup draworder="index" id="2">
    <object id="1" x="0" y="0" width="14" height="16"/>
   </objectgroup>
  </tile>
  <tile id="551">
   <objectgroup draworder="index" id="2">
    <object id="1" x="11" y="0" width="5" height="15"/>
   </objectgroup>
  </tile>
  <tile id="552">
   <objectgroup draworder="index" id="2">
    <object id="1" x="0" y="0" width="16" height="16"/>
   </objectgroup>
  </tile>
  <tile id="553">
   <objectgroup draworder="index" id="2">
    <object id="1" x="0" y="0" width="12" height="16"/>
   </objectgroup>
  </tile>
  <tile id="554">
   <objectgroup draworder="index" id="2">
    <object id="1" x="0" y="0" width="16" height="16"/>
    <object id="2" x="0" y="0" width="16" height="16"/>
   </objectgroup>
  </tile>
  <tile id="555">
   <objectgroup draworder="index" id="2">
    <object id="1" x="0" y="0" width="7" height="16"/>
   </objectgroup>
  </tile>
  <tile id="556">
   <objectgroup draworder="index" id="2">
    <object id="1" x="1" y="0" width="15" height="14"/>
   </objectgroup>
  </tile>
  <tile id="557">
   <objectgroup draworder="index" id="2">
    <object id="1" x="0" y="0" width="6" height="13"/>
   </objectgroup>
  </tile>
  <tile id="684">
   <objectgroup draworder="index" id="2">
    <object id="1" x="0" y="1" width="16" height="15"/>
   </objectgroup>
  </tile>
  <tile id="685">
   <objectgroup draworder="index" id="2">
    <object id="1" x="0" y="1" width="16" height="15"/>
   </objectgroup>
  </tile>
  <tile id="686">
   <objectgroup draworder="index" id="2">
    <object id="1" x="0" y="1" width="16" height="15"/>
   </objectgroup>
  </tile>
  <tile id="687">
   <objectgroup draworder="index" id="2">
    <object id="1" x="0" y="1" width="16" height="15"/>
   </objectgroup>
  </tile>
  <tile id="696">
   <objectgroup draworder="index" id="2">
    <object id="1" x="0" y="1" width="16" height="15"/>
   </objectgroup>
  </tile>
  <tile id="697">
   <objectgroup draworder="index" id="2">
    <object id="1" x="0" y="1" width="16" height="15"/>
   </objectgroup>
  </tile>
  <tile id="698">
   <objectgroup draworder="index" id="2">
    <object id="1" x="0" y="1" width="16" height="15"/>
   </objectgroup>
  </tile>
  <tile id="699">
   <objectgroup draworder="index" id="2">
    <object id="1" x="0" y="1" width="16" height="15"/>
   </objectgroup>
  </tile>
  <tile id="716">
   <objectgroup draworder="index" id="2">
    <object id="1" x="6" y="0" width="10" height="9"/>
   </objectgroup>
  </tile>
  <tile id="898">
   <objectgroup draworder="index" id="2">
    <object id="2" x="0" y="0" width="16" height="16"/>
   </objectgroup>
  </tile>
  <tile id="899">
   <objectgroup draworder="index" id="2">
    <object id="1" x="0" y="16">
     <polyline points="0,0 16,0 0,-16 0,0"/>
    </object>
   </objectgroup>
  </tile>
  <tile id="904">
   <objectgroup draworder="index" id="2">
    <object id="1" x="16" y="16">
     <polyline points="0,0 0,-16 -16,0 0,0"/>
    </object>
   </objectgroup>
  </tile>
  <tile id="905">
   <objectgroup draworder="index" id="2">
    <object id="2" x="0" y="0" width="16" height="16"/>
   </objectgroup>
  </tile>
  <tile id="937">
   <objectgroup draworder="index" id="2">
    <object id="1" x="1" y="0" width="15" height="16"/>
   </objectgroup>
  </tile>
  <tile id="938">
   <objectgroup draworder="index" id="2">
    <object id="1" x="0" y="0" width="16" height="16"/>
   </objectgroup>
  </tile>
  <tile id="939">
   <objectgroup draworder="index" id="2">
    <object id="2" x="0" y="0" width="16" height="16"/>
   </objectgroup>
  </tile>
  <tile id="940">
   <objectgroup draworder="index" id="2">
    <object id="2" x="0" y="0" width="16" height="16"/>
   </objectgroup>
  </tile>
  <tile id="941">
   <objectgroup draworder="index" id="2">
    <object id="2" x="0" y="0" width="16" height="16"/>
   </objectgroup>
  </tile>
  <tile id="942">
   <objectgroup draworder="index" id="2">
    <object id="2" x="0" y="0" width="16" height="16"/>
   </objectgroup>
  </tile>
  <tile id="943">
   <objectgroup draworder="index" id="2">
    <object id="1" x="0" y="0" width="16" height="16"/>
   </objectgroup>
  </tile>
  <tile id="944">
   <objectgroup draworder="index" id="2">
    <object id="1" x="0" y="0" width="16" height="16"/>
   </objectgroup>
  </tile>
  <tile id="976">
   <objectgroup draworder="index" id="2">
    <object id="1" x="0" y="0" width="16" height="16"/>
   </objectgroup>
  </tile>
  <tile id="983">
   <objectgroup draworder="index" id="2">
    <object id="1" x="0" y="0" width="16" height="16"/>
   </objectgroup>
  </tile>
  <tile id="1015">
   <objectgroup draworder="index" id="2">
    <object id="1" x="0" y="0" width="16" height="16"/>
   </objectgroup>
  </tile>
  <tile id="1022">
   <objectgroup draworder="index" id="2">
    <object id="1" x="0" y="0" width="15" height="16"/>
   </objectgroup>
  </tile>
  <tile id="1055">
   <objectgroup draworder="index" id="2">
    <object id="1" x="0" y="0" width="16" height="16"/>
   </objectgroup>
  </tile>
  <tile id="1056">
   <objectgroup draworder="index" id="2">
    <object id="1" x="0" y="0" width="16" height="16"/>
   </objectgroup>
  </tile>
  <tile id="1057">
   <objectgroup draworder="index" id="2">
    <object id="1" x="0" y="0" width="16" height="16"/>
   </objectgroup>
  </tile>
  <tile id="1058">
   <objectgroup draworder="index" id="2">
    <object id="1" x="0" y="0" width="16" height="16"/>
   </objectgroup>
  </tile>
  <tile id="1059">
   <objectgroup draworder="index" id="2">
    <object id="1" x="0" y="0" width="16" height="16"/>
   </objectgroup>
  </tile>
  <tile id="1060">
   <objectgroup draworder="index" id="2">
    <object id="1" x="0" y="0" width="16" height="16"/>
   </objectgroup>
  </tile>
  <tile id="1460">
   <objectgroup draworder="index" id="2">
    <object id="1" x="0" y="9" width="16" height="7"/>
   </objectgroup>
  </tile>
  <tile id="1461">
   <objectgroup draworder="index" id="2">
    <object id="1" x="0" y="8" width="16" height="8"/>
   </objectgroup>
  </tile>
  <tile id="1462">
   <objectgroup draworder="index" id="2">
    <object id="1" x="0" y="10" width="16" height="6"/>
   </objectgroup>
  </tile>
  <tile id="1499">
   <objectgroup draworder="index" id="2">
    <object id="1" x="0" y="0" width="16" height="9"/>
   </objectgroup>
  </tile>
  <tile id="1500">
   <objectgroup draworder="index" id="2">
    <object id="1" x="0" y="0" width="16" height="10"/>
    <object id="2" x="0" y="0" width="16" height="10"/>
   </objectgroup>
  </tile>
  <tile id="1501">
   <objectgroup draworder="index" id="2">
    <object id="1" x="0" y="0" width="16" height="8"/>
   </objectgroup>
  </tile>
  <tile id="1538">
   <objectgroup draworder="index" id="2">
    <object id="1" x="0" y="9" width="16" height="7"/>
   </objectgroup>
  </tile>
  <tile id="1539">
   <objectgroup draworder="index" id="2">
    <object id="1" x="0" y="8" width="16" height="8"/>
   </objectgroup>
  </tile>
  <tile id="1540">
   <objectgroup draworder="index" id="2">
    <object id="1" x="0" y="10" width="16" height="6"/>
   </objectgroup>
  </tile>
  <tile id="1548">
   <objectgroup draworder="index" id="2">
    <object id="1" x="0" y="0" width="16" height="16"/>
   </objectgroup>
  </tile>
  <tile id="1549">
   <objectgroup draworder="index" id="2">
    <object id="1" x="0" y="0" width="16" height="16"/>
   </objectgroup>
  </tile>
  <tile id="1550">
   <objectgroup draworder="index" id="2">
    <object id="1" x="0" y="0" width="16" height="16"/>
   </objectgroup>
  </tile>
  <tile id="1552">
   <objectgroup draworder="index" id="2">
    <object id="1" x="0" y="0" width="16" height="16"/>
   </objectgroup>
  </tile>
  <tile id="1553">
   <objectgroup draworder="index" id="2">
    <object id="1" x="0" y="0" width="16" height="16"/>
   </objectgroup>
  </tile>
  <tile id="1554">
   <objectgroup draworder="index" id="2">
    <object id="1" x="0" y="0" width="16" height="16"/>
   </objectgroup>
  </tile>
  <tile id="1577">
   <objectgroup draworder="index" id="2">
    <object id="1" x="0" y="0" width="16" height="16"/>
   </objectgroup>
  </tile>
  <tile id="1578">
   <objectgroup draworder="index" id="2">
    <object id="1" x="0" y="0" width="16" height="16"/>
   </objectgroup>
  </tile>
  <tile id="1579">
   <objectgroup draworder="index" id="2">
    <object id="1" x="0" y="0" width="16" height="8"/>
   </objectgroup>
  </tile>
  <tile id="1627">
   <objectgroup draworder="index" id="2">
    <object id="1" x="4" y="0" width="12" height="16"/>
   </objectgroup>
  </tile>
  <tile id="1628">
   <objectgroup draworder="index" id="2">
    <object id="1" x="0" y="0" width="16" height="16"/>
   </objectgroup>
  </tile>
  <tile id="1629">
   <objectgroup draworder="index" id="2">
    <object id="1" x="0" y="0" width="16" height="8"/>
   </objectgroup>
  </tile>
  <tile id="1630">
   <objectgroup draworder="index" id="2">
    <object id="1" x="0" y="0" width="16" height="8"/>
   </objectgroup>
  </tile>
  <tile id="1631">
   <objectgroup draworder="index" id="2">
    <object id="1" x="0" y="0" width="16" height="16"/>
   </objectgroup>
  </tile>
  <tile id="1632">
   <objectgroup draworder="index" id="2">
    <object id="1" x="0" y="0" width="12" height="16"/>
   </objectgroup>
  </tile>
  <tile id="1656">
   <objectgroup draworder="index" id="2">
    <object id="1" x="0" y="0" width="16" height="16"/>
   </objectgroup>
  </tile>
  <tile id="1657">
   <objectgroup draworder="index" id="2">
    <object id="1" x="0" y="0" width="9" height="16"/>
   </objectgroup>
  </tile>
  <tile id="1695">
   <objectgroup draworder="index" id="2">
    <object id="1" x="0" y="0" width="16" height="16"/>
   </objectgroup>
  </tile>
  <tile id="1696">
   <objectgroup draworder="index" id="2">
    <object id="1" x="0" y="0" width="9" height="16"/>
   </objectgroup>
  </tile>
  <tile id="1808">
   <objectgroup draworder="index" id="2">
    <object id="1" x="0" y="0" width="16" height="16"/>
   </objectgroup>
  </tile>
  <tile id="1809">
   <objectgroup draworder="index" id="2">
    <object id="1" x="0" y="0" width="16" height="16"/>
   </objectgroup>
  </tile>
  <tile id="1810">
   <objectgroup draworder="index" id="2">
    <object id="1" x="0" y="0" width="16" height="16"/>
   </objectgroup>
  </tile>
  <tile id="1811">
   <objectgroup draworder="index" id="2">
    <object id="1" x="0" y="0" width="16" height="16"/>
   </objectgroup>
  </tile>
  <tile id="1812">
   <objectgroup draworder="index" id="2">
    <object id="1" x="0" y="0" width="16" height="16"/>
   </objectgroup>
  </tile>
  <tile id="1813">
   <objectgroup draworder="index" id="2">
    <object id="1" x="0" y="0" width="16" height="16"/>
   </objectgroup>
  </tile>
  <tile id="1926">
   <objectgroup draworder="index" id="2">
    <object id="1" x="0" y="0" width="16" height="16"/>
   </objectgroup>
  </tile>
  <tile id="1927">
   <objectgroup draworder="index" id="2">
    <object id="1" x="0" y="0" width="16" height="13"/>
   </objectgroup>
  </tile>
  <tile id="1928">
   <objectgroup draworder="index" id="2">
    <object id="1" x="0" y="0" width="16" height="13"/>
   </objectgroup>
  </tile>
  <tile id="1929">
   <objectgroup draworder="index" id="2">
    <object id="1" x="0" y="0" width="16" height="13"/>
   </objectgroup>
  </tile>
  <tile id="1930">
   <objectgroup draworder="index" id="2">
    <object id="1" x="0" y="0" width="14" height="16"/>
   </objectgroup>
  </tile>
  <tile id="1932">
   <objectgroup draworder="index" id="2">
    <object id="1" x="0" y="0" width="16" height="16"/>
   </objectgroup>
  </tile>
  <tile id="1933">
   <objectgroup draworder="index" id="2">
    <object id="1" x="0" y="0" width="16" height="12"/>
   </objectgroup>
  </tile>
  <tile id="1934">
   <objectgroup draworder="index" id="2">
    <object id="1" x="0" y="0" width="16" height="12"/>
   </objectgroup>
  </tile>
  <tile id="1935">
   <objectgroup draworder="index" id="2">
    <object id="1" x="0" y="0" width="16" height="12"/>
   </objectgroup>
  </tile>
  <tile id="1936">
   <objectgroup draworder="index" id="2">
    <object id="1" x="0" y="0" width="16" height="12"/>
   </objectgroup>
  </tile>
  <tile id="1937">
   <objectgroup draworder="index" id="2">
    <object id="1" x="0" y="0" width="16" height="12"/>
   </objectgroup>
  </tile>
  <tile id="1938">
   <objectgroup draworder="index" id="2">
    <object id="1" x="0" y="0" width="16" height="12"/>
   </objectgroup>
  </tile>
  <tile id="1939">
   <objectgroup draworder="index" id="2">
    <object id="1" x="0" y="0" width="16" height="16"/>
   </objectgroup>
  </tile>
 </tileset>
 <layer id="3" name="BackgroundNoTargets" width="30" height="20">
  <data encoding="csv">
   <chunk x="32" y="-16" width="16" height="16">
0,0,0,0,0,0,0,0,0,0,0,0,0,0,0,0,
0,0,0,0,0,0,0,0,0,0,0,0,0,0,0,0,
0,0,0,0,0,0,0,0,0,0,0,0,0,0,0,0,
0,0,0,0,0,0,0,0,0,0,0,0,0,0,0,0,
0,0,0,0,0,0,0,0,0,0,0,0,0,0,0,0,
0,0,0,0,0,0,0,0,0,0,0,0,0,0,0,0,
0,0,0,0,0,0,0,0,0,0,0,0,0,0,0,0,
0,0,0,0,0,0,0,0,0,0,0,0,0,0,0,0,
0,0,0,0,0,0,0,0,0,0,0,0,0,0,0,0,
0,0,0,0,0,0,0,0,0,0,0,0,0,0,0,0,
0,0,0,0,0,0,0,0,0,0,0,0,0,0,0,0,
0,0,0,0,0,0,0,0,0,0,0,0,0,0,0,0,
0,0,0,0,0,0,0,0,0,0,0,0,0,0,0,0,
0,0,0,0,0,0,0,0,0,0,0,0,0,0,0,0,
0,0,0,0,0,0,0,0,0,0,0,0,0,0,0,0,
0,0,0,0,0,0,0,0,4292,0,0,4292,0,0,0,4292
</chunk>
   <chunk x="48" y="-16" width="16" height="16">
0,0,0,0,0,0,0,0,0,0,0,0,0,0,0,0,
0,0,0,0,0,0,0,0,0,0,0,0,0,0,0,0,
0,0,0,0,0,0,0,0,0,0,0,0,0,0,0,0,
0,0,0,0,0,0,0,0,0,0,0,0,0,0,0,0,
0,0,0,0,0,0,0,0,0,0,0,0,0,0,0,0,
0,0,0,0,0,0,0,0,0,0,0,0,0,0,0,0,
0,0,0,0,0,0,0,0,0,0,0,0,0,0,0,0,
0,0,0,0,0,0,0,0,0,0,0,0,0,0,0,0,
0,0,0,0,0,0,0,0,0,0,0,0,0,0,0,0,
0,0,0,0,0,0,0,0,0,0,0,0,0,0,0,0,
0,0,0,0,0,0,0,0,0,0,0,0,0,0,0,0,
0,0,0,0,0,0,0,0,0,0,0,0,0,0,0,0,
0,0,0,0,0,0,0,0,0,0,0,0,0,0,0,0,
0,0,0,0,0,0,0,0,0,0,0,0,0,0,0,0,
0,0,0,0,0,0,0,0,0,0,4292,0,0,4292,0,0,
0,0,0,4292,0,0,4292,0,0,0,4370,4372,4372,4370,4372,4372
</chunk>
   <chunk x="64" y="-16" width="16" height="16">
0,0,0,0,0,0,0,0,0,0,0,0,0,0,0,0,
0,0,0,0,0,0,0,0,0,0,0,0,0,0,0,0,
0,0,0,0,0,0,0,0,0,0,0,0,0,0,0,0,
0,0,0,0,0,0,0,0,0,0,0,0,0,0,0,0,
0,0,0,0,0,0,0,0,0,0,0,0,0,0,0,0,
0,0,0,0,0,0,0,0,0,0,0,0,0,0,0,0,
0,0,0,0,0,0,0,0,0,0,0,0,0,0,0,0,
0,0,0,0,0,0,0,0,0,0,0,0,0,0,0,0,
0,0,0,0,0,0,0,0,0,0,0,0,0,0,0,0,
0,0,0,0,0,0,0,0,0,0,0,0,0,0,0,0,
0,0,0,0,0,0,0,0,0,0,0,0,0,0,0,0,
0,0,0,0,0,0,0,0,0,0,0,0,0,0,0,0,
0,0,0,0,0,0,0,0,0,0,0,0,0,0,0,0,
0,0,0,0,0,0,0,0,0,0,0,0,0,0,0,0,
0,4292,0,0,0,4292,0,0,4292,0,0,0,0,0,0,0,
4372,4370,4372,4372,4372,4370,4372,4372,4370,0,0,0,0,0,0,0
</chunk>
   <chunk x="32" y="0" width="16" height="16">
0,0,0,0,0,0,0,0,4370,4372,4372,4370,4372,4372,4372,4370,
0,0,0,0,0,0,0,0,4331,4333,4333,4332,4333,4333,4333,4332,
0,0,0,0,0,0,0,0,4292,0,0,4292,0,0,0,4292,
0,0,0,0,0,0,0,0,4370,4372,4372,4370,4372,4372,4372,4370,
0,0,0,0,0,0,0,0,4292,0,0,4292,0,0,0,4292,
0,0,0,0,0,0,0,0,4292,0,0,4292,0,0,0,4292,
0,0,0,0,0,0,0,0,0,0,0,0,0,0,0,0,
0,0,0,0,0,0,0,0,0,0,0,0,0,0,0,0,
0,0,0,0,0,0,0,0,0,0,0,0,0,0,0,0,
0,0,0,0,0,0,0,0,0,0,0,0,0,0,0,0,
0,0,0,0,0,0,0,0,0,0,0,0,0,0,0,0,
0,0,0,0,0,0,0,0,0,0,0,0,0,0,0,0,
0,0,0,0,0,0,0,0,0,0,0,0,0,0,0,0,
0,0,0,0,0,0,0,0,0,0,0,0,0,0,0,0,
0,0,0,0,0,0,0,0,0,0,0,0,0,0,0,0,
0,0,0,0,0,0,0,0,0,0,0,0,0,0,0,0
</chunk>
   <chunk x="48" y="0" width="16" height="16">
4372,4372,4372,4370,4372,4372,4370,0,0,0,4331,4333,4333,4332,4333,4333,
4333,4333,4333,4332,4333,4333,4335,0,0,0,4292,0,0,4292,0,0,
0,0,0,4292,0,0,4292,0,0,0,4370,4372,4372,4370,4372,4372,
4372,4372,4372,4370,4372,4372,4370,0,0,0,4292,0,0,4292,0,0,
0,0,0,4292,0,0,4292,0,0,0,4292,0,0,4292,0,0,
0,0,0,4292,0,0,4292,0,0,0,4292,0,0,4292,0,0,
0,0,0,0,0,0,0,0,0,0,0,0,0,0,0,0,
0,0,0,0,0,0,0,0,0,0,0,0,0,0,0,0,
0,0,0,0,0,0,0,0,0,0,0,0,0,0,0,0,
0,0,0,0,0,0,0,0,0,0,0,0,0,0,0,0,
0,0,0,0,0,0,0,0,0,0,0,0,0,0,0,0,
0,0,0,0,0,0,0,0,0,0,0,0,0,0,0,0,
0,0,0,0,0,0,0,0,0,0,0,0,0,0,0,0,
0,0,0,0,0,0,0,0,0,0,0,0,0,0,0,0,
0,0,0,0,0,0,0,0,0,0,0,0,0,0,0,0,
0,0,0,0,0,0,0,0,0,0,0,0,0,0,0,0
</chunk>
   <chunk x="64" y="0" width="16" height="16">
4333,4332,4333,4333,4333,4332,4333,4333,4335,0,0,0,0,0,0,0,
0,4292,0,0,0,4292,0,0,4292,0,0,0,0,0,0,0,
4372,4370,4372,4372,4372,4370,4372,4372,4370,0,0,0,0,0,0,0,
0,4292,0,0,0,4292,0,0,4292,0,0,0,0,0,0,0,
0,4292,0,0,0,4292,0,0,4292,0,0,0,0,0,0,0,
0,4292,0,0,0,4292,0,0,4292,0,0,0,0,0,0,0,
0,0,0,0,0,0,0,0,0,0,0,0,0,0,0,0,
0,0,0,0,0,0,0,0,0,0,0,0,0,0,0,0,
0,0,0,0,0,0,0,0,0,0,0,0,0,0,0,0,
0,0,0,0,0,0,0,0,0,0,0,0,0,0,0,0,
0,0,0,0,0,0,0,0,0,0,0,0,0,0,0,0,
0,0,0,0,0,0,0,0,0,0,0,0,0,0,0,0,
0,0,0,0,0,0,0,0,0,0,0,0,0,0,0,0,
0,0,0,0,0,0,0,0,0,0,0,0,0,0,0,0,
0,0,0,0,0,0,0,0,0,0,0,0,0,0,0,0,
0,0,0,0,0,0,0,0,0,0,0,0,0,0,0,0
</chunk>
  </data>
 </layer>
 <layer id="1" name="Kachelebene 1" width="30" height="20">
  <data encoding="csv">
   <chunk x="80" y="-32" width="16" height="16">
0,0,0,0,0,0,0,0,0,0,0,0,0,0,0,0,
0,0,0,0,0,0,0,0,0,0,0,0,0,0,0,0,
0,0,0,0,0,0,0,0,0,0,0,0,0,0,0,0,
0,0,0,0,0,0,0,0,0,0,0,0,0,0,0,0,
0,0,0,0,0,0,0,0,0,0,0,0,0,0,0,0,
0,0,0,0,0,0,0,0,0,0,0,0,0,0,0,0,
0,0,0,0,0,0,0,0,0,0,0,0,0,0,0,0,
0,0,0,0,0,0,0,0,0,0,0,0,0,0,0,0,
0,0,0,0,0,0,0,0,0,0,0,0,0,0,0,0,
0,0,0,0,0,0,0,0,0,0,0,0,0,0,0,0,
0,0,0,0,0,0,0,0,0,0,0,0,0,0,0,0,
0,0,0,0,0,0,0,0,0,0,0,0,0,0,0,0,
0,0,0,0,0,0,0,0,0,0,0,0,0,0,0,0,
0,0,0,0,0,0,0,0,0,0,0,0,0,0,0,0,
0,0,0,0,0,0,0,0,0,0,0,0,0,0,0,0,
0,0,0,0,0,0,0,2108,0,2110,0,0,0,0,0,0
</chunk>
   <chunk x="32" y="-16" width="16" height="16">
0,0,0,0,0,0,0,0,0,0,0,0,0,0,0,0,
0,0,0,0,0,0,0,0,0,0,0,0,0,0,0,0,
0,0,0,0,0,0,0,0,0,0,0,0,0,0,0,0,
0,0,0,0,0,0,0,0,0,0,0,0,0,0,0,0,
0,0,0,0,0,0,0,0,0,0,0,0,0,0,0,0,
0,0,0,0,0,0,0,0,0,0,0,0,0,0,0,0,
0,0,0,0,0,0,0,0,0,0,0,0,0,0,0,0,
0,0,0,0,0,0,0,0,0,0,0,0,0,0,0,0,
0,0,0,0,0,0,0,0,0,0,0,0,0,0,0,0,
0,0,0,0,0,0,0,0,0,0,0,0,0,0,0,0,
0,0,0,0,0,0,0,0,0,0,0,0,0,0,0,0,
0,0,0,0,0,0,0,0,0,0,0,0,0,0,0,0,
0,0,0,0,0,0,0,0,0,0,0,0,0,0,0,0,
0,0,0,0,0,0,0,0,0,0,0,0,0,0,0,0,
0,0,0,0,0,0,0,0,0,0,0,0,0,0,0,0,
0,0,0,0,0,0,0,0,4219,4219,4219,4219,4219,4219,4219,4219
</chunk>
   <chunk x="48" y="-16" width="16" height="16">
0,0,0,0,0,0,0,0,0,0,0,0,0,0,0,0,
0,0,0,0,0,0,0,0,0,0,0,0,0,0,0,0,
0,0,0,0,0,0,0,0,0,0,0,0,0,0,0,0,
0,0,0,0,0,0,0,0,0,0,0,0,0,0,0,0,
0,0,0,0,0,0,0,0,0,0,0,0,0,0,0,0,
0,0,0,0,0,0,0,0,0,0,0,0,0,0,0,0,
0,0,0,0,0,0,0,0,0,0,0,0,0,0,0,0,
0,0,0,0,0,0,0,0,0,0,0,0,0,0,0,0,
0,0,0,0,0,0,0,0,0,0,0,0,0,0,0,0,
0,0,0,0,0,0,0,0,0,0,0,0,0,0,0,0,
0,0,0,0,0,0,0,0,0,0,0,0,0,0,0,0,
0,0,0,0,0,0,0,0,0,0,0,0,0,0,0,0,
0,0,0,0,0,0,0,0,0,0,0,0,0,0,0,0,
0,0,0,0,0,0,0,0,0,0,0,0,0,0,0,0,
0,0,0,0,0,0,0,0,0,0,4219,4219,4219,4219,4219,4219,
4219,4219,4219,4219,4219,4219,4219,0,0,0,0,0,0,0,0,0
</chunk>
   <chunk x="64" y="-16" width="16" height="16">
0,0,0,0,0,0,0,0,0,0,0,0,0,0,0,0,
0,0,0,0,0,0,0,0,0,0,0,0,0,0,0,0,
0,0,0,0,0,0,0,0,0,0,0,0,0,0,0,0,
0,0,0,0,0,0,0,0,0,0,0,0,0,0,0,0,
0,0,0,0,0,0,0,0,0,0,0,0,0,0,0,0,
0,0,0,0,0,0,0,0,0,0,0,0,0,0,0,0,
0,0,0,0,0,0,0,0,0,0,0,0,0,0,0,0,
0,0,0,0,0,0,0,0,0,0,0,0,0,0,0,0,
0,0,0,0,0,0,0,0,0,0,0,0,0,0,0,0,
0,0,0,0,0,0,0,0,0,0,0,0,0,0,0,0,
0,0,0,0,0,0,0,0,0,0,0,0,0,0,0,0,
0,0,0,0,0,0,0,0,0,0,0,0,0,0,0,0,
0,0,0,0,0,0,0,0,0,0,0,0,0,0,0,0,
0,0,0,0,0,0,0,0,0,0,0,0,0,0,0,0,
4219,4219,4219,4219,4219,4219,4219,4219,4219,0,0,0,2732,2733,2734,2741,
0,0,0,0,0,0,0,0,0,0,0,0,0,2772,2773,2780
</chunk>
   <chunk x="80" y="-16" width="16" height="16">
0,0,0,0,0,0,0,2147,0,2149,0,0,0,0,0,0,
0,0,0,0,0,0,0,2186,0,2188,0,0,0,0,0,0,
0,0,0,0,0,0,0,2225,0,2227,0,0,0,0,0,0,
0,0,0,0,0,0,0,0,0,0,0,0,0,0,0,0,
0,0,0,0,0,0,0,0,0,0,0,0,0,0,0,0,
0,0,0,0,0,0,0,0,2376,0,0,0,0,0,0,0,
0,0,0,0,0,0,0,0,2415,0,0,0,0,0,0,0,
0,0,0,0,0,0,0,0,2454,0,0,0,0,0,0,0,
0,0,0,0,0,0,0,0,2493,0,0,0,0,0,0,0,
0,0,0,0,0,0,0,0,0,0,0,0,0,0,0,0,
0,0,0,0,0,0,0,0,0,0,0,0,0,0,0,0,
0,0,0,0,0,0,0,0,0,0,0,0,0,0,0,0,
0,0,0,0,0,0,0,0,0,0,4530,4531,4532,0,0,0,
0,0,0,0,0,0,0,0,0,0,4569,4570,4574,4575,0,0,
2741,2741,2741,2741,2741,2741,2741,2741,2741,2741,2741,2741,2741,2741,2741,2741,
2780,2780,2780,2780,2779,2780,2780,2780,2780,2780,2780,2780,2780,2780,2779,2780
</chunk>
   <chunk x="96" y="-16" width="16" height="16">
0,0,0,0,0,0,0,0,0,0,0,0,0,0,0,0,
0,0,0,0,0,0,0,0,0,0,0,0,0,0,0,0,
0,0,0,0,0,0,0,0,0,0,0,0,0,0,0,0,
0,0,0,0,0,0,0,0,0,0,0,0,0,0,0,0,
0,0,0,0,0,0,0,0,0,0,0,0,0,0,0,0,
0,0,0,0,0,0,0,0,0,0,0,0,0,0,0,0,
0,0,0,0,0,0,0,0,0,0,0,0,0,0,0,0,
0,0,0,0,0,0,0,0,0,0,0,0,0,0,0,0,
0,0,0,0,0,0,0,0,0,0,0,0,0,0,0,0,
0,0,0,0,0,0,0,0,0,0,0,0,0,0,0,0,
0,0,0,0,0,0,0,0,0,0,0,0,0,0,0,0,
0,0,0,0,0,0,0,0,0,0,0,0,0,0,0,0,
0,0,0,0,0,0,0,0,0,0,0,0,0,0,0,0,
0,0,0,0,0,0,0,0,0,0,0,0,0,0,0,0,
2741,2745,2746,2747,0,0,0,0,0,0,0,0,0,0,0,0,
2780,2823,2785,0,0,0,0,0,0,0,0,0,0,0,0,0
</chunk>
   <chunk x="0" y="0" width="16" height="16">
5033,5076,5074,5075,5075,5074,5075,5076,5077,5075,5076,5076,5076,5077,5075,5075,
5072,5154,5152,5155,5116,5116,5112,5154,5114,5151,5153,5113,5154,5117,5117,5154,
5111,5117,5114,5114,5153,5117,5115,5155,5155,5112,5152,5154,5112,5151,5112,5115,
5150,5116,5112,5115,5152,5155,5155,5152,5113,5116,5151,5152,5154,5116,5156,5156,
5150,5117,5152,5154,5155,5154,5152,5156,5112,5152,5116,5117,5114,5151,5114,5117,
5072,5116,5114,5115,5115,5156,5114,5112,5115,5113,5112,5151,5117,5112,5116,5115,
0,0,0,0,0,0,0,0,0,0,0,0,0,0,0,0,
0,0,0,0,0,0,0,0,0,0,0,0,0,0,0,0,
0,0,0,0,0,0,0,0,0,0,0,0,0,0,0,0,
0,0,0,0,0,0,0,0,0,0,0,0,0,0,0,0,
0,0,0,0,0,0,0,0,0,0,0,0,0,0,0,0,
0,0,0,0,0,0,0,0,0,0,0,0,0,0,0,0,
0,0,0,0,0,0,0,0,0,0,0,0,0,0,0,0,
0,0,0,0,0,0,0,0,0,0,0,0,0,0,0,0,
0,0,0,0,0,0,0,0,0,0,0,0,0,0,0,0,
0,0,0,0,0,0,0,0,0,0,0,0,0,0,0,0
</chunk>
   <chunk x="16" y="0" width="16" height="16">
5040,0,0,0,5033,5076,5074,5075,5075,5074,5075,5076,5077,5075,5076,5076,
5157,0,0,0,5072,5154,5152,5155,5116,5116,5112,5154,5114,5151,5153,5113,
5118,0,0,0,5111,5117,5114,5114,5153,5117,5115,5155,5155,5112,5152,5154,
5118,0,0,0,5150,5116,5112,5115,5152,5155,5155,5152,5113,5116,5151,5152,
5118,0,0,0,5150,5117,5152,5154,5155,5154,5152,5156,5112,5152,5116,5117,
5079,0,0,0,5072,5116,5114,5115,5115,5156,5114,5112,5115,5113,5112,5151,
0,0,0,0,0,0,0,0,0,0,0,0,0,0,0,0,
0,0,0,0,0,0,0,0,0,0,0,0,0,0,0,0,
0,0,0,0,0,0,0,0,0,0,0,0,0,0,0,0,
0,0,0,0,0,0,0,0,0,0,0,0,0,0,0,0,
0,0,0,0,0,0,0,0,0,0,0,0,0,0,0,0,
0,0,0,0,0,0,0,0,0,0,0,0,0,0,0,0,
0,0,0,0,0,0,0,0,0,0,0,0,0,0,0,0,
0,0,0,0,0,0,0,0,0,0,0,0,0,0,0,0,
0,0,0,0,0,0,0,0,0,0,0,0,0,0,0,0,
0,0,0,0,0,0,0,0,0,0,0,0,0,0,0,0
</chunk>
   <chunk x="32" y="0" width="16" height="16">
5076,5077,5075,5075,5040,0,0,0,0,0,0,0,0,0,0,0,
5154,5117,5117,5154,5157,0,0,0,0,0,0,0,0,0,0,0,
5112,5151,5112,5115,5118,0,0,0,0,0,0,0,0,0,0,0,
5154,5116,5156,5156,5118,0,0,0,0,0,0,0,0,0,0,0,
5114,5151,5114,5117,5118,0,0,0,0,0,0,0,0,0,0,0,
5117,5112,5116,5115,5079,0,0,0,0,0,0,0,0,0,0,0,
0,0,0,0,0,0,0,0,0,0,0,0,0,0,0,0,
0,0,0,0,0,0,0,0,0,0,0,0,0,0,0,0,
0,0,0,0,0,0,0,0,0,0,0,0,0,0,0,0,
0,0,0,0,0,0,0,0,0,0,0,0,0,0,0,0,
0,0,0,0,0,0,0,0,0,0,0,0,0,0,0,0,
0,0,0,0,0,0,0,0,0,0,0,0,0,0,0,0,
0,0,0,0,0,0,0,0,0,0,0,0,0,0,0,0,
0,0,0,0,0,0,0,0,0,0,0,0,0,0,0,0,
0,0,0,0,0,0,0,0,0,0,0,0,0,0,0,0,
0,0,0,0,0,0,0,0,0,0,0,0,0,0,0,0
</chunk>
   <chunk x="64" y="0" width="16" height="16">
0,0,0,0,0,0,0,0,0,0,0,0,0,2811,2812,2813,
0,0,0,0,0,0,0,0,0,0,0,0,0,0,2890,2891,
0,0,0,0,0,0,0,0,0,0,0,0,0,0,2929,2930,
0,0,0,0,0,0,0,0,0,0,0,0,0,2968,2968,2969,
0,0,0,0,0,0,0,0,0,0,2968,2968,0,0,3008,3008,
0,0,0,0,0,0,0,0,0,0,0,3008,3008,0,0,0,
0,0,0,0,0,0,0,0,0,0,0,0,0,0,0,0,
0,0,0,0,0,0,0,0,0,0,0,0,0,0,0,0,
0,0,0,0,0,0,0,0,0,0,0,0,0,0,0,0,
0,0,0,0,0,0,0,0,0,0,0,0,0,0,0,0,
0,0,0,0,0,0,0,0,0,0,0,0,0,0,0,0,
0,0,0,0,0,0,0,0,0,0,0,0,0,0,0,0,
0,0,0,0,0,0,0,0,0,0,0,0,0,0,0,0,
0,0,0,0,0,0,0,0,0,0,0,0,0,0,0,0,
0,0,0,0,0,0,0,0,0,0,0,0,0,0,0,0,
0,0,0,0,0,0,0,0,0,0,0,0,0,0,0,0
</chunk>
   <chunk x="80" y="0" width="16" height="16">
2819,2780,2780,2780,2780,2780,2780,2780,2780,2780,2780,2780,2780,2780,2780,2780,
2892,2781,2819,2858,2780,2859,2818,2774,2858,2780,2859,2818,2774,2780,2859,2818,
2931,2932,2933,2936,2935,2937,2936,2939,2936,2935,2937,2936,2939,2935,2937,2936,
2970,2971,2972,2975,2974,2976,2975,2978,2975,2974,2976,2975,2978,2974,2976,2975,
3009,3010,3011,3014,3013,3015,3014,3017,3014,3013,3015,3014,3017,3013,3015,3014,
0,0,0,0,0,0,0,0,0,0,0,0,0,0,0,0,
0,0,0,0,0,0,0,0,0,0,0,0,0,0,0,0,
0,0,0,0,0,0,0,0,0,0,0,0,0,0,0,0,
0,0,0,0,0,0,0,0,0,0,0,0,0,0,0,0,
0,0,0,0,0,0,0,0,0,0,0,0,0,0,0,0,
0,0,0,0,0,0,0,0,0,0,0,0,0,0,0,0,
0,0,0,0,0,0,0,0,0,0,0,0,0,0,0,0,
0,0,0,0,0,0,0,0,0,0,0,0,0,0,0,0,
0,0,0,0,0,0,0,0,0,0,0,0,0,0,0,0,
0,0,0,0,0,0,0,0,0,0,0,0,0,0,0,0,
0,0,0,0,0,0,0,0,0,0,0,0,0,0,0,0
</chunk>
   <chunk x="96" y="0" width="16" height="16">
2780,2823,2785,2786,0,0,0,0,0,0,0,0,0,0,0,0,
2774,2901,2902,2903,0,0,0,0,0,0,0,0,0,0,0,0,
2939,2940,2941,2942,0,0,0,0,0,0,0,0,0,0,0,0,
2978,2979,2980,2981,0,0,0,0,0,0,0,0,0,0,0,0,
3017,3018,3019,3020,0,0,0,0,0,0,0,0,0,0,0,0,
0,0,0,0,0,0,0,0,0,0,0,0,0,0,0,0,
0,0,0,0,0,0,0,0,0,0,0,0,0,0,0,0,
0,0,0,0,0,0,0,0,0,0,0,0,0,0,0,0,
0,0,0,0,0,0,0,0,0,0,0,0,0,0,0,0,
0,0,0,0,0,0,0,0,0,0,0,0,0,0,0,0,
0,0,0,0,0,0,0,0,0,0,0,0,0,0,0,0,
0,0,0,0,0,0,0,0,0,0,0,0,0,0,0,0,
0,0,0,0,0,0,0,0,0,0,0,0,0,0,0,0,
0,0,0,0,0,0,0,0,0,0,0,0,0,0,0,0,
0,0,0,0,0,0,0,0,0,0,0,0,0,0,0,0,
0,0,0,0,0,0,0,0,0,0,0,0,0,0,0,0
</chunk>
  </data>
 </layer>
 <layer id="5" name="Masst" width="30" height="20">
  <data encoding="csv">
   <chunk x="80" y="-32" width="16" height="16">
0,0,0,0,0,0,0,0,0,0,0,0,0,0,0,0,
0,0,0,0,0,0,0,0,0,0,0,0,0,0,0,0,
0,0,0,0,0,0,0,0,0,0,0,0,0,0,0,0,
0,0,0,0,0,0,0,0,0,0,0,0,0,0,0,0,
0,0,0,0,0,0,0,0,0,0,0,0,0,0,0,0,
0,0,0,0,0,0,0,0,0,0,0,0,0,0,0,0,
0,0,0,0,0,0,0,0,0,0,0,0,0,0,0,0,
0,0,0,0,0,0,0,0,0,0,0,0,0,0,0,0,
0,0,0,0,0,0,0,0,0,0,0,0,0,0,0,0,
0,0,0,0,0,0,0,0,0,0,0,0,0,0,0,0,
0,0,0,0,0,0,0,0,0,0,0,0,0,0,0,0,
0,0,0,0,0,0,0,0,0,0,0,0,0,0,0,0,
0,0,0,0,0,0,0,0,0,0,0,0,0,0,0,0,
0,0,0,0,0,0,0,0,0,0,0,0,0,0,0,0,
0,0,0,0,0,0,0,0,0,0,0,0,0,0,0,0,
0,0,0,0,0,0,0,0,2109,0,0,0,0,0,0,0
</chunk>
   <chunk x="80" y="-16" width="16" height="16">
0,0,0,0,0,0,0,0,2148,0,0,0,0,0,0,0,
0,0,0,0,0,0,0,0,2187,0,0,0,0,0,0,0,
0,0,0,0,0,0,0,0,2226,0,0,0,0,0,0,0,
0,0,0,0,0,0,0,0,2265,0,0,0,0,0,0,0,
0,0,0,0,0,0,0,0,2304,0,0,0,0,0,0,0,
0,0,0,0,0,0,0,0,2304,0,0,0,0,0,0,0,
0,0,0,0,0,0,0,0,2304,0,0,0,0,0,0,0,
0,0,0,0,0,0,0,0,2304,0,0,0,0,0,0,0,
0,0,0,0,0,0,0,0,2304,0,0,0,0,0,0,0,
0,0,0,0,0,0,0,0,2304,0,0,0,0,0,0,0,
0,0,0,0,0,0,0,0,2382,0,0,0,0,0,0,0,
0,0,0,0,0,0,0,0,2421,0,0,0,0,0,0,0,
0,0,0,0,0,0,0,0,2460,0,0,0,0,0,0,0,
0,0,0,0,0,0,0,0,2499,0,0,0,0,0,0,0,
0,0,0,0,0,0,0,0,0,0,0,0,0,0,0,0,
0,0,0,0,0,0,0,0,0,0,0,0,0,0,0,0
</chunk>
  </data>
 </layer>
 <layer id="4" name="Sails" width="30" height="20">
  <data encoding="csv">
   <chunk x="0" y="-16" width="16" height="16">
0,0,0,0,0,0,0,0,0,0,0,0,0,0,0,0,
0,0,0,0,0,0,0,0,0,0,0,0,0,0,0,0,
0,0,0,0,0,0,0,0,0,0,0,0,0,0,0,0,
0,0,0,0,0,0,0,0,0,0,0,0,0,0,0,0,
0,0,0,0,0,0,0,0,0,0,0,0,0,0,0,0,
0,0,0,0,0,0,0,0,0,0,0,0,0,0,0,0,
0,0,0,0,0,0,0,0,0,0,0,0,0,0,0,0,
0,0,0,0,0,0,0,0,0,0,0,0,0,0,0,0,
0,0,0,0,0,0,0,0,0,0,0,0,0,0,0,0,
0,0,0,0,0,0,0,0,0,0,0,0,0,0,0,0,
0,0,0,0,0,0,0,0,0,0,0,0,0,0,0,0,
0,0,0,0,0,0,0,0,0,0,0,0,0,0,0,0,
0,0,0,0,0,0,0,0,0,0,0,0,0,0,0,0,
0,0,0,0,0,0,0,0,0,0,0,0,0,0,0,0,
0,0,0,0,0,0,0,0,0,0,0,0,0,0,0,0,
0,0,0,0,5436,5437,5438,5439,0,0,0,0,0,0,0,0
</chunk>
   <chunk x="16" y="-16" width="16" height="16">
0,0,0,0,0,0,0,0,0,0,0,0,0,0,0,0,
0,0,0,0,0,0,0,0,0,0,0,0,0,0,0,0,
0,0,0,0,0,0,0,0,0,0,0,0,0,0,0,0,
0,0,0,0,0,0,0,0,0,0,0,0,0,0,0,0,
0,0,0,0,0,0,0,0,0,0,0,0,0,0,0,0,
0,0,0,0,0,0,0,0,0,0,0,0,0,0,0,0,
0,0,0,0,0,0,0,0,0,0,0,0,0,0,0,0,
0,0,0,0,0,0,0,0,0,0,0,0,0,0,0,0,
0,0,0,0,0,0,0,0,0,0,0,0,0,0,0,0,
0,0,0,0,0,0,0,0,0,0,0,0,0,0,0,0,
0,0,0,0,0,0,0,0,0,0,0,0,0,0,0,0,
0,0,0,0,0,0,0,0,0,0,0,0,0,0,0,0,
0,0,0,0,0,0,0,0,0,0,0,0,0,0,0,0,
0,0,0,0,0,0,0,0,0,0,0,0,0,0,0,0,
0,0,0,0,0,0,0,0,0,0,0,0,0,0,0,0,
0,0,0,0,0,0,0,0,0,0,5440,0,0,0,0,0
</chunk>
   <chunk x="64" y="-16" width="16" height="16">
0,0,0,0,0,0,0,0,0,0,0,0,0,0,0,0,
0,0,0,0,0,0,0,0,0,0,0,0,0,0,0,0,
0,0,0,0,0,0,0,0,0,0,0,0,0,0,0,0,
0,0,0,0,0,0,0,0,0,0,0,0,0,0,0,0,
0,0,0,0,0,0,0,0,0,0,0,0,0,0,0,0,
0,0,0,0,0,0,0,0,0,0,0,0,0,0,0,0,
0,0,0,0,0,0,0,0,0,0,0,0,0,0,0,0,
0,0,0,0,0,0,0,0,0,0,0,0,0,0,0,0,
0,0,0,0,0,0,0,0,0,0,0,0,0,0,0,0,
0,0,0,0,0,0,0,0,0,0,0,0,0,0,0,0,
0,0,0,0,0,0,0,0,0,0,0,0,0,0,0,0,
0,0,0,0,0,0,0,0,0,0,0,0,0,0,0,0,
0,0,0,0,0,0,0,0,0,0,0,0,0,0,0,0,
0,0,0,0,0,0,0,0,0,0,0,0,0,0,2694,2695,
0,0,0,0,0,0,0,0,0,0,0,0,0,0,0,0,
0,0,0,0,0,0,0,0,0,0,0,0,0,0,0,3093
</chunk>
   <chunk x="80" y="-16" width="16" height="16">
0,0,0,0,0,0,0,0,0,0,0,0,0,0,0,0,
0,0,0,0,0,0,0,0,0,0,0,0,0,0,0,0,
0,0,0,0,0,0,0,0,0,0,0,0,0,0,0,0,
0,0,0,0,0,0,0,2264,0,2266,0,0,0,0,0,0,
0,0,0,0,2216,2334,2336,2335,2336,2337,2336,2338,2222,0,0,0,
0,0,0,0,2372,2376,2376,2376,2376,2376,2376,2377,0,0,0,0,
0,0,0,0,2411,2415,2415,2415,2415,2415,2415,2416,0,0,0,0,
0,0,0,0,2450,2454,2454,2454,2454,2454,2454,2455,0,0,0,0,
0,0,0,0,2489,2493,2493,2493,2493,2493,2493,2494,0,0,0,0,
0,0,0,0,2528,2529,2532,2532,2532,2532,2532,2533,0,0,0,0,
0,0,0,0,0,0,0,0,0,0,0,0,0,0,0,0,
0,0,0,0,0,0,0,0,0,0,0,0,0,0,0,0,
0,0,0,0,0,0,0,0,0,0,0,0,0,0,0,0,
2696,2697,2702,2702,2702,2703,0,0,0,0,0,0,2694,2695,2696,2697,
0,0,0,0,0,0,0,0,0,0,0,0,0,0,0,0,
3094,0,0,0,0,0,0,0,0,0,0,0,0,0,0,0
</chunk>
   <chunk x="96" y="-16" width="16" height="16">
0,0,0,0,0,0,0,0,0,0,0,0,0,0,0,0,
0,0,0,0,0,0,0,0,0,0,0,0,0,0,0,0,
0,0,0,0,0,0,0,0,0,0,0,0,0,0,0,0,
0,0,0,0,0,0,0,0,0,0,0,0,0,0,0,0,
0,0,0,0,0,0,0,0,0,0,0,0,0,0,0,0,
0,0,0,0,0,0,0,0,0,0,0,0,0,0,0,0,
0,0,0,0,0,0,0,0,0,0,0,0,0,0,0,0,
0,0,0,0,0,0,0,0,0,0,0,0,0,0,0,0,
0,0,0,0,0,0,0,0,0,0,0,0,0,0,0,0,
0,0,0,0,0,0,0,0,0,0,0,0,0,0,0,0,
0,0,0,0,0,0,0,0,0,0,0,0,0,0,0,0,
0,0,0,0,0,0,0,0,0,0,0,0,0,0,0,0,
0,0,0,0,0,0,0,0,0,0,0,0,0,0,0,0,
2698,2699,0,0,0,0,0,0,0,0,0,0,0,0,0,0,
0,0,0,0,0,0,0,0,0,0,0,0,0,0,0,0,
0,0,0,0,0,0,0,0,0,0,0,0,0,0,0,0
</chunk>
   <chunk x="0" y="0" width="16" height="16">
0,0,0,0,0,0,0,0,0,0,0,0,0,0,0,0,
0,5154,5154,5154,5154,5154,5154,5154,5154,5154,5154,5154,5154,5154,5154,5154,
0,5154,5154,5154,5154,5154,5154,5154,5154,5154,5154,5154,5154,5154,5154,5154,
0,5154,5154,5154,5154,5154,5154,5154,5154,5154,5154,5154,5154,5154,5154,5154,
0,5154,5154,5154,5154,5154,5154,5154,5154,5154,5154,5154,5154,5154,5154,5154,
0,5154,5154,5154,5154,5154,5154,5154,5154,5154,5154,5154,5154,5154,5154,5154,
0,0,0,0,0,0,0,0,0,0,0,0,0,0,0,0,
0,0,0,0,0,0,0,0,0,0,0,0,0,0,0,0,
0,0,0,0,0,0,0,0,0,0,0,0,0,0,0,0,
0,0,0,0,0,0,0,0,0,0,0,0,0,0,0,0,
0,0,0,0,0,0,0,0,0,0,0,0,0,0,0,0,
0,0,0,0,0,0,0,0,0,0,0,0,0,0,0,0,
0,0,0,0,0,0,0,0,0,0,0,0,0,0,0,0,
0,0,0,0,0,0,0,0,0,0,0,0,0,0,0,0,
0,0,0,0,0,0,0,0,0,0,0,0,0,0,0,0,
0,0,0,0,0,0,0,0,0,0,0,0,0,0,0,0
</chunk>
   <chunk x="16" y="0" width="16" height="16">
0,0,0,0,0,0,0,0,0,0,0,0,0,0,0,0,
0,0,0,0,0,5154,5154,5154,5154,5154,5154,5154,5154,5154,5154,5154,
0,0,0,0,0,5154,5154,5154,5154,5154,5154,5154,5154,5154,5154,5154,
0,0,0,0,0,5154,5154,5154,5154,5154,5154,5154,5154,5154,5154,5154,
0,0,0,0,0,5154,5154,5154,5154,5154,5154,5154,5154,5154,5154,5154,
0,0,0,0,0,5154,5154,5154,5154,5154,5154,5154,5154,5154,5154,5154,
0,0,0,0,0,0,0,0,0,0,0,0,0,0,0,0,
0,0,0,0,0,0,0,0,0,0,0,0,0,0,0,0,
0,0,0,0,0,0,0,0,0,0,0,0,0,0,0,0,
0,0,0,0,0,0,0,0,0,0,0,0,0,0,0,0,
0,0,0,0,0,0,0,0,0,0,0,0,0,0,0,0,
0,0,0,0,0,0,0,0,0,0,0,0,0,0,0,0,
0,0,0,0,0,0,0,0,0,0,0,0,0,0,0,0,
0,0,0,0,0,0,0,0,0,0,0,0,0,0,0,0,
0,0,0,0,0,0,0,0,0,0,0,0,0,0,0,0,
0,0,0,0,0,0,0,0,0,0,0,0,0,0,0,0
</chunk>
   <chunk x="32" y="0" width="16" height="16">
0,0,0,0,0,0,0,0,0,0,0,0,0,0,0,0,
5154,5154,5154,5154,0,0,0,0,0,0,0,0,0,0,0,0,
5154,5154,5154,5154,0,0,0,0,0,0,0,0,0,0,0,0,
5154,5154,5154,5154,0,0,0,0,0,0,0,0,0,0,0,0,
5154,5154,5154,5154,0,0,0,0,0,0,0,0,0,0,0,0,
5154,5154,5154,5154,0,0,0,0,0,0,0,0,0,0,0,0,
0,0,0,0,0,0,0,0,0,0,0,0,0,0,0,0,
0,0,0,0,0,0,0,0,0,0,0,0,0,0,0,0,
0,0,0,0,0,0,0,0,0,0,0,0,0,0,0,0,
0,0,0,0,0,0,0,0,0,0,0,0,0,0,0,0,
0,0,0,0,0,0,0,0,0,0,0,0,0,0,0,0,
0,0,0,0,0,0,0,0,0,0,0,0,0,0,0,0,
0,0,0,0,0,0,0,0,0,0,0,0,0,0,0,0,
0,0,0,0,0,0,0,0,0,0,0,0,0,0,0,0,
0,0,0,0,0,0,0,0,0,0,0,0,0,0,0,0,
0,0,0,0,0,0,0,0,0,0,0,0,0,0,0,0
</chunk>
   <chunk x="64" y="0" width="16" height="16">
0,0,0,0,0,0,0,0,0,0,0,0,0,0,0,3095,
0,0,0,0,0,0,0,0,0,0,0,0,0,0,0,3134,
0,0,0,0,0,0,0,0,0,0,0,0,0,0,0,3173,
0,0,0,0,0,0,0,0,0,0,0,0,0,0,0,0,
0,0,0,0,0,0,0,0,0,0,0,0,0,0,0,0,
0,0,0,0,0,0,0,0,0,0,0,0,0,0,0,0,
0,0,0,0,0,0,0,0,0,0,0,0,0,0,0,0,
0,0,0,0,0,0,0,0,0,0,0,0,0,0,0,0,
0,0,0,0,0,0,0,0,0,0,0,0,0,0,0,0,
0,0,0,0,0,0,0,0,0,0,0,0,0,0,0,0,
0,0,0,0,0,0,0,0,0,0,0,0,0,0,0,0,
0,0,0,0,0,0,0,0,0,0,0,0,0,0,0,0,
0,0,0,0,0,0,0,0,0,0,0,0,0,0,0,0,
0,0,0,0,0,0,0,0,0,0,0,0,0,0,0,0,
0,0,0,0,0,0,0,0,0,0,0,0,0,0,0,0,
0,0,0,0,0,0,0,0,0,0,0,0,0,0,0,0
</chunk>
   <chunk x="80" y="0" width="16" height="16">
3096,0,0,0,0,0,0,0,0,0,0,0,0,0,0,0,
3135,0,0,0,0,0,0,0,0,0,0,0,0,0,0,0,
3174,0,0,0,0,0,0,0,0,0,0,0,0,0,0,0,
0,0,0,0,0,0,0,0,0,0,0,0,0,0,0,0,
0,0,0,0,0,0,0,0,0,0,0,0,0,0,0,0,
0,0,0,0,0,0,0,0,0,0,0,0,0,0,0,0,
0,0,0,0,0,0,0,0,0,0,0,0,0,0,0,0,
0,0,0,0,0,0,0,0,0,0,0,0,0,0,0,0,
0,0,0,0,0,0,0,0,0,0,0,0,0,0,0,0,
0,0,0,0,0,0,0,0,0,0,0,0,0,0,0,0,
0,0,0,0,0,0,0,0,0,0,0,0,0,0,0,0,
0,0,0,0,0,0,0,0,0,0,0,0,0,0,0,0,
0,0,0,0,0,0,0,0,0,0,0,0,0,0,0,0,
0,0,0,0,0,0,0,0,0,0,0,0,0,0,0,0,
0,0,0,0,0,0,0,0,0,0,0,0,0,0,0,0,
0,0,0,0,0,0,0,0,0,0,0,0,0,0,0,0
</chunk>
  </data>
 </layer>
 <layer id="2" name="Water" width="30" height="20">
  <data encoding="csv">
   <chunk x="0" y="0" width="16" height="16">
0,0,0,0,0,0,0,0,0,0,0,0,0,0,0,0,
0,0,0,0,0,0,0,0,0,0,0,0,0,0,0,0,
5510,5510,5510,5510,5510,5510,5510,5510,5510,5510,5510,5510,5510,5510,5510,5510,
0,0,0,0,0,0,0,0,0,0,0,0,0,0,0,0,
0,0,0,0,0,0,0,0,0,0,0,0,0,0,0,0,
0,0,0,0,0,0,0,0,0,0,0,0,0,0,0,0,
0,0,0,0,0,0,0,0,0,0,0,0,0,0,0,0,
0,0,0,0,0,0,0,0,0,0,0,0,0,0,0,0,
0,0,0,0,0,0,0,0,0,0,0,0,0,0,0,0,
0,0,0,0,0,0,0,0,0,0,0,0,0,0,0,0,
0,0,0,0,0,0,0,0,0,0,0,0,0,0,0,0,
0,0,0,0,0,0,0,0,0,0,0,0,0,0,0,0,
0,0,0,0,0,0,0,0,0,0,0,0,0,0,0,0,
0,0,0,0,0,0,0,0,0,0,0,0,0,0,0,0,
0,0,0,0,0,0,0,0,0,0,0,0,0,0,0,0,
0,0,0,0,0,0,0,0,0,0,0,0,0,0,0,0
</chunk>
   <chunk x="16" y="0" width="16" height="16">
0,0,0,0,0,0,0,0,0,0,0,0,0,0,0,0,
0,0,0,0,0,0,0,0,0,0,0,0,0,0,0,0,
5510,5510,5510,5510,5510,5510,5510,5510,5510,5510,5510,5510,5510,5510,5510,5510,
0,0,0,0,0,0,0,0,0,0,0,0,0,0,0,0,
0,0,0,0,0,0,0,0,0,0,0,0,0,0,0,0,
0,0,0,0,0,0,0,0,0,0,0,0,0,0,0,0,
0,0,0,0,0,0,0,0,0,0,0,0,0,0,0,0,
0,0,0,0,0,0,0,0,0,0,0,0,0,0,0,0,
0,0,0,0,0,0,0,0,0,0,0,0,0,0,0,0,
0,0,0,0,0,0,0,0,0,0,0,0,0,0,0,0,
0,0,0,0,0,0,0,0,0,0,0,0,0,0,0,0,
0,0,0,0,0,0,0,0,0,0,0,0,0,0,0,0,
0,0,0,0,0,0,0,0,0,0,0,0,0,0,0,0,
0,0,0,0,0,0,0,0,0,0,0,0,0,0,0,0,
0,0,0,0,0,0,0,0,0,0,0,0,0,0,0,0,
0,0,0,0,0,0,0,0,0,0,0,0,0,0,0,0
</chunk>
   <chunk x="32" y="0" width="16" height="16">
0,0,0,0,0,0,0,0,0,0,0,0,0,0,0,0,
0,0,0,0,0,0,0,0,0,0,0,0,0,0,0,0,
5510,5510,5510,5510,5510,5510,5510,5510,5510,5510,5510,5510,5510,5510,5510,5510,
0,0,0,0,0,0,0,0,0,0,0,0,0,0,0,0,
0,0,0,0,0,0,0,0,0,0,0,0,0,0,0,0,
0,0,0,0,0,0,0,0,0,0,0,0,0,0,0,0,
0,0,0,0,0,0,0,0,0,0,0,0,0,0,0,0,
0,0,0,0,0,0,0,0,0,0,0,0,0,0,0,0,
0,0,0,0,0,0,0,0,0,0,0,0,0,0,0,0,
0,0,0,0,0,0,0,0,0,0,0,0,0,0,0,0,
0,0,0,0,0,0,0,0,0,0,0,0,0,0,0,0,
0,0,0,0,0,0,0,0,0,0,0,0,0,0,0,0,
0,0,0,0,0,0,0,0,0,0,0,0,0,0,0,0,
0,0,0,0,0,0,0,0,0,0,0,0,0,0,0,0,
0,0,0,0,0,0,0,0,0,0,0,0,0,0,0,0,
0,0,0,0,0,0,0,0,0,0,0,0,0,0,0,0
</chunk>
   <chunk x="48" y="0" width="16" height="16">
0,0,0,0,0,0,0,0,0,0,0,0,0,0,0,0,
0,0,0,0,0,0,0,0,0,0,0,0,0,0,0,0,
5510,5510,5510,5510,5510,5510,5510,5510,5510,5510,5510,5510,5510,5510,5510,5510,
0,0,0,0,0,0,0,0,0,0,0,0,0,0,0,0,
0,0,0,0,0,0,0,0,0,0,0,0,0,0,0,0,
0,0,0,0,0,0,0,0,0,0,0,0,0,0,0,0,
0,0,0,0,0,0,0,0,0,0,0,0,0,0,0,0,
0,0,0,0,0,0,0,0,0,0,0,0,0,0,0,0,
0,0,0,0,0,0,0,0,0,0,0,0,0,0,0,0,
0,0,0,0,0,0,0,0,0,0,0,0,0,0,0,0,
0,0,0,0,0,0,0,0,0,0,0,0,0,0,0,0,
0,0,0,0,0,0,0,0,0,0,0,0,0,0,0,0,
0,0,0,0,0,0,0,0,0,0,0,0,0,0,0,0,
0,0,0,0,0,0,0,0,0,0,0,0,0,0,0,0,
0,0,0,0,0,0,0,0,0,0,0,0,0,0,0,0,
0,0,0,0,0,0,0,0,0,0,0,0,0,0,0,0
</chunk>
   <chunk x="64" y="0" width="16" height="16">
0,0,0,0,0,0,0,0,0,0,0,0,0,0,0,0,
0,0,0,0,0,0,0,0,0,0,0,0,0,0,0,0,
5510,5510,5510,5510,5510,5510,5510,5510,5510,5510,5510,5510,5510,5510,5510,5510,
0,0,0,0,0,0,0,0,0,0,0,0,0,0,0,0,
0,0,0,0,0,0,0,0,0,0,0,0,0,0,0,0,
0,0,0,0,0,0,0,0,0,0,0,0,0,0,0,0,
0,0,0,0,0,0,0,0,0,0,0,0,0,0,0,0,
0,0,0,0,0,0,0,0,0,0,0,0,0,0,0,0,
0,0,0,0,0,0,0,0,0,0,0,0,0,0,0,0,
0,0,0,0,0,0,0,0,0,0,0,0,0,0,0,0,
0,0,0,0,0,0,0,0,0,0,0,0,0,0,0,0,
0,0,0,0,0,0,0,0,0,0,0,0,0,0,0,0,
0,0,0,0,0,0,0,0,0,0,0,0,0,0,0,0,
0,0,0,0,0,0,0,0,0,0,0,0,0,0,0,0,
0,0,0,0,0,0,0,0,0,0,0,0,0,0,0,0,
0,0,0,0,0,0,0,0,0,0,0,0,0,0,0,0
</chunk>
   <chunk x="80" y="0" width="16" height="16">
0,0,0,0,0,0,0,0,0,0,0,0,0,0,0,0,
0,0,0,0,0,0,0,0,0,0,0,0,0,0,0,0,
5510,5510,5510,5510,5510,5510,5510,5510,5510,5510,5510,5510,5510,5510,5510,5510,
0,0,0,0,0,0,0,0,0,0,0,0,0,0,0,0,
0,0,0,0,0,0,0,0,0,0,0,0,0,0,0,0,
0,0,0,0,0,0,0,0,0,0,0,0,0,0,0,0,
0,0,0,0,0,0,0,0,0,0,0,0,0,0,0,0,
0,0,0,0,0,0,0,0,0,0,0,0,0,0,0,0,
0,0,0,0,0,0,0,0,0,0,0,0,0,0,0,0,
0,0,0,0,0,0,0,0,0,0,0,0,0,0,0,0,
0,0,0,0,0,0,0,0,0,0,0,0,0,0,0,0,
0,0,0,0,0,0,0,0,0,0,0,0,0,0,0,0,
0,0,0,0,0,0,0,0,0,0,0,0,0,0,0,0,
0,0,0,0,0,0,0,0,0,0,0,0,0,0,0,0,
0,0,0,0,0,0,0,0,0,0,0,0,0,0,0,0,
0,0,0,0,0,0,0,0,0,0,0,0,0,0,0,0
</chunk>
   <chunk x="96" y="0" width="16" height="16">
0,0,0,0,0,0,0,0,0,0,0,0,0,0,0,0,
0,0,0,0,0,0,0,0,0,0,0,0,0,0,0,0,
5510,5510,5510,5510,5510,5510,5510,5510,5510,5510,5510,5510,5510,5510,5510,5510,
0,0,0,0,0,0,0,0,0,0,0,0,0,0,0,0,
0,0,0,0,0,0,0,0,0,0,0,0,0,0,0,0,
0,0,0,0,0,0,0,0,0,0,0,0,0,0,0,0,
0,0,0,0,0,0,0,0,0,0,0,0,0,0,0,0,
0,0,0,0,0,0,0,0,0,0,0,0,0,0,0,0,
0,0,0,0,0,0,0,0,0,0,0,0,0,0,0,0,
0,0,0,0,0,0,0,0,0,0,0,0,0,0,0,0,
0,0,0,0,0,0,0,0,0,0,0,0,0,0,0,0,
0,0,0,0,0,0,0,0,0,0,0,0,0,0,0,0,
0,0,0,0,0,0,0,0,0,0,0,0,0,0,0,0,
0,0,0,0,0,0,0,0,0,0,0,0,0,0,0,0,
0,0,0,0,0,0,0,0,0,0,0,0,0,0,0,0,
0,0,0,0,0,0,0,0,0,0,0,0,0,0,0,0
</chunk>
   <chunk x="112" y="0" width="16" height="16">
0,0,0,0,0,0,0,0,0,0,0,0,0,0,0,0,
0,0,0,0,0,0,0,0,0,0,0,0,0,0,0,0,
5510,5510,5510,5510,5510,5510,5510,5510,5510,5510,5510,5510,5510,5510,5510,5510,
0,0,0,0,0,0,0,0,0,0,0,0,0,0,0,0,
0,0,0,0,0,0,0,0,0,0,0,0,0,0,0,0,
0,0,0,0,0,0,0,0,0,0,0,0,0,0,0,0,
0,0,0,0,0,0,0,0,0,0,0,0,0,0,0,0,
0,0,0,0,0,0,0,0,0,0,0,0,0,0,0,0,
0,0,0,0,0,0,0,0,0,0,0,0,0,0,0,0,
0,0,0,0,0,0,0,0,0,0,0,0,0,0,0,0,
0,0,0,0,0,0,0,0,0,0,0,0,0,0,0,0,
0,0,0,0,0,0,0,0,0,0,0,0,0,0,0,0,
0,0,0,0,0,0,0,0,0,0,0,0,0,0,0,0,
0,0,0,0,0,0,0,0,0,0,0,0,0,0,0,0,
0,0,0,0,0,0,0,0,0,0,0,0,0,0,0,0,
0,0,0,0,0,0,0,0,0,0,0,0,0,0,0,0
</chunk>
  </data>
 </layer>
</map>
