<?xml version="1.0" encoding="UTF-8"?>
<map version="1.10" tiledversion="1.11.2" orientation="orthogonal" renderorder="right-down" width="50" height="32" tilewidth="16" tileheight="16" infinite="1" nextlayerid="2" nextobjectid="1">
 <properties>
  <property name="originX" type="float" value="0"/>
  <property name="originY" type="float" value="0"/>
 </properties>
 <tileset firstgid="1" name="tielmap_all_inverted" tilewidth="16" tileheight="16" tilecount="2067" columns="39">
  <image source="../Tilesets/tielmap_all_inverted.png" width="624" height="848"/>
 </tileset>
 <tileset firstgid="2068" name="tilemap_all_ship" tilewidth="16" tileheight="16" tilecount="2067" columns="39">
  <image source="../Tilesets/tilemap_all_ship.png" width="624" height="848"/>
  <tile id="642">
   <objectgroup draworder="index" id="2">
    <object id="1" x="3" y="0" width="13" height="16"/>
   </objectgroup>
  </tile>
  <tile id="664">
   <objectgroup draworder="index" id="2">
    <object id="1" x="11" y="0" width="5" height="9"/>
   </objectgroup>
  </tile>
  <tile id="665">
   <objectgroup draworder="index" id="2">
    <object id="4" x="0" y="0" width="16" height="16"/>
   </objectgroup>
  </tile>
  <tile id="666">
   <objectgroup draworder="index" id="2">
    <object id="1" x="0" y="0" width="16" height="16"/>
   </objectgroup>
  </tile>
  <tile id="667">
   <objectgroup draworder="index" id="2">
    <object id="1" x="0" y="0" width="16" height="16"/>
   </objectgroup>
  </tile>
  <tile id="668">
   <objectgroup draworder="index" id="2">
    <object id="1" x="0" y="0" width="16" height="16"/>
   </objectgroup>
  </tile>
  <tile id="669">
   <objectgroup draworder="index" id="2">
    <object id="1" x="0" y="0" width="16" height="16"/>
   </objectgroup>
  </tile>
  <tile id="670">
   <objectgroup draworder="index" id="2">
    <object id="1" x="0" y="0" width="16" height="16"/>
   </objectgroup>
  </tile>
  <tile id="672">
   <objectgroup draworder="index" id="2">
    <object id="1" x="0" y="0" width="16" height="16"/>
   </objectgroup>
  </tile>
  <tile id="673">
   <objectgroup draworder="index" id="2">
    <object id="1" x="0" y="0" width="16" height="16"/>
   </objectgroup>
  </tile>
  <tile id="674">
   <objectgroup draworder="index" id="2">
    <object id="1" x="0" y="0" width="16" height="16"/>
   </objectgroup>
  </tile>
  <tile id="676">
   <objectgroup draworder="index" id="2">
    <object id="1" x="0" y="0" width="16" height="16"/>
   </objectgroup>
  </tile>
  <tile id="677">
   <objectgroup draworder="index" id="2">
    <object id="1" x="0" y="0" width="16" height="16"/>
   </objectgroup>
  </tile>
  <tile id="678">
   <objectgroup draworder="index" id="2">
    <object id="1" x="0" y="0" width="16" height="16"/>
   </objectgroup>
  </tile>
  <tile id="679">
   <objectgroup draworder="index" id="2">
    <object id="1" x="0" y="0" width="5" height="9"/>
   </objectgroup>
  </tile>
  <tile id="681">
   <objectgroup draworder="index" id="2">
    <object id="1" x="0" y="0" width="16" height="16"/>
   </objectgroup>
  </tile>
  <tile id="685">
   <objectgroup draworder="index" id="2">
    <object id="1" x="11" y="0" width="5" height="9"/>
   </objectgroup>
  </tile>
  <tile id="686">
   <objectgroup draworder="index" id="2">
    <object id="1" x="0" y="0" width="16" height="16"/>
   </objectgroup>
  </tile>
  <tile id="687">
   <objectgroup draworder="index" id="2">
    <object id="1" x="0" y="0" width="16" height="16"/>
   </objectgroup>
  </tile>
  <tile id="688">
   <objectgroup draworder="index" id="2">
    <object id="1" x="0" y="0" width="16" height="16"/>
   </objectgroup>
  </tile>
  <tile id="689">
   <objectgroup draworder="index" id="2">
    <object id="1" x="0" y="0" width="16" height="16"/>
   </objectgroup>
  </tile>
  <tile id="690">
   <objectgroup draworder="index" id="2">
    <object id="1" x="0" y="0" width="16" height="16"/>
   </objectgroup>
  </tile>
  <tile id="691">
   <objectgroup draworder="index" id="2">
    <object id="1" x="0" y="0" width="16" height="16"/>
   </objectgroup>
  </tile>
  <tile id="693">
   <objectgroup draworder="index" id="2">
    <object id="1" x="0" y="0" width="16" height="16"/>
   </objectgroup>
  </tile>
  <tile id="694">
   <objectgroup draworder="index" id="2">
    <object id="1" x="0" y="0" width="16" height="16"/>
   </objectgroup>
  </tile>
  <tile id="695">
   <objectgroup draworder="index" id="2">
    <object id="1" x="0" y="0" width="16" height="16"/>
   </objectgroup>
  </tile>
  <tile id="697">
   <objectgroup draworder="index" id="2">
    <object id="1" x="0" y="0" width="16" height="16"/>
   </objectgroup>
  </tile>
  <tile id="698">
   <objectgroup draworder="index" id="2">
    <object id="1" x="0" y="0" width="16" height="16"/>
   </objectgroup>
  </tile>
  <tile id="699">
   <objectgroup draworder="index" id="2">
    <object id="1" x="0" y="0" width="16" height="16"/>
   </objectgroup>
  </tile>
  <tile id="700">
   <objectgroup draworder="index" id="2">
    <object id="1" x="0" y="0" width="5" height="9"/>
   </objectgroup>
  </tile>
  <tile id="758">
   <objectgroup draworder="index" id="2">
    <object id="8" x="0" y="16">
     <polygon points="0,0 16,0 16.0078,-6 5,-16 0,-16"/>
    </object>
   </objectgroup>
  </tile>
 </tileset>
 <tileset firstgid="4135" name="tilemap_all_bay" tilewidth="16" tileheight="16" tilecount="2067" columns="39">
  <image source="../Tilesets/tilemap_all_bay.png" width="624" height="848"/>
  <tile id="45">
   <objectgroup draworder="index" id="2">
    <object id="1" x="7" y="0" width="9" height="7"/>
   </objectgroup>
  </tile>
  <tile id="46">
   <objectgroup draworder="index" id="2">
    <object id="1" x="0" y="0" width="16" height="7"/>
   </objectgroup>
  </tile>
  <tile id="47">
   <objectgroup draworder="index" id="2">
    <object id="1" x="0" y="0" width="16" height="7"/>
   </objectgroup>
  </tile>
  <tile id="48">
   <objectgroup draworder="index" id="2">
    <object id="1" x="0" y="0" width="16" height="7"/>
   </objectgroup>
  </tile>
  <tile id="49">
   <objectgroup draworder="index" id="2">
    <object id="1" x="0" y="0" width="16" height="7"/>
   </objectgroup>
  </tile>
  <tile id="50">
   <objectgroup draworder="index" id="2">
    <object id="1" x="0" y="0" width="8" height="7"/>
   </objectgroup>
  </tile>
  <tile id="84">
   <objectgroup draworder="index" id="2">
    <object id="1" x="0" y="0" width="16" height="7"/>
   </objectgroup>
  </tile>
  <tile id="85">
   <objectgroup draworder="index" id="2">
    <object id="1" x="0" y="0" width="16" height="7"/>
   </objectgroup>
  </tile>
  <tile id="86">
   <objectgroup draworder="index" id="2">
    <object id="1" x="0" y="0" width="16" height="7"/>
   </objectgroup>
  </tile>
  <tile id="87">
   <objectgroup draworder="index" id="2">
    <object id="1" x="0" y="0" width="16" height="7"/>
   </objectgroup>
  </tile>
  <tile id="88">
   <objectgroup draworder="index" id="2">
    <object id="1" x="0" y="0" width="16" height="7"/>
   </objectgroup>
  </tile>
  <tile id="89">
   <objectgroup draworder="index" id="2">
    <object id="1" x="0" y="0" width="16" height="7"/>
   </objectgroup>
  </tile>
  <tile id="684">
   <objectgroup draworder="index" id="2">
    <object id="1" x="0" y="1" width="16" height="15"/>
   </objectgroup>
  </tile>
  <tile id="685">
   <objectgroup draworder="index" id="2">
    <object id="1" x="0" y="1" width="16" height="15"/>
   </objectgroup>
  </tile>
  <tile id="686">
   <objectgroup draworder="index" id="2">
    <object id="1" x="0" y="1" width="16" height="15"/>
   </objectgroup>
  </tile>
  <tile id="687">
   <objectgroup draworder="index" id="2">
    <object id="1" x="0" y="1" width="16" height="15"/>
   </objectgroup>
  </tile>
  <tile id="898">
   <objectgroup draworder="index" id="2">
    <object id="1" x="0" y="0" width="16" height="16"/>
   </objectgroup>
  </tile>
  <tile id="899">
   <objectgroup draworder="index" id="2">
    <object id="1" x="0" y="16">
     <polyline points="0,0 16,0 0,-16 0,0"/>
    </object>
   </objectgroup>
  </tile>
  <tile id="904">
   <objectgroup draworder="index" id="2">
    <object id="1" x="16" y="16">
     <polyline points="0,0 0,-16 -16,0 0,0"/>
    </object>
   </objectgroup>
  </tile>
  <tile id="905">
   <objectgroup draworder="index" id="2">
    <object id="1" x="0" y="0" width="16" height="16"/>
   </objectgroup>
  </tile>
  <tile id="937">
   <objectgroup draworder="index" id="2">
    <object id="1" x="1" y="0" width="15" height="16"/>
   </objectgroup>
  </tile>
  <tile id="938">
   <objectgroup draworder="index" id="2">
    <object id="1" x="0" y="0" width="16" height="16"/>
   </objectgroup>
  </tile>
  <tile id="939">
   <objectgroup draworder="index" id="2">
    <object id="1" x="0" y="0" width="16" height="16"/>
   </objectgroup>
  </tile>
  <tile id="940">
   <objectgroup draworder="index" id="2">
    <object id="1" x="0" y="0" width="16" height="16"/>
   </objectgroup>
  </tile>
  <tile id="941">
   <objectgroup draworder="index" id="2">
    <object id="1" x="0" y="0" width="16" height="16"/>
   </objectgroup>
  </tile>
  <tile id="942">
   <objectgroup draworder="index" id="2">
    <object id="1" x="0" y="0" width="16" height="16"/>
   </objectgroup>
  </tile>
  <tile id="943">
   <objectgroup draworder="index" id="2">
    <object id="1" x="0" y="0" width="16" height="16"/>
   </objectgroup>
  </tile>
  <tile id="944">
   <objectgroup draworder="index" id="2">
    <object id="1" x="0" y="0" width="16" height="16"/>
   </objectgroup>
  </tile>
  <tile id="976">
   <objectgroup draworder="index" id="2">
    <object id="1" x="0" y="0" width="16" height="16"/>
   </objectgroup>
  </tile>
  <tile id="983">
   <objectgroup draworder="index" id="2">
    <object id="1" x="0" y="0" width="16" height="16"/>
   </objectgroup>
  </tile>
  <tile id="1015">
   <objectgroup draworder="index" id="2">
    <object id="1" x="0" y="0" width="16" height="16"/>
   </objectgroup>
  </tile>
  <tile id="1022">
   <objectgroup draworder="index" id="2">
    <object id="1" x="0" y="0" width="15" height="16"/>
   </objectgroup>
  </tile>
 </tileset>
 <layer id="1" name="Kachelebene 1" width="50" height="32">
  <data encoding="csv">
   <chunk x="0" y="0" width="16" height="16">
5033,5074,5077,5075,5074,5074,5074,5075,5075,5076,5074,5076,5074,5074,5074,5074,
5150,5154,5115,5116,5151,5152,5156,5154,5115,5153,5113,5151,5117,5156,5117,5153,
5150,5152,5151,5156,5116,5155,5156,5151,5156,5114,5153,5116,5116,5114,5153,5156,
5072,5152,5116,5117,5113,5153,5116,5154,5116,5117,5151,5153,5117,5115,5151,5155,
5150,5152,5115,5112,5114,5154,5155,5112,5115,5155,5112,5117,5155,5117,5153,5114,
5111,5114,5154,5113,5117,5155,5116,5117,5114,5113,5154,5152,5113,5115,5151,5154,
5072,5156,5112,5154,5114,5117,5114,5112,5156,5115,5114,5152,5155,5153,5116,5151,
5150,5115,5113,5117,5151,5152,5113,5114,5113,5115,5156,5117,5115,5117,5155,5114,
5111,5154,5152,5155,5151,5115,5116,5154,5113,5153,5113,5117,5115,5115,5115,5117,
0,0,0,0,0,0,0,0,0,0,0,0,0,0,0,0,
0,0,0,0,0,0,0,0,0,0,0,0,0,0,0,0,
0,0,0,0,0,0,0,0,0,0,0,0,0,0,0,0,
0,0,0,0,0,0,0,0,0,0,0,0,0,0,0,0,
0,0,0,0,0,0,0,0,0,0,0,0,0,0,0,0,
0,0,0,0,0,0,0,0,0,0,0,0,0,0,0,0,
0,0,0,0,0,0,0,0,0,0,0,0,0,0,0,0
</chunk>
   <chunk x="16" y="0" width="16" height="16">
5074,5074,5074,5074,5074,5077,5075,5074,5074,5074,5075,5075,5076,5074,5076,5074,
5113,5155,5114,5114,5154,5115,5116,5151,5152,5156,5154,5115,5153,5113,5151,5117,
5113,5113,5155,5155,5152,5151,5156,5116,5155,5156,5151,5156,5114,5153,5116,5116,
5112,5113,5114,5152,5152,5116,5117,5113,5153,5116,5154,5116,5117,5151,5153,5117,
5117,5151,5153,5156,5152,5115,5112,5114,5154,5155,5112,5115,5155,5112,5117,5155,
5151,5116,5153,5154,5114,5154,5113,5117,5155,5116,5117,5114,5113,5154,5152,5113,
5117,5152,5114,5116,5156,5112,5154,5114,5117,5114,5112,5156,5115,5114,5152,5155,
5152,5153,5116,5152,5115,5113,5117,5151,5152,5113,5114,5113,5115,5156,5117,5115,
5113,5112,5116,5153,5154,5152,5155,5151,5115,5116,5154,5113,5153,5113,5117,5115,
0,0,0,0,0,0,0,0,0,0,0,0,0,0,0,0,
0,0,0,0,0,0,0,0,0,0,0,0,0,0,0,0,
0,0,0,0,0,0,0,0,0,0,0,0,0,0,0,0,
0,0,0,0,0,0,0,0,0,0,0,0,0,0,0,0,
0,0,0,0,0,0,0,0,0,0,0,0,0,0,0,0,
0,0,0,0,0,0,0,0,0,0,0,0,0,0,0,0,
0,0,0,0,0,0,0,0,0,0,0,0,0,0,0,0
</chunk>
   <chunk x="32" y="0" width="16" height="16">
5074,5074,5074,5074,5074,5074,5074,5074,5077,5075,5074,5074,5074,5075,5075,5076,
5156,5117,5153,5113,5155,5114,5114,5154,5115,5116,5151,5152,5156,5154,5115,5153,
5114,5153,5156,5113,5113,5155,5155,5152,5151,5156,5116,5155,5156,5151,5156,5114,
5115,5151,5155,5112,5113,5114,5152,5152,5116,5117,5113,5153,5116,5154,5116,5117,
5117,5153,5114,5117,5151,5153,5156,5152,5115,5112,5114,5154,5155,5112,5115,5155,
5115,5151,5154,5151,5116,5153,5154,5114,5154,5113,5117,5155,5116,5117,5114,5113,
5153,5116,5151,5117,5152,5114,5116,5156,5112,5154,5114,5117,5114,5112,5156,5115,
5117,5155,5114,5152,5153,5116,5152,5115,5113,5117,5151,5152,5113,5114,5113,5115,
5115,5115,5117,5113,5112,5116,5153,5154,5152,5155,5151,5115,5116,5154,5113,5153,
0,0,0,0,0,0,0,0,0,0,0,0,0,0,0,0,
0,0,0,0,0,0,0,0,0,0,0,0,0,0,0,0,
0,0,0,0,0,0,0,0,0,0,0,0,0,0,0,0,
0,0,0,0,0,0,0,0,0,0,0,0,0,0,0,0,
0,0,0,0,0,0,0,0,0,0,0,0,0,0,0,0,
0,0,0,0,0,0,0,0,0,0,0,0,0,0,0,0,
0,0,0,0,0,0,0,0,0,0,0,0,0,0,0,0
</chunk>
   <chunk x="48" y="0" width="16" height="16">
5074,5076,5074,5074,5074,5074,5074,5074,5074,5074,5074,5077,5075,5074,5074,5074,
5113,5151,5117,5156,5117,5153,5113,5155,5114,5114,5154,5115,5116,5151,5152,5156,
5153,5116,5116,5114,5153,5156,5113,5113,5155,5155,5152,5151,5156,5116,5155,5156,
5151,5153,5117,5115,5151,5155,5112,5113,5114,5152,5152,5116,5117,5113,5153,5116,
5112,5117,5155,5117,5153,5114,5117,5151,5153,5156,5152,5115,5112,5114,5154,5155,
5154,5152,5113,5115,5151,5154,5151,5116,5153,5154,5114,5154,5113,5117,5155,5116,
5114,5152,5155,5153,5116,5151,5117,5152,5114,5116,5156,5112,5154,5114,5117,5114,
5156,5117,5115,5117,5155,5114,5152,5153,5116,5152,5115,5113,5117,5151,5152,5113,
5113,5117,5115,5115,5115,5117,5113,5112,5116,5153,5154,5152,5155,5151,5115,5116,
0,0,0,0,0,0,0,0,0,0,0,0,0,0,0,0,
0,0,0,0,0,0,0,0,0,0,0,0,0,0,0,0,
0,0,0,0,0,0,0,0,0,0,0,0,0,0,0,0,
0,0,0,0,0,0,0,0,0,0,0,0,0,0,0,0,
0,0,0,0,0,0,0,0,0,0,0,0,0,0,0,0,
0,0,0,0,0,0,0,0,0,0,0,0,0,0,0,0,
0,0,0,0,0,0,0,0,0,0,0,0,0,0,0,0
</chunk>
   <chunk x="64" y="0" width="16" height="16">
5075,5075,5076,5074,5076,5074,5074,5074,5074,5074,5074,5074,5074,5040,0,0,
5154,5115,5153,5113,5151,5117,5156,5117,5153,5113,5155,5114,5114,5079,0,0,
5151,5156,5114,5153,5116,5116,5114,5153,5156,5113,5113,5155,5155,5079,0,0,
5154,5116,5117,5151,5153,5117,5115,5151,5155,5112,5113,5114,5152,5079,0,0,
5112,5115,5155,5112,5117,5155,5117,5153,5114,5117,5151,5153,5156,5079,0,0,
5117,5114,5113,5154,5152,5113,5115,5151,5154,5151,5116,5153,5154,5157,0,0,
5112,5156,5115,5114,5152,5155,5153,5116,5151,5117,5152,5114,5116,5157,0,0,
5114,5113,5115,5156,5117,5115,5117,5155,5114,5152,5153,5116,5152,5079,0,0,
5154,5113,5153,5113,5117,5115,5115,5115,5117,5113,5112,5116,5153,5157,0,0,
0,0,0,0,0,0,0,0,0,0,0,0,0,0,0,0,
0,0,0,0,0,0,0,0,0,0,0,0,0,0,0,0,
0,0,0,0,0,0,0,0,0,0,0,0,0,0,0,0,
0,0,0,0,0,0,0,0,0,0,0,0,0,0,0,0,
0,0,0,0,0,0,0,0,0,0,0,0,0,0,0,0,
0,0,0,0,0,0,0,0,0,0,0,0,0,0,0,0,
0,0,0,0,0,0,0,0,0,0,0,0,0,0,0,0
</chunk>
  </data>
 </layer>
</map>
